N0010 (Filename: 0.ngc)
N0020 (Post processor: Xmotion.scpost)
N0030 (Date: 05/02/2019)
N0040 G20 (Units: Inches)
N0050 G40 G90
N0060 G64 P0.001 
N0070 F1 S1
N0080 (Part: 1 [4])
N0090 (Operation: Outside Offset, 0, T2: Plasma, 0.038 in kerf)
N0100 G00 Z1.1250
N0110 X4.1144 Y17.8902
N0120 Z0.6900
N0130 o<touchoff> call [0.1900]  [0.5]  [0.1750] 
N0140 F3.937
N0150 G01 Z0.1750
N0160 Y17.7652 F35
N0170 G02 X4.1144 Y17.7652 I0.0000 J0.2560 F35.0
N0180 X4.0344 Y17.8453 I0.0000 J0.0800
N0190 M05
N0200 G04 P1
N0210 G00 Z1.1250
N0220 X1.8644 Y17.8902
N0230 Z0.6900
N0240 o<touchoff> call [0.1900]  [0.5]  [0.1750] 
N0250 F3.937
N0260 G01 Z0.1750
N0270 Y17.7652 F35
N0280 G02 X1.8644 Y17.7652 I0.0000 J0.2560 F35.0
N0290 X1.7844 Y17.8453 I0.0000 J0.0800
N0300 M05
N0310 G04 P1
N0320 G00 Z1.1250
N0330 X7.4950 Y17.8690
N0340 Z0.6900
N0350 o<touchoff> call [0.1900]  [0.5]  [0.1750] 
N0360 F3.937
N0370 G01 Z0.1750
N0380 Y17.7440 F35
N0390 G02 X7.4950 Y17.7440 I0.0000 J0.2560 F35.0
N0400 X7.4150 Y17.8240 I0.0000 J0.0800
N0410 M05
N0420 G04 P1
N0430 G00 Z1.1250
N0440 X7.4950 Y30.3690
N0450 Z0.6900
N0460 o<touchoff> call [0.1900]  [0.5]  [0.1750] 
N0470 F3.937
N0480 G01 Z0.1750
N0490 Y30.2440 F35
N0500 G02 X7.4950 Y30.2440 I0.0000 J0.2560 F35.0
N0510 X7.4150 Y30.3240 I0.0000 J0.0800
N0520 M05
N0530 G04 P1
N0540 G00 Z1.1250
N0550 X7.1080 Y32.0065
N0560 Z0.6900
N0570 o<touchoff> call [0.1900]  [0.5]  [0.1750] 
N0580 F3.937
N0590 G01 Z0.1750
N0600 Y31.8815 F35
N0610 G02 X7.1080 Y31.8815 I0.0000 J0.1185 F35.0
N0620 X7.0280 Y31.9615 I0.0000 J0.0800
N0630 M05
N0640 G04 P1
N0650 G00 Z1.1250
N0660 X8.6080 Y32.0065
N0670 Z0.6900
N0680 o<touchoff> call [0.1900]  [0.5]  [0.1750] 
N0690 F3.937
N0700 G01 Z0.1750
N0710 Y31.8815 F35
N0720 G02 X8.6080 Y31.8815 I0.0000 J0.1185 F35.0
N0730 X8.5280 Y31.9615 I0.0000 J0.0800
N0740 M05
N0750 G04 P1
N0760 G00 Z1.1250
N0770 X4.0519 Y33.9605
N0780 Z0.6900
N0790 o<touchoff> call [0.1900]  [0.5]  [0.1750] 
N0800 F3.937
N0810 G01 Z0.1750
N0820 Y33.8354 F35
N0830 G02 X4.0519 Y33.8354 I0.0000 J0.1735 F35.0
N0840 X3.9719 Y33.9155 I0.0000 J0.0800
N0850 M05
N0860 G04 P1
N0870 G00 Z1.1250
N0880 X4.0519 Y35.5352
N0890 Z0.6900
N0900 o<touchoff> call [0.1900]  [0.5]  [0.1750] 
N0910 F3.937
N0920 G01 Z0.1750
N0930 Y35.4102 F35
N0940 G02 X4.0519 Y35.4102 I0.0000 J0.1735 F35.0
N0950 X3.9719 Y35.4902 I0.0000 J0.0800
N0960 M05
N0970 G04 P1
N0980 G00 Z1.1250
N0990 X1.9269 Y35.5352
N1000 Z0.6900
N1010 o<touchoff> call [0.1900]  [0.5]  [0.1750] 
N1020 F3.937
N1030 G01 Z0.1750
N1040 Y35.4102 F35
N1050 G02 X1.9269 Y35.4102 I0.0000 J0.1735 F35.0
N1060 X1.8469 Y35.4902 I0.0000 J0.0800
N1070 M05
N1080 G04 P1
N1090 G00 Z1.1250
N1100 X1.9269 Y33.9605
N1110 Z0.6900
N1120 o<touchoff> call [0.1900]  [0.5]  [0.1750] 
N1130 F3.937
N1140 G01 Z0.1750
N1150 Y33.8354 F35
N1160 G02 X1.9269 Y33.8354 I0.0000 J0.1735 F35.0
N1170 X1.8469 Y33.9155 I0.0000 J0.0800
N1180 M05
N1190 G04 P1
N1200 G00 Z1.1250
N1210 X9.2450 Y33.1440
N1220 Z0.6900
N1230 o<touchoff> call [0.1900]  [0.5]  [0.1750] 
N1240 F3.937
N1250 G01 Z0.1750
N1260 Y33.0190 F35
N1270 X6.3700
N1280 G03 X6.3510 Y33.0000 I0.0000 J-0.0190 F35.0
N1290 G01 Y0.0000 F35
N1300 G03 X6.3700 Y-0.0190 I0.0190 J0.0000 F35.0
N1310 G01 X7.6302 F35
N1320 G03 X7.8990 Y0.2388 I0.0000 J0.2690 F35.0
N1330 G01 X9.2640 Y32.9992 F35
N1340 G02 X9.3473 Y33.0758 I0.0799 J-0.0033 F35.0
N1350 M05
N1360 G04 P1
N1370 G00 Z1.1250
N1380 X1.3355 Y0.2548
N1390 Z0.6900
N1400 o<touchoff> call [0.1900]  [0.5]  [0.1750] 
N1410 F3.937
N1420 G01 Z0.1750
N1430 X1.4604 Y0.2601 F35
N1440 G03 X1.7292 Y0.0022 I0.2688 J0.0112 F35.0
N1450 G01 X4.2496 F35
N1460 G03 X4.5183 Y0.2601 I0.0000 J0.2690 F35.0
N1470 G01 X5.9975 Y35.7601 F35
N1480 G03 X5.7287 Y36.0403 I-0.2688 J0.0112 F35.0
N1490 G01 X0.2500 F35
N1500 G03 X-0.0188 Y35.7601 I0.0000 J-0.2690 F35.0
N1510 G01 X1.4604 Y0.2601 F35
N1520 G02 X1.3838 Y0.1768 I-0.0799 J-0.0033 F35.0
N1530 M05
N1540 G04 P1
N1550 G00 Z1.1250
N1560 M05 M30
