N0010 (Filename: 1.ngc)
N0020 (Post processor: Xmotion.scpost)
N0030 (Date: 12/12/2018)
N0040 G20 (Units: Inches)
N0050 G40 G90
N0060 G64 P0.001 
N0070 F1 S1
N0080 (Part: MillenniumFalcon[2])
N0090 (Operation: Inside Offset, LAYER_2, T2: Plasma, 0.04 in kerf)
N0100 G00 Z1.3000
N0110 X10.5956 Y19.7083
N0120 Z0.6900
N0130 o<touchoff> call [0.1900]  [0.5]  [0.1750] 
N0140 F3.937
N0150 G01 Z0.1750
N0160 X10.7193 Y19.6903 F30
N0170 X10.7025 Y19.5747
N0180 G03 X10.6779 Y19.3935 I4.4657 J-0.6973 F30.0
N0190 X10.6653 Y19.2110 I1.8404 J-0.2189
N0200 G01 X10.6651 Y19.1939 F30
N0210 G03 X10.6687 Y19.1823 I0.0200 J-0.0002 F30.0
N0220 X10.7491 Y19.1372 I0.0866 J0.0602
N0230 X10.8203 Y19.1309 I0.0845 J0.5484
N0240 G01 X10.8501 Y19.1299 F30
N0250 X10.8505
N0260 G02 X10.9181 Y19.1253 I-0.0083 J-0.6280 F30.0
N0270 X10.9403 Y19.1213 I-0.0200 J-0.1729
N0280 X10.9032 Y19.1058 I-0.2013 J0.4290
N0290 G01 X10.9028 Y19.1056 F30
N0300 X10.8619 Y19.0895
N0310 G03 X10.7671 Y19.0495 I0.5098 J-1.3415 F30.0
N0320 X10.6295 Y18.9532 I0.1315 J-0.3342
N0330 G02 X10.2518 Y19.3168 I4.9689 J5.5394
N0340 G01 X10.0712 Y19.4962 F30
N0350 G02 X10.6670 Y19.8160 I0.8106 J-0.7955 F30.0
N0360 G01 X10.6678 Y19.8161 F30
N0370 X10.7320 Y19.8311
N0380 G02 X10.7194 Y19.6905 I-1.0937 J0.0277 F30.0
N0390 G01 X10.7193 Y19.6903 F30
N0400 G02 X10.6286 Y19.6227 I-0.0792 J0.0115 F30.0
N0410 M05
N0420 G04 P1
N0430 G00 Z1.3000
N0440 X10.7445 Y20.1279
N0450 Z0.6900
N0460 o<touchoff> call [0.1900]  [0.5]  [0.1750] 
N0470 F3.937
N0480 G01 Z0.1750
N0490 X10.7533 Y20.0032 F30
N0500 G03 X9.6069 Y19.2400 I0.0975 J-1.3889 F30.0
N0510 X9.4257 Y18.8057 I2.1164 J-1.1383
N0520 G02 X9.1256 Y18.8863 I1.3371 J5.5762
N0530 G03 X8.9166 Y18.9433 I-1.7643 J-6.0587
N0540 X8.7671 Y18.9772 I-0.7333 J-2.8827
N0550 G02 X9.5086 Y20.1135 I2.4058 J-0.7598
N0560 X10.8354 Y20.6751 I1.6351 J-2.0148
N0570 X10.8610 Y20.5698 I-0.0570 J-0.0697
N0580 G03 X10.8599 Y20.5665 I0.0184 J-0.0079
N0590 G01 X10.8545 Y20.5432 F30
N0600 X10.8425 Y20.4990
N0610 G03 X10.8170 Y20.3469 I0.7103 J-0.1972 F30.0
N0620 G01 X10.8026 Y20.2130 F30
N0630 G02 X10.7812 Y20.0365 I-4.1946 J0.4180 F30.0
N0640 G01 X10.7763 Y20.0057 F30
N0650 X10.7533 Y20.0032
N0660 G02 X10.6678 Y20.0774 I-0.0056 J0.0798 F30.0
N0670 M05
N0680 G04 P1
N0690 G00 Z1.3000
N0700 X10.5849 Y21.0519
N0710 Z0.6900
N0720 o<touchoff> call [0.1900]  [0.5]  [0.1750] 
N0730 F3.937
N0740 G01 Z0.1750
N0750 X10.6467 Y20.9433 F30
N0760 G02 X10.2666 Y21.0449 I-0.1386 J0.2434 F30.0
N0770 G01 X10.2660 Y21.0459 F30
N0780 G02 X10.3410 Y21.4460 I0.2425 J0.1616 F30.0
N0790 X10.4529 Y21.4835 I0.1477 J-0.2550
N0800 G03 X10.4551 Y21.4838 I-0.0024 J0.0199
N0810 G02 X10.7344 Y21.3821 I0.0626 J-0.2624
N0820 X10.6467 Y20.9433 I-0.2860 J-0.1710
N0830 X10.5376 Y20.9732 I-0.0396 J0.0695
N0840 M05
N0850 G04 P1
N0860 G00 Z1.3000
N0870 X11.1944 Y20.9653
N0880 Z0.6900
N0890 o<touchoff> call [0.1900]  [0.5]  [0.1750] 
N0900 F3.937
N0910 G01 Z0.1750
N0920 X11.0706 Y20.9822 F30
N0930 X11.1329 Y21.4384
N0940 X11.5714 Y21.4000
N0950 X11.5350 Y20.4321
N0960 G02 X11.5085 Y19.7476 I-64.3962 J2.1512 F30.0
N0970 X11.4852 Y19.3107 I-24.9989 J1.1142
N0980 G01 X11.4801 Y19.2330 F30
N0990 X11.3352 Y19.2459
N1000 G02 X11.3313 Y19.2845 I0.0780 J0.0274 F30.0
N1010 G01 X11.3314 Y19.2856 F30
N1020 X11.3332 Y19.3072
N1030 X11.3361 Y19.3319
N1040 G03 X11.3406 Y19.3892 I-0.4141 J0.0612 F30.0
N1050 X11.3366 Y19.4234 I-0.1313 J0.0022
N1060 G01 X11.3362 Y19.4249 F30
N1070 G03 X11.2340 Y19.4717 I-0.0732 J-0.0250 F30.0
N1080 X11.2320 Y19.4708 I0.0075 J-0.0185
N1090 X11.1827 Y19.3860 I0.0446 J-0.0826
N1100 G01 X11.1805 Y19.3664 F30
N1110 X11.1804 Y19.3657
N1120 X11.1782 Y19.3378
N1130 X11.1781 Y19.3372
N1140 G02 X11.1722 Y19.2852 I-0.3839 J0.0179 F30.0
N1150 X11.1653 Y19.2628 I-0.0945 J0.0167
N1160 G01 X11.1626 Y19.2587 F30
N1170 G02 X11.1380 Y19.2886 I0.0016 J0.0264 F30.0
N1180 G03 X11.1382 Y19.2913 I-0.0198 J0.0027
N1190 G02 X11.1435 Y19.3525 I0.3421 J0.0012
N1200 G03 X11.1492 Y19.4093 I-0.4058 J0.0700
N1210 X11.1460 Y19.4425 I-0.1216 J0.0048
N1220 G01 X11.1455 Y19.4442 F30
N1230 G03 X11.0479 Y19.4856 I-0.0672 J-0.0227 F30.0
N1240 X10.9896 Y19.3975 I0.0420 J-0.0911
N1250 X10.9835 Y19.3372 I0.5317 J-0.0848
N1260 G01 X10.9786 Y19.2768 F30
N1270 X10.8437 Y19.2887
N1280 X11.0706 Y20.9822
N1290 G02 X11.1607 Y21.0507 I0.0793 J-0.0108 F30.0
N1300 M05
N1310 G04 P1
N1320 G00 Z1.3000
N1330 X10.7811 Y21.8744
N1340 Z0.6900
N1350 o<touchoff> call [0.1900]  [0.5]  [0.1750] 
N1360 F3.937
N1370 G01 Z0.1750
N1380 X10.8559 Y21.7743 F30
N1390 G02 X10.6220 Y21.8120 I-0.0986 J0.1321 F30.0
N1400 G01 X10.6214 Y21.8128 F30
N1410 G02 X10.6225 Y22.0695 I0.1645 J0.1277 F30.0
N1420 X10.7170 Y22.1147 I0.1245 J-0.1391
N1430 G03 X10.7202 Y22.1155 I-0.0032 J0.0197
N1440 G02 X10.9177 Y22.0640 I0.0596 J-0.1759
N1450 X10.8562 Y21.7745 I-0.1890 J-0.1111
N1460 X10.7446 Y21.7931 I-0.0465 J0.0651
N1470 M05
N1480 G04 P1
N1490 G00 Z1.3000
N1500 X12.0847 Y21.8664
N1510 Z0.6900
N1520 o<touchoff> call [0.1900]  [0.5]  [0.1750] 
N1530 F3.937
N1540 G01 Z0.1750
N1550 X12.1996 Y21.9156 F30
N1560 G02 X12.0793 Y21.6498 I-0.1819 J-0.0778 F30.0
N1570 G03 X12.0772 Y21.6490 I0.0062 J-0.0190
N1580 G02 X11.8326 Y21.7449 I-0.0755 J0.1673
N1590 X11.8246 Y21.8574 I0.2351 J0.0733
N1600 G01 X11.8247 Y21.8578 F30
N1610 G02 X12.0078 Y22.0108 I0.1761 J-0.0247 F30.0
N1620 G03 X12.0132 Y22.0113 I0.0008 J0.0200
N1630 G02 X12.1995 Y21.9159 I0.0376 J-0.1561
N1640 G01 X12.1996 Y21.9156 F30
N1650 G02 X12.1575 Y21.8105 I-0.0736 J-0.0315 F30.0
N1660 M05
N1670 G04 P1
N1680 G00 Z1.3000
N1690 X12.2571 Y21.2023
N1700 Z0.6900
N1710 o<touchoff> call [0.1900]  [0.5]  [0.1750] 
N1720 F3.937
N1730 G01 Z0.1750
N1740 X12.3298 Y21.3040 F30
N1750 G02 X12.4176 Y21.0168 I-0.1434 J-0.2009 F30.0
N1760 G03 X12.4168 Y21.0138 I0.0187 J-0.0070
N1770 G02 X12.1625 Y20.7473 I-0.3392 J0.0691
N1780 X11.9246 Y20.8529 I-0.0180 J0.2801
N1790 G01 X11.9239 Y20.8538 F30
N1800 G02 X11.9480 Y21.2673 I0.2191 J0.1947 F30.0
N1810 X12.3298 Y21.3040 I0.2194 J-0.2779
N1820 X12.3484 Y21.1924 I-0.0465 J-0.0651
N1830 M05
N1840 G04 P1
N1850 G00 Z1.3000
N1860 X12.3476 Y20.2801
N1870 Z0.6900
N1880 o<touchoff> call [0.1900]  [0.5]  [0.1750] 
N1890 F3.937
N1900 G01 Z0.1750
N1910 X12.4688 Y20.2495 F30
N1920 G02 X12.2205 Y19.9507 I-2.9124 J2.1676 F30.0
N1930 G03 X12.0750 Y19.7841 I4.9340 J-4.4556
N1940 G01 X12.0283 Y19.7268 F30
N1950 G03 X11.7688 Y19.8742 I-1.0721 J-1.5861 F30.0
N1960 G01 X11.6718 Y19.9228 F30
N1970 X11.6788 Y20.0296
N1980 G03 X11.7017 Y20.5925 I-7.5475 J0.5896 F30.0
N1990 G01 X11.7018 Y20.5974 F30
N2000 G02 X12.4688 Y20.2495 I-0.4916 J-2.1031 F30.0
N2010 X12.3568 Y20.2331 I-0.0642 J0.0478
N2020 M05
N2030 G04 P1
N2040 G00 Z1.3000
N2050 X13.5341 Y19.9153
N2060 Z0.6900
N2070 o<touchoff> call [0.1900]  [0.5]  [0.1750] 
N2080 F3.937
N2090 G01 Z0.1750
N2100 X13.4123 Y19.8870 F30
N2110 G02 X13.5093 Y19.9728 I0.0841 J0.0027 F30.0
N2120 G03 X13.5125 Y19.9726 I0.0031 J0.0198
N2130 G02 X13.6141 Y19.9658 I0.0070 J-0.6587
N2140 G01 X13.6681 Y19.9589 F30
N2150 G03 X13.6775 Y19.9087 I0.3898 J0.0473 F30.0
N2160 G02 X13.6844 Y19.8632 I-0.2126 J-0.0555
N2170 G01 X13.4123 Y19.8870 F30
N2180 G02 X13.5154 Y19.9336 I0.0749 J-0.0282 F30.0
N2190 M05
N2200 G04 P1
N2210 G00 Z1.3000
N2220 X13.4032 Y19.6078
N2230 Z0.6900
N2240 o<touchoff> call [0.1900]  [0.5]  [0.1750] 
N2250 F3.937
N2260 G01 Z0.1750
N2270 X13.3606 Y19.5174 F30
N2280 G03 X13.3524 Y19.5232 I-0.1449 J-0.1961 F30.0
N2290 X13.3507 Y19.5242 I-0.0112 J-0.0166
N2300 G01 X13.3446 Y19.5275 F30
N2310 G03 X13.3648 Y19.6311 I-0.3014 J0.1126 F30.0
N2320 G01 X13.3729 Y19.7312 F30
N2330 X13.4509 Y19.7241
N2340 X13.4277 Y19.4623
N2350 G02 X13.3876 Y19.4941 I0.0712 J0.1311 F30.0
N2360 G01 X13.3867 Y19.4950 F30
N2370 G03 X13.3606 Y19.5174 I-0.1711 J-0.1737 F30.0
N2380 G02 X13.3991 Y19.5992 I0.0602 J0.0217
N2390 M05
N2400 G04 P1
N2410 G00 Z1.3000
N2420 X13.0806 Y19.5503
N2430 Z0.6900
N2440 o<touchoff> call [0.1900]  [0.5]  [0.1750] 
N2450 F3.937
N2460 G01 Z0.1750
N2470 X13.1703 Y19.4632 F30
N2480 G03 X12.4973 Y19.2840 I1.4879 J-6.9399 F30.0
N2490 G01 X12.4885 Y19.2812 F30
N2500 G02 X12.3404 Y19.4406 I0.6037 J0.7090 F30.0
N2510 G01 X12.3400 Y19.4412 F30
N2520 G03 X12.2694 Y19.5246 I-1.2319 J-0.9715 F30.0
N2530 X12.1583 Y19.6220 I-0.4365 J-0.3859
N2540 G02 X12.3727 Y19.8724 I3.4906 J-2.7703
N2550 G03 X12.5049 Y20.0245 I-4.0145 J3.6226
N2560 X12.5915 Y20.1342 I-1.9373 J1.6197
N2570 G01 X12.5981 Y20.1431 F30
N2580 G02 X13.1703 Y19.4632 I-1.1221 J-1.5251 F30.0
N2590 X13.0753 Y19.5247 I-0.0168 J0.0782
N2600 M05
N2610 G04 P1
N2620 G00 Z1.3000
N2630 X11.7553 Y18.8921
N2640 Z0.6900
N2650 o<touchoff> call [0.1900]  [0.5]  [0.1750] 
N2660 F3.937
N2670 G01 Z0.1750
N2680 X11.6734 Y18.8347 F30
N2690 G03 X11.6420 Y18.8649 I-0.0925 J-0.0648 F30.0
N2700 G02 X11.6211 Y18.8850 I0.0828 J0.1070
N2710 X11.6172 Y18.8904 I0.0354 J0.0295
N2720 G01 X11.6942 Y18.9091 F30
N2730 G03 X12.3900 Y19.0915 I-4.4609 J18.4338 F30.0
N2740 G01 X12.9048 Y19.2353 F30
N2750 X12.9055 Y19.2355
N2760 X12.9882 Y19.2620
N2770 G02 X13.1022 Y19.2965 I0.6124 J-1.8206 F30.0
N2780 G01 X13.1034 Y19.2969 F30
N2790 G02 X13.3138 Y19.3101 I0.1298 J-0.3827 F30.0
N2800 X13.3644 Y19.2891 I-0.0499 J-0.1914
N2810 X12.4100 Y19.0137 I-5.1926 J16.2043
N2820 G01 X11.8301 Y18.8594 F30
N2830 X11.6827 Y18.8189
N2840 G03 X11.6734 Y18.8347 I-0.1017 J-0.0490 F30.0
N2850 G02 X11.7475 Y18.8867 I0.0630 J-0.0111
N2860 M05
N2870 G04 P1
N2880 G00 Z1.3000
N2890 X11.9014 Y18.6732
N2900 Z0.6900
N2910 o<touchoff> call [0.1900]  [0.5]  [0.1750] 
N2920 F3.937
N2930 G01 Z0.1750
N2940 X11.8167 Y18.6200 F30
N2950 G02 X11.7946 Y18.6726 I0.1495 J0.0940 F30.0
N2960 G01 X11.7942 Y18.6738 F30
N2970 X11.7917 Y18.6818
N2980 X11.9013 Y18.7097
N2990 G03 X13.0060 Y19.0082 I-10.0621 J39.4290 F30.0
N3000 G01 X13.4799 Y19.1391 F30
N3010 G02 X13.6106 Y19.0932 I0.0269 J-0.1325 F30.0
N3020 X12.7217 Y18.8373 I-3.4092 J10.1703
N3030 G01 X12.5676 Y18.7978 F30
N3040 G03 X12.1688 Y18.6929 I5.5464 J-21.8880 F30.0
N3050 X11.8353 Y18.5955 I2.4915 J-9.1602
N3060 G02 X11.8167 Y18.6200 I0.1309 J0.1184
N3070 X11.8934 Y18.6682 I0.0624 J-0.0142
N3080 M05
N3090 G04 P1
N3100 G00 Z1.3000
N3110 X13.6530 Y19.5842
N3120 Z0.6900
N3130 o<touchoff> call [0.1900]  [0.5]  [0.1750] 
N3140 F3.937
N3150 G01 Z0.1750
N3160 X13.6384 Y19.7083 F30
N3170 X13.6395 Y19.7082
N3180 G02 X13.6840 Y19.7037 I-0.0070 J-0.2886 F30.0
N3190 X13.6995 Y19.6987 I-0.0096 J-0.0567
N3200 G01 X13.7012 Y19.6973 F30
N3210 X13.6634 Y19.2636
N3220 G02 X13.6323 Y19.2912 I0.0586 J0.0973 F30.0
N3230 G01 X13.6316 Y19.2920 F30
N3240 G03 X13.6000 Y19.3222 I-0.1801 J-0.1572 F30.0
N3250 X13.5982 Y19.3235 I-0.0124 J-0.0157
N3260 G01 X13.5903 Y19.3284 F30
N3270 X13.6236 Y19.7095
N3280 X13.6384 Y19.7083
N3290 G02 X13.6516 Y19.5959 I-0.0496 J-0.0628 F30.0
N3300 M05
N3310 G04 P1
N3320 G00 Z1.3000
N3330 X13.1726 Y18.6750
N3340 Z0.6900
N3350 o<touchoff> call [0.1900]  [0.5]  [0.1750] 
N3360 F3.937
N3370 G01 Z0.1750
N3380 X13.1842 Y18.5505 F30
N3390 X13.1841
N3400 G02 X12.8705 Y18.5231 I-1.3191 J13.2824 F30.0
N3410 G01 X12.7475 Y18.5152 F30
N3420 G03 X12.7346 Y18.5984 I-0.8693 J-0.0924 F30.0
N3430 G02 X12.7233 Y18.6729 I0.7746 J0.1554
N3440 G01 X12.8230 Y18.6972 F30
N3450 G03 X13.4048 Y18.8551 I-2.3523 J9.8128 F30.0
N3460 G01 X13.4113 Y18.8571 F30
N3470 G02 X13.4577 Y18.7523 I-0.1426 J-0.1258 F30.0
N3480 G01 X13.4579 Y18.7511 F30
N3490 X13.4622 Y18.7261
N3500 X13.4681 Y18.6824
N3510 G03 X13.4815 Y18.5877 I1.2367 J0.1264 F30.0
N3520 G01 X13.4816 Y18.5869 F30
N3530 X13.4835 Y18.5785
N3540 X13.1842 Y18.5505
N3550 G02 X13.0971 Y18.6227 I-0.0075 J0.0797 F30.0
N3560 M05
N3570 G04 P1
N3580 G00 Z1.3000
N3590 X13.4526 Y18.1418
N3600 Z0.6900
N3610 o<touchoff> call [0.1900]  [0.5]  [0.1750] 
N3620 F3.937
N3630 G01 Z0.1750
N3640 F30
N3650 G02 X13.2895 Y18.1496 I-0.0517 J0.6270 F30.0
N3660 G01 X13.2890 Y18.1497 F30
N3670 G02 X13.1559 Y18.1761 I0.2705 J1.7087 F30.0
N3680 X13.2260 Y18.2136 I0.0581 J-0.0243
N3690 G03 X13.2301 Y18.2133 I0.0038 J0.0196
N3700 G02 X13.3516 Y18.2011 I0.0070 J-0.5418
N3710 G01 X13.3927 Y18.1927 F30
N3720 X13.4634 Y18.1769
N3730 X13.4642 Y18.1767
N3740 X13.4988 Y18.1705
N3750 X13.4974 Y18.1548
N3760 G02 X13.4526 Y18.1418 I-0.0544 J0.1032 F30.0
N3770 M05
N3780 G04 P1
N3790 G00 Z1.3000
N3800 X13.2082 Y18.0079
N3810 Z0.6900
N3820 o<touchoff> call [0.1900]  [0.5]  [0.1750] 
N3830 F3.937
N3840 G01 Z0.1750
N3850 G03 X13.2122 Y18.0075 I0.0039 J0.0196 F30.0
N3860 G02 X13.3339 Y17.9943 I0.0030 J-0.5412
N3870 G01 X13.3795 Y17.9846 F30
N3880 X13.4807 Y17.9643
N3890 X13.4793 Y17.9483
N3900 G02 X13.3756 Y17.9326 I-0.0745 J0.1415 F30.0
N3910 G01 X13.3737 Y17.9328 F30
N3920 G02 X13.2684 Y17.9464 I0.1096 J1.2631 F30.0
N3930 G03 X13.1714 Y17.9591 I-0.2100 J-1.2327
N3940 X13.1339 Y17.9608 I-0.0383 J-0.4153
N3950 G02 X13.2082 Y18.0079 I0.0619 J-0.0156
N3960 M05
N3970 G04 P1
N3980 G00 Z1.3000
N3990 X13.0813 Y17.4966
N4000 Z0.6900
N4010 o<touchoff> call [0.1900]  [0.5]  [0.1750] 
N4020 F3.937
N4030 G01 Z0.1750
N4040 X13.1160 Y17.6166 F30
N4050 G03 X13.3453 Y17.5542 I2.0937 J7.2353 F30.0
N4060 G01 X13.3952 Y17.5420 F30
N4070 G02 X12.7960 Y16.5494 I-2.2911 J0.7059 F30.0
N4080 X12.5300 Y16.3395 I-1.2600 J1.3237
N4090 G03 X12.1013 Y16.9566 I-6.4768 J-4.0427
N4100 G01 X12.0896 Y16.9723 F30
N4110 X12.1281 Y17.0063
N4120 G03 X12.6484 Y17.7358 I-1.0660 J1.3107 F30.0
N4130 G02 X13.1158 Y17.6167 I-1.0812 J-5.2179
N4140 G01 X13.1160 Y17.6166 F30
N4150 G02 X13.1706 Y17.5175 I-0.0222 J-0.0768 F30.0
N4160 M05
N4170 G04 P1
N4180 G00 Z1.3000
N4190 X12.3689 Y17.7836
N4200 Z0.6900
N4210 o<touchoff> call [0.1900]  [0.5]  [0.1750] 
N4220 F3.937
N4230 G01 Z0.1750
N4240 X12.4939 Y17.7864 F30
N4250 G02 X12.0000 Y17.1149 I-1.4901 J0.5788 F30.0
N4260 X11.7875 Y17.4126 I4.4294 J3.3874
N4270 G03 X11.6583 Y17.5960 I-5.5084 J-3.7409
N4280 G01 X11.6230 Y17.6432 F30
N4290 G02 X11.6974 Y17.7389 I0.3536 J-0.1982 F30.0
N4300 G01 X11.6979 Y17.7394 F30
N4310 G03 X11.7472 Y17.7951 I-0.5208 J0.5102 F30.0
N4320 X11.8028 Y17.9018 I-0.2328 J0.1892
N4330 G02 X12.4909 Y17.7874 I-0.0927 J-2.6838
N4340 G01 X12.4939 Y17.7864 F30
N4350 G02 X12.3904 Y17.7408 I-0.0746 J0.0290 F30.0
N4360 M05
N4370 G04 P1
N4380 G00 Z1.3000
N4390 X12.4762 Y18.5510
N4400 Z0.6900
N4410 o<touchoff> call [0.1900]  [0.5]  [0.1750] 
N4420 F3.937
N4430 G01 Z0.1750
N4440 X12.5725 Y18.5782 F30
N4450 X12.5728 Y18.5743
N4460 G03 X12.5783 Y18.5295 I0.2650 J0.0097 F30.0
N4470 X12.5818 Y18.5165 I0.0838 J0.0160
N4480 G02 X12.0107 Y18.4712 I-0.4014 J1.4352
N4490 X12.4793 Y18.5988 I1.0967 J-3.1030
N4500 G01 X12.4798 Y18.5989 F30
N4510 X12.5669 Y18.6179
N4520 G02 X12.5714 Y18.5923 I-0.0862 J-0.0282 F30.0
N4530 G01 Y18.5913 F30
N4540 X12.5725 Y18.5782
N4550 G02 X12.4918 Y18.5370 I-0.0609 J0.0198 F30.0
N4560 M05
N4570 G04 P1
N4580 G00 Z1.3000
N4590 X12.0006 Y19.2968
N4600 Z0.6900
N4610 o<touchoff> call [0.1900]  [0.5]  [0.1750] 
N4620 F3.937
N4630 G01 Z0.1750
N4640 X12.0416 Y19.1787 F30
N4650 X11.9915 Y19.1612
N4660 X11.8911 Y19.1243
N4670 G02 X11.7258 Y19.0648 I-1.5172 J3.9551 F30.0
N4680 G01 X11.7252 Y19.0646 F30
N4690 G02 X11.4849 Y19.0122 I-0.3011 J0.8042 F30.0
N4700 G01 X11.4839 Y19.0121 F30
N4710 G02 X11.3392 Y19.0410 I-0.0286 J0.2340 F30.0
N4720 X11.3157 Y19.0740 I0.0334 J0.0487
N4730 X11.3562 Y19.0873 I0.0358 J-0.0410
N4740 G01 X11.3581 Y19.0872 F30
N4750 G02 X11.4237 Y19.0818 I0.0025 J-0.3707 F30.0
N4760 G01 X11.4579 Y19.0763 F30
N4770 G03 X11.5322 Y19.0663 I0.1330 J0.7112 F30.0
N4780 X11.5753 Y19.0668 I0.0191 J0.2218
N4790 X11.6172 Y19.0800 I-0.0090 J0.1020
N4800 G01 X11.6177 Y19.0803 F30
N4810 X11.6182 Y19.0806
N4820 G03 X11.6273 Y19.0933 I-0.0105 J0.0170 F30.0
N4830 X11.6570 Y19.3864 I-1.2148 J0.2713
N4840 G01 X11.6580 Y19.4751 F30
N4850 G02 X11.6620 Y19.6454 I3.9710 J-0.0082 F30.0
N4860 G01 X11.6690 Y19.7348 F30
N4870 G02 X12.2822 Y19.2324 I-0.4542 J-1.1797 F30.0
N4880 G03 X12.0416 Y19.1787 I0.0560 J-0.8155
N4890 G02 X11.9398 Y19.2280 I-0.0263 J0.0756
N4900 M05
N4910 G04 P1
N4920 G00 Z1.3000
N4930 X11.5929 Y18.1701
N4940 Z0.6900
N4950 o<touchoff> call [0.1900]  [0.5]  [0.1750] 
N4960 F3.937
N4970 G01 Z0.1750
N4980 X11.7166 Y18.1521 F30
N4990 G02 X10.9470 Y17.6292 I-0.6241 J0.0907 F30.0
N5000 G01 X10.9464 Y17.6293 F30
N5010 G02 X10.4499 Y18.2182 I0.1262 J0.6102 F30.0
N5020 G01 X10.4498 Y18.2200 F30
N5030 G02 X10.7905 Y18.8595 I0.6246 J0.0777 F30.0
N5040 X10.9476 Y18.9072 I0.2618 J-0.5800
N5050 X10.9421 Y18.8597 I-0.5506 J0.0391
N5060 G03 X10.9353 Y18.7914 I0.6001 J-0.0943
N5070 X10.9376 Y18.7522 I0.1843 J-0.0088
N5080 X11.0341 Y18.6852 I0.0777 J0.0090
N5090 G01 X11.0354 Y18.6856 F30
N5100 G03 X11.0954 Y18.7745 I-0.0265 J0.0826 F30.0
N5110 G01 X11.0971 Y18.7912 F30
N5120 X11.0972 Y18.7922
N5130 X11.0992 Y18.8321
N5140 Y18.8329
N5150 G02 X11.1035 Y18.8928 I0.5074 J-0.0059 F30.0
N5160 X11.1102 Y18.9205 I0.1217 J-0.0150
N5170 X11.1134 Y18.9275 I0.0430 J-0.0156
N5180 G01 X11.1262 Y18.9262 F30
N5190 G02 X11.1403 Y18.8725 I-0.0360 J-0.0382 F30.0
N5200 G03 X11.1395 Y18.8687 I0.0191 J-0.0059
N5210 G01 X11.1372 Y18.8467 F30
N5220 X11.1331 Y18.8171
N5230 G03 X11.1271 Y18.7584 I0.4465 J-0.0751 F30.0
N5240 X11.1300 Y18.7228 I0.1425 J-0.0062
N5250 G01 X11.1302 Y18.7220 F30
N5260 G03 X11.2320 Y18.6705 I0.0735 J0.0189 F30.0
N5270 G01 X11.2331 Y18.6710 F30
N5280 G03 X11.2885 Y18.7668 I-0.0416 J0.0880 F30.0
N5290 G01 X11.2901 Y18.7861 F30
N5300 Y18.7869
N5310 X11.2919 Y18.8306
N5320 Y18.8312
N5330 G02 X11.2948 Y18.8781 I0.4547 J-0.0049 F30.0
N5340 X11.7169 Y18.1537 I-0.1765 J-0.5880
N5350 X11.6212 Y18.0934 I-0.0780 J0.0178
N5360 M05
N5370 G04 P1
N5380 G00 Z1.3000
N5390 X11.9933 Y18.0994
N5400 Z0.6900
N5410 o<touchoff> call [0.1900]  [0.5]  [0.1750] 
N5420 F3.937
N5430 G01 Z0.1750
N5440 X11.8722 Y18.0688 F30
N5450 G03 X11.8886 Y18.1548 I-0.2722 J0.0968 F30.0
N5460 G01 X11.8909 Y18.1852 F30
N5470 X11.8910 Y18.1858
N5480 X11.8945 Y18.2672
N5490 Y18.2677
N5500 G02 X11.8992 Y18.3235 I0.4425 J-0.0086 F30.0
N5510 G01 X12.9983 Y18.2275 F30
N5520 X12.9759 Y17.9722
N5530 X11.8722 Y18.0688
N5540 G02 X11.9743 Y18.1173 I0.0754 J-0.0268 F30.0
N5550 M05
N5560 G04 P1
N5570 G00 Z1.3000
N5580 X11.4429 Y16.8381
N5590 Z0.6900
N5600 o<touchoff> call [0.1900]  [0.5]  [0.1750] 
N5610 F3.937
N5620 G01 Z0.1750
N5630 X11.4528 Y16.7135 F30
N5640 G02 X11.2421 Y16.9208 I-0.0156 J0.1949 F30.0
N5650 G01 X11.2422 Y16.9228 F30
N5660 G02 X11.4512 Y17.1288 I0.1997 J0.0065 F30.0
N5670 G03 X11.4537 Y17.1289 I0.0009 J0.0200
N5680 G02 X11.6501 Y16.9364 I0.0143 J-0.1819
N5690 G03 X11.6501 Y16.9338 I0.0200 J-0.0012
N5700 G02 X11.4537 Y16.7136 I-0.2042 J-0.0155
N5710 X11.3707 Y16.7905 I-0.0030 J0.0799
N5720 M05
N5730 G04 P1
N5740 G00 Z1.3000
N5750 X11.6192 Y16.4288
N5760 Z0.6900
N5770 o<touchoff> call [0.1900]  [0.5]  [0.1750] 
N5780 F3.937
N5790 G01 Z0.1750
N5800 X11.7440 Y16.4349 F30
N5810 G02 X11.5226 Y16.2071 I-0.2171 J-0.0106 F30.0
N5820 G03 X11.5204 Y16.2070 I-0.0004 J-0.0200
N5830 G02 X11.3177 Y16.3968 I-0.0168 J0.1852
N5840 G01 Y16.3976 F30
N5850 G02 X11.3226 Y16.4597 I0.3327 J0.0047 F30.0
N5860 X11.5300 Y16.6226 I0.1912 J-0.0300
N5870 G03 X11.5346 Y16.6227 I0.0017 J0.0199
N5880 G02 X11.7440 Y16.4365 I0.0268 J-0.1808
N5890 X11.6617 Y16.3589 I-0.0800 J0.0024
N5900 M05
N5910 G04 P1
N5920 G00 Z1.3000
N5930 X10.8173 Y16.3825
N5940 Z0.6900
N5950 o<touchoff> call [0.1900]  [0.5]  [0.1750] 
N5960 F3.937
N5970 G01 Z0.1750
N5980 X10.6928 Y16.3939 F30
N5990 G02 X10.8798 Y16.5612 I0.1833 J-0.0168 F30.0
N6000 G03 X10.8852 Y16.5618 I0.0004 J0.0200
N6010 G02 X11.0884 Y16.4881 I0.0477 J-0.1853
N6020 X11.1060 Y16.3059 I-0.2194 J-0.1131
N6030 X10.8347 Y16.1565 I-0.2112 J0.0624
N6040 G01 X10.8341 Y16.1566 F30
N6050 G02 X10.6923 Y16.3910 I0.0477 J0.1889 F30.0
N6060 X10.7888 Y16.4502 I0.0778 J-0.0187
N6070 M05
N6080 G04 P1
N6090 G00 Z1.3000
N6100 X10.3169 Y16.6044
N6110 Z0.6900
N6120 o<touchoff> call [0.1900]  [0.5]  [0.1750] 
N6130 F3.937
N6140 G01 Z0.1750
N6150 X10.2991 Y16.7281 F30
N6160 G02 X10.4957 Y16.5534 I0.0244 J-0.1704 F30.0
N6170 G01 Y16.5518 F30
N6180 G02 X10.2879 Y16.3180 I-0.2216 J-0.0122 F30.0
N6190 X10.2390 Y16.3232 I0.0000 J0.2328
N6200 X10.0935 Y16.5828 I0.0787 J0.2147
N6210 X10.2943 Y16.7280 I0.1818 J-0.0399
N6220 X10.3657 Y16.6403 I-0.0082 J-0.0796
N6230 M05
N6240 G04 P1
N6250 G00 Z1.3000
N6260 X10.3571 Y17.0563
N6270 Z0.6900
N6280 o<touchoff> call [0.1900]  [0.5]  [0.1750] 
N6290 F3.937
N6300 G01 Z0.1750
N6310 X10.2330 Y17.0710 F30
N6320 G02 X10.4050 Y17.2161 I0.1636 J-0.0194 F30.0
N6330 G03 X10.4095 Y17.2164 I0.0010 J0.0200
N6340 G02 X10.6550 Y17.0303 I0.0362 J-0.2073
N6350 X10.6406 Y16.9286 I-0.2629 J-0.0147
N6360 X10.4027 Y16.8172 I-0.1891 J0.0940
N6370 G03 X10.4001 Y16.8176 I-0.0046 J-0.0195
N6380 G02 X10.2323 Y17.0676 I0.0193 J0.1943
N6390 X10.3318 Y17.1215 I0.0767 J-0.0228
N6400 M05
N6410 G04 P1
N6420 G00 Z1.3000
N6430 X10.8698 Y16.8957
N6440 Z0.6900
N6450 o<touchoff> call [0.1900]  [0.5]  [0.1750] 
N6460 F3.937
N6470 G01 Z0.1750
N6480 X10.7469 Y16.9184 F30
N6490 G02 X10.9749 Y17.0794 I0.1964 J-0.0362 F30.0
N6500 G03 X10.9773 Y17.0791 I0.0032 J0.0197
N6510 G02 X11.1455 Y16.8705 I-0.0071 J-0.1778
N6520 G03 X11.1452 Y16.8673 I0.0197 J-0.0035
N6530 G02 X10.9251 Y16.6641 I-0.2063 J0.0027
N6540 G01 X10.9060 Y16.6666 F30
N6550 G02 X10.7467 Y16.9174 I0.0421 J0.2028 F30.0
N6560 X10.8430 Y16.9766 I0.0778 J-0.0185
N6570 M05
N6580 G04 P1
N6590 G00 Z1.3000
N6600 X9.3279 Y16.8834
N6610 Z0.6900
N6620 o<touchoff> call [0.1900]  [0.5]  [0.1750] 
N6630 F3.937
N6640 G01 Z0.1750
N6650 X9.4146 Y16.7933 F30
N6660 X9.3973 Y16.7767
N6670 X9.2990 Y16.6804
N6680 X9.2634 Y16.6485
N6690 X9.2626 Y16.6480
N6700 G02 X9.2510 Y16.6558 I0.0122 J0.0308 F30.0
N6710 G01 X9.2504 Y16.6564 F30
N6720 G02 X9.2056 Y16.7079 I0.2383 J0.2522 F30.0
N6730 X9.1306 Y16.8226 I1.2736 J0.9147
N6740 G01 X9.0649 Y16.9304 F30
N6750 X9.0643 Y16.9314
N6760 G02 X8.6772 Y17.9501 I1.8635 J1.2910 F30.0
N6770 G01 X8.6766 Y17.9563 F30
N6780 G02 X9.0693 Y17.9971 I0.7645 J-5.4375 F30.0
N6790 G01 X9.2130 Y18.0088 F30
N6800 X9.3594 Y18.0226
N6810 X9.4088 Y17.8862
N6820 G03 X9.4755 Y17.7036 I4.7778 J1.6416 F30.0
N6830 X9.7854 Y17.2025 I1.1862 J0.3873
N6840 G01 X9.7864 Y17.2016 F30
N6850 X9.8062 Y17.1844
N6860 G02 X9.4150 Y16.7937 I-4.1963 J3.8114 F30.0
N6870 X9.3020 Y16.7993 I-0.0537 J0.0593
N6880 M05
N6890 G04 P1
N6900 G00 Z1.3000
N6910 X9.6077 Y17.9336
N6920 Z0.6900
N6930 o<touchoff> call [0.1900]  [0.5]  [0.1750] 
N6940 F3.937
N6950 G01 Z0.1750
N6960 X9.5477 Y18.0432 F30
N6970 G02 X10.2973 Y18.0331 I0.3335 J-3.0642 F30.0
N6980 G03 X10.4241 Y17.7780 I1.1657 J0.4205
N6990 G01 X10.4263 Y17.7742 F30
N7000 G02 X10.0531 Y17.4077 I-3.8567 J3.5544 F30.0
N7010 G01 X10.0528 Y17.4074 F30
N7020 X9.9313 Y17.2947
N7030 G02 X9.5477 Y18.0432 I0.9375 J0.9531 F30.0
N7040 X9.6359 Y17.9723 I0.0087 J-0.0795
N7050 M05
N7060 G04 P1
N7070 G00 Z1.3000
N7080 X9.0072 Y18.3203
N7090 Z0.6900
N7100 o<touchoff> call [0.1900]  [0.5]  [0.1750] 
N7110 F3.937
N7120 G01 Z0.1750
N7130 G03 X8.8640 Y18.3313 I-0.1898 J-1.5282 F30.0
N7140 G02 X8.7576 Y18.3396 I0.0662 J1.5465
N7150 G01 X8.7571 F30
N7160 G02 X8.6730 Y18.3565 I0.0327 J0.3820 F30.0
N7170 G03 X8.6841 Y18.3967 I-0.1063 J0.0510
N7180 G01 X9.0113 Y18.3680 F30
N7190 X9.0072 Y18.3203
N7200 M05
N7210 G04 P1
N7220 G00 Z1.3000
N7230 X8.9277 Y18.5300
N7240 Z0.6900
N7250 o<touchoff> call [0.1900]  [0.5]  [0.1750] 
N7260 F3.937
N7270 G01 Z0.1750
N7280 G02 X8.8360 Y18.5416 I0.0904 J1.0806 F30.0
N7290 G03 X8.7365 Y18.5552 I-0.2352 J-1.3508
N7300 X8.6968 Y18.5573 I-0.0410 J-0.4053
N7310 G01 X8.6973 Y18.5615 F30
N7320 G03 X8.6967 Y18.5885 I-0.0748 J0.0120 F30.0
N7330 G01 X8.6964 Y18.5898 F30
N7340 G02 X8.7178 Y18.5951 I0.0374 J-0.1060 F30.0
N7350 X8.8698 Y18.5933 I0.0695 J-0.5495
N7360 G01 X8.8702 Y18.5932 F30
N7370 G02 X9.0284 Y18.5631 I-0.1578 J-1.2590 F30.0
N7380 G01 X9.0269 Y18.5457 F30
N7390 G02 X8.9298 Y18.5297 I-0.0703 J0.1247 F30.0
N7400 G03 X8.9277 Y18.5300 I-0.0037 J-0.0196
N7410 M05
N7420 G04 P1
N7430 G00 Z1.3000
N7440 X10.1526 Y18.3986
N7450 Z0.6900
N7460 o<touchoff> call [0.1900]  [0.5]  [0.1750] 
N7470 F3.937
N7480 G01 Z0.1750
N7490 X10.2761 Y18.3793 F30
N7500 G03 X10.2660 Y18.2908 I1.0668 J-0.1672 F30.0
N7510 X10.2662 Y18.2398 I0.3176 J-0.0241
N7520 X10.2687 Y18.2216 I0.1615 J0.0129
N7530 G02 X9.6990 Y18.2574 I0.0631 J5.5693
N7540 G01 X9.5505 Y18.2722 F30
N7550 G03 X9.2457 Y18.3003 I-1.3026 J-12.4633 F30.0
N7560 G01 X9.1671 Y18.3058 F30
N7570 G03 X9.1727 Y18.3735 I-0.4477 J0.0712 F30.0
N7580 G01 X9.1734 Y18.4061 F30
N7590 Y18.4066
N7600 G02 X9.1770 Y18.4838 I0.8333 J0.0005 F30.0
N7610 X9.1840 Y18.5234 I0.2273 J-0.0200
N7620 G01 X9.1844 Y18.5249 F30
N7630 G02 X9.2045 Y18.5594 I0.0586 J-0.0111 F30.0
N7640 G01 X10.2848 Y18.4647 F30
N7650 G02 X10.2762 Y18.3795 I-0.6591 J0.0235 F30.0
N7660 G01 X10.2761 Y18.3793 F30
N7670 G02 X10.1847 Y18.3126 I-0.0790 J0.0124 F30.0
N7680 M05
N7690 G04 P1
N7700 G00 Z1.3000
N7710 X10.0847 Y19.0284
N7720 Z0.6900
N7730 o<touchoff> call [0.1900]  [0.5]  [0.1750] 
N7740 F3.937
N7750 G01 Z0.1750
N7760 X10.1744 Y19.1155 F30
N7770 G03 X10.3276 Y18.9630 I4.5189 J4.3878 F30.0
N7780 X10.4639 Y18.8412 I1.7058 J1.7704
N7790 G01 X10.4753 Y18.8319 F30
N7800 G02 X10.4153 Y18.7425 I-0.3173 J0.1480 F30.0
N7810 G01 X10.4146 Y18.7417 F30
N7820 G03 X10.3771 Y18.6908 I0.3923 J-0.3285 F30.0
N7830 X10.3442 Y18.6178 I0.2222 J-0.1440
N7840 G02 X9.7422 Y18.7169 I0.0798 J2.3621
N7850 G01 X9.7412 Y18.7172 F30
N7860 X9.5795 Y18.7568
N7870 G02 X9.9040 Y19.3558 I1.4735 J-0.4109 F30.0
N7880 G01 X9.9045 Y19.3565 F30
N7890 X9.9122 Y19.3660
N7900 G02 X10.1742 Y19.1157 I-2.3798 J-2.7533 F30.0
N7910 G01 X10.1744 Y19.1155 F30
N7920 G02 X10.1727 Y19.0024 I-0.0574 J-0.0557 F30.0
N7930 (Operation: Outside Offset, outside, T2: Plasma, 0.04 in kerf)
N7940 M05
N7950 G04 P1
N7960 G00 Z1.3000
N7970 X13.6808 Y18.4363
N7980 Z0.6900
N7990 o<touchoff> call [0.1900]  [0.5]  [0.1750] 
N8000 F3.937
N8010 G01 Z0.1750
N8020 X13.6493 Y18.3154 F30
N8030 G03 X13.3721 Y18.3554 I-0.3176 J-1.2200 F30.0
N8040 G01 X13.2892 Y18.3605 F30
N8050 G02 X13.1353 Y18.3722 I0.1671 J3.2233 F30.0
N8060 X13.0718 Y18.3798 I0.0756 J0.8958
N8070 X13.2197 Y18.3901 I0.2172 J-2.0660
N8080 G03 X13.3798 Y18.4013 I-0.1635 J3.4884
N8090 X13.6162 Y18.4523 I-0.0501 J0.8057
N8100 G01 X13.6173 Y18.4528 F30
N8110 X13.6282 Y18.4577
N8120 G03 X13.6396 Y18.4724 I-0.0082 J0.0182 F30.0
N8130 X13.6287 Y18.7185 I-0.5567 J0.0986
N8140 G01 X13.6134 Y18.7882 F30
N8150 G02 X13.5914 Y18.8955 I1.6041 J0.3853 F30.0
N8160 G01 X13.5908 Y18.8989 F30
N8170 G02 X13.6909 Y18.9270 I0.1800 J-0.4484 F30.0
N8180 G01 X13.6916 Y18.9272 F30
N8190 G03 X13.7647 Y18.9458 I-0.1469 J0.7288 F30.0
N8200 G01 X13.7661 Y18.9463 F30
N8210 X13.8027 Y18.9606
N8220 G03 X13.8153 Y18.9773 I-0.0073 J0.0186 F30.0
N8230 G01 X13.8294 Y19.1276 F30
N8240 X13.8458 Y19.2913
N8250 G03 X13.8681 Y19.5274 I-7.4684 J0.8226 F30.0
N8260 X13.8627 Y19.9234 I-1.6586 J0.1754
N8270 X13.8221 Y20.0727 I-0.6450 J-0.0952
N8280 X13.8103 Y20.0840 I-0.0185 J-0.0075
N8290 X13.5861 Y20.1157 I-0.1881 J-0.5217
N8300 G01 X13.5469 Y20.1153 F30
N8310 G02 X13.4448 Y20.1164 I-0.0351 J1.4443 F30.0
N8320 G01 X13.3923 Y20.1212 F30
N8330 G03 X13.3751 Y20.1141 I-0.0018 J-0.0199 F30.0
N8340 G01 X13.3731 Y20.1117 F30
N8350 X13.3722 Y20.1104
N8360 G03 X13.3166 Y19.9998 I0.3384 J-0.2392 F30.0
N8370 G01 X13.3060 Y19.9717 F30
N8380 G02 X13.2794 Y19.9082 I-0.6107 J0.2187 F30.0
N8390 G01 X13.2792 Y19.9077 F30
N8400 G02 X13.2554 Y19.8684 I-0.1717 J0.0772 F30.0
N8410 X12.8542 Y20.9595 I123.3559 J45.9748
N8420 G03 X12.5406 Y21.8124 I-104.6811 J-38.0052
N8430 X12.2257 Y22.6346 I-40.7970 J-15.1554
N8440 G01 X12.1947 Y22.7125 F30
N8450 G03 X12.1770 Y22.7251 I-0.0186 J-0.0074 F30.0
N8460 G01 X12.1709 Y22.7254 F30
N8470 G02 X11.9662 Y22.7443 I0.1338 J2.5683 F30.0
N8480 G03 X11.8275 Y22.7576 I-0.3147 J-2.5447
N8490 X11.6794 Y22.7554 I-0.0631 J-0.7317
N8500 G01 X11.6790 F30
N8510 X11.6705 Y22.7542
N8520 G03 X11.6537 Y22.7382 I0.0028 J-0.0198 F30.0
N8530 G01 X11.6526 Y22.7329 F30
N8540 X11.6525 Y22.7323
N8550 G03 X11.5837 Y22.1281 I5.8275 J-0.9699 F30.0
N8560 G01 X11.5735 Y21.9939 F30
N8570 G02 X11.5469 Y21.6691 I-14.2331 J1.0044 F30.0
N8580 G01 X11.5374 Y21.5780 F30
N8590 G03 X11.4100 Y21.5877 I-0.1502 J-1.1397 F30.0
N8600 G02 X11.3097 Y21.5947 I0.0460 J1.3778
N8610 G01 X11.3090 Y21.5948 F30
N8620 G02 X11.2232 Y21.6139 I0.0219 J0.2996 F30.0
N8630 G01 X11.2235 Y21.6173 F30
N8640 G02 X11.2653 Y22.0835 I12.6686 J-0.9020 F30.0
N8650 G03 X11.2940 Y22.3952 I-13.0118 J1.3562
N8660 X11.3097 Y22.7481 I-4.2842 J0.3670
N8670 G01 X11.3096 Y22.7679 F30
N8680 G03 X11.2964 Y22.7866 I-0.0200 J-0.0001 F30.0
N8690 G01 X11.2937 Y22.7876 F30
N8700 X11.2923 Y22.7881
N8710 G03 X11.0713 Y22.8240 I-0.2647 J-0.9290 F30.0
N8720 G01 X10.9786 Y22.8301 F30
N8730 G02 X10.8356 Y22.8409 I0.1402 J2.7869 F30.0
N8740 G01 X10.7915 Y22.8464 F30
N8750 G03 X10.7854 Y22.8462 I-0.0024 J-0.0198 F30.0
N8760 X10.7364 Y22.7932 I0.0109 J-0.0593
N8770 G01 X10.6479 Y22.6443 F30
N8780 G03 X9.6156 Y20.8715 I83.9312 J-50.0585 F30.0
N8790 G02 X9.1094 Y19.9942 I-128.4641 J73.5380
N8800 G01 X9.0710 Y19.9284 F30
N8810 G02 X8.9393 Y19.7140 I-7.3451 J4.3640 F30.0
N8820 G03 X8.8253 Y19.5268 I5.4130 J-3.4266
N8830 X8.5843 Y18.9144 I1.4622 J-0.9290
N8840 G01 X8.5842 Y18.9139 F30
N8850 X8.5824 Y18.9030
N8860 G03 X8.5910 Y18.8833 I0.0197 J-0.0032 F30.0
N8870 G01 X8.5930 Y18.8819 F30
N8880 X8.5945 Y18.8810
N8890 G03 X8.8320 Y18.7936 I0.3972 J0.7126 F30.0
N8900 G01 X8.9150 Y18.7740 F30
N8910 G02 X9.0456 Y18.7414 I-0.5325 J-2.4113 F30.0
N8920 X9.0974 Y18.7258 I-0.1715 J-0.6609
N8930 X8.9507 Y18.7411 I0.3134 J3.6939
N8940 G03 X8.7745 Y18.7581 I-0.4879 J-4.1544
N8950 X8.5848 Y18.7598 I-0.1060 J-1.2146
N8960 G01 X8.5841 Y18.7597 F30
N8970 X8.5711 Y18.7584
N8980 G03 X8.5537 Y18.7430 I0.0021 J-0.0199 F30.0
N8990 X8.5075 Y18.2300 I1.8395 J-0.4242
N9000 G01 Y18.2295 F30
N9010 X8.5081 Y18.2211
N9020 G03 X8.5182 Y18.2051 I0.0200 J0.0014 F30.0
N9030 G01 X8.5189 Y18.2047 F30
N9040 G03 X8.5231 Y18.2029 I0.0099 J0.0174 F30.0
N9050 X8.7588 Y18.1655 I0.2612 J0.8843
N9060 G01 X8.8048 Y18.1627 F30
N9070 G02 X8.9623 Y18.1519 I-0.1566 J-3.4477 F30.0
N9080 G01 X8.9627 F30
N9090 G02 X8.9769 Y18.1507 I-0.0499 J-0.7020 F30.0
N9100 G01 X8.9646 Y18.1500 F30
N9110 G03 X8.7821 Y18.1382 I0.2020 J-4.5233 F30.0
N9120 X8.5358 Y18.0962 I0.0833 J-1.2319
N9130 G01 X8.5353 Y18.0961 F30
N9140 X8.5242 Y18.0927
N9150 G03 X8.5100 Y18.0735 I0.0058 J-0.0191 F30.0
N9160 G01 Y18.0709 F30
N9170 Y18.0700
N9180 G03 X9.0052 Y16.7123 I2.4013 J0.1066 F30.0
N9190 X9.1418 Y16.5318 I4.0607 J2.9313
N9200 G02 X9.1045 Y16.5011 I-0.1621 J0.1588
N9210 G01 X9.1039 Y16.5007 F30
N9220 G03 X9.0690 Y16.4711 I0.1487 J-0.2104 F30.0
N9230 X9.0292 Y16.3681 I0.1039 J-0.0993
N9240 G01 Y16.3631 F30
N9250 G03 X9.0347 Y16.3493 I0.0200 J0.0000 F30.0
N9260 G01 X9.0434 Y16.3402 F30
N9270 G03 X12.4105 Y15.7950 I2.0367 J1.9082 F30.0
N9280 X12.5355 Y15.8615 I-1.2131 J2.4291
N9290 X12.6663 Y15.9567 I-0.2517 J0.4832
N9300 X12.6657 Y16.1937 I-0.1067 J0.1182
N9310 G01 X12.6496 Y16.2110 F30
N9320 X12.6731 Y16.2297
N9330 G03 X13.5339 Y17.4834 I-1.3412 J1.8432 F30.0
N9340 X13.5616 Y17.6078 I-2.0885 J0.5303
N9350 G01 X13.5660 Y17.6310 F30
N9360 G03 X13.5546 Y17.6528 I-0.0197 J0.0037 F30.0
N9370 X13.3477 Y17.7250 I-0.4898 J-1.0709
N9380 G01 X13.2853 Y17.7411 F30
N9390 X13.2143 Y17.7586
N9400 G02 X13.0942 Y17.7897 I0.7034 J2.9669 F30.0
N9410 X13.1349 Y17.7853 I-0.3121 J-3.0666
N9420 G01 X13.2035 Y17.7778 F30
N9430 G03 X13.3827 Y17.7607 I0.5042 J4.3203 F30.0
N9440 X13.5769 Y17.7585 I0.1110 J1.2736
N9450 G01 X13.5903 Y17.7597 F30
N9460 G03 X13.6078 Y17.7739 I-0.0017 J0.0199 F30.0
N9470 X13.6413 Y17.9564 I-0.8168 J0.2442
N9480 G01 X13.6454 Y18.0046 F30
N9490 X13.6515 Y18.0971
N9500 G02 X13.6627 Y18.2451 I3.0196 J-0.1542 F30.0
N9510 G01 X13.6685 Y18.2922 F30
N9520 G03 X13.6548 Y18.3137 I-0.0199 J0.0024 F30.0
N9530 G01 X13.6504 Y18.3151 F30
N9540 G02 X13.5987 Y18.4157 I0.0245 J0.0762 F30.0
N9550 M05
N9560 G04 P1
N9570 G00 Z1.3000
N9580 M05 M30
