N0010 (Filename: Sheet1.ngc)
N0020 (Post processor: Xmotion.scpost)
N0030 (Date: 27/09/2018)
N0040 G20 (Units: Inches)
N0050 G40 G90
N0060 G64 P0.001 
N0070 F1 S1
N0080 (Part: Anti-Wobble_Supports)
N0090 (Operation: Inside Offset, 0, T2: Plasma, 0.04 in kerf)
N0100 G00 Z0.8000
N0110 X21.9104 Y39.8925
N0120 Z0.6900
N0130 o<touchoff> call [0.1900]  [0.5]  [0.1750] 
N0140 F3.937
N0150 G01 Z0.1750
N0160 Y40.0175 F48
N0170 G02 X21.9104 Y39.7605 I0.0000 J-0.1285 F48.0
N0180 G01 X16.9104 F48
N0190 G02 X16.9104 Y40.0175 I-0.0000 J0.1285 F48.0
N0200 G01 X21.9104 F48
N0210 G02 X21.9904 Y39.9375 I0.0000 J-0.0800 F48.0
N0220 M05
N0230 G04 P1
N0240 G00 Z0.8000
N0250 X21.9104 Y41.0855
N0260 Z0.6900
N0270 o<touchoff> call [0.1900]  [0.5]  [0.1750] 
N0280 F3.937
N0290 G01 Z0.1750
N0300 Y40.9605 F48
N0310 X16.9104
N0320 G02 X16.9104 Y41.2175 I-0.0000 J0.1285 F48.0
N0330 G01 X21.9104 F48
N0340 G02 X21.9104 Y40.9605 I0.0000 J-0.1285 F48.0
N0350 X21.8304 Y41.0405 I0.0000 J0.0800
N0360 M05
N0370 G04 P1
N0380 G00 Z0.8000
N0390 X21.9104 Y42.2925
N0400 Z0.6900
N0410 o<touchoff> call [0.1900]  [0.5]  [0.1750] 
N0420 F3.937
N0430 G01 Z0.1750
N0440 Y42.4175 F48
N0450 G02 X21.9104 Y42.1605 I0.0000 J-0.1285 F48.0
N0460 G01 X16.9104 F48
N0470 G02 X16.9104 Y42.4175 I-0.0000 J0.1285 F48.0
N0480 G01 X21.9104 F48
N0490 G02 X21.9904 Y42.3375 I0.0000 J-0.0800 F48.0
N0500 M05
N0510 G04 P1
N0520 G00 Z0.8000
N0530 X21.9104 Y38.6855
N0540 Z0.6900
N0550 o<touchoff> call [0.1900]  [0.5]  [0.1750] 
N0560 F3.937
N0570 G01 Z0.1750
N0580 Y38.5605 F48
N0590 X16.9104
N0600 G02 X16.9104 Y38.8175 I-0.0000 J0.1285 F48.0
N0610 G01 X21.9104 F48
N0620 G02 X21.9104 Y38.5605 I0.0000 J-0.1285 F48.0
N0630 X21.8304 Y38.6405 I0.0000 J0.0800
N0640 M05
N0650 G04 P1
N0660 G00 Z0.8000
N0670 X43.0454 Y38.8100
N0680 Z0.6900
N0690 o<touchoff> call [0.1900]  [0.5]  [0.1750] 
N0700 F3.937
N0710 G01 Z0.1750
N0720 Y38.9350 F48
N0730 G02 X43.0454 Y38.9350 I0.0000 J-0.2560 F48.0
N0740 X43.1254 Y38.8550 I0.0000 J-0.0800
N0750 M05
N0760 G04 P1
N0770 G00 Z0.8000
N0780 X43.0454 Y40.0300
N0790 Z0.6900
N0800 o<touchoff> call [0.1900]  [0.5]  [0.1750] 
N0810 F3.937
N0820 G01 Z0.1750
N0830 Y40.1550 F48
N0840 G02 X43.0454 Y40.1550 I0.0000 J-0.2560 F48.0
N0850 X43.1254 Y40.0750 I0.0000 J-0.0800
N0860 M05
N0870 G04 P1
N0880 G00 Z0.8000
N0890 X43.0454 Y41.2100
N0900 Z0.6900
N0910 o<touchoff> call [0.1900]  [0.5]  [0.1750] 
N0920 F3.937
N0930 G01 Z0.1750
N0940 Y41.3350 F48
N0950 G02 X43.0454 Y41.3350 I0.0000 J-0.2560 F48.0
N0960 X43.1254 Y41.2550 I0.0000 J-0.0800
N0970 M05
N0980 G04 P1
N0990 G00 Z0.8000
N1000 X43.0454 Y42.4300
N1010 Z0.6900
N1020 o<touchoff> call [0.1900]  [0.5]  [0.1750] 
N1030 F3.937
N1040 G01 Z0.1750
N1050 Y42.5550 F48
N1060 G02 X43.0454 Y42.5550 I0.0000 J-0.2560 F48.0
N1070 X43.1254 Y42.4750 I0.0000 J-0.0800
N1080 (Operation: Outside Offset, Outside, T2: Plasma, 0.04 in kerf)
N1090 M05
N1100 G04 P1
N1110 G00 Z0.8000
N1120 X16.4379 Y40.8406
N1130 Z0.6900
N1140 o<touchoff> call [0.1900]  [0.5]  [0.1750] 
N1150 F3.937
N1160 G01 Z0.1750
N1170 X16.5538 Y40.8876 F48
N1180 G03 X17.0254 Y40.5700 I0.4717 J0.1914 F48.0
N1190 G01 X43.0454 F48
N1200 G03 X43.5544 Y41.0790 I-0.0000 J0.5090 F48.0
N1210 G01 Y41.0990 F48
N1220 G03 X43.0454 Y41.6080 I-0.5090 J-0.0000 F48.0
N1230 G01 X17.0254 F48
N1240 G03 X16.5164 Y41.0990 I0.0000 J-0.5090 F48.0
N1250 G01 Y41.0790 F48
N1260 G03 X16.5538 Y40.8876 I0.5090 J0.0000 F48.0
N1270 G02 X16.5097 Y40.7834 I-0.0741 J-0.0301
N1280 M05
N1290 G04 P1
N1300 G00 Z0.8000
N1310 X16.4750 Y41.9644
N1320 Z0.6900
N1330 o<touchoff> call [0.1900]  [0.5]  [0.1750] 
N1340 F3.937
N1350 G01 Z0.1750
N1360 X16.5835 Y42.0265 F48
N1370 G03 X17.0254 Y41.7700 I0.4419 J0.2525 F48.0
N1380 G01 X43.0454 F48
N1390 G03 X43.5544 Y42.2790 I-0.0000 J0.5090 F48.0
N1400 G01 Y42.2990 F48
N1410 G03 X43.0454 Y42.8080 I-0.5090 J-0.0000 F48.0
N1420 G01 X17.0254 F48
N1430 G03 X16.5164 Y42.2990 I0.0000 J-0.5090 F48.0
N1440 G01 Y42.2790 F48
N1450 G03 X16.5835 Y42.0265 I0.5090 J0.0000 F48.0
N1460 G02 X16.5537 Y41.9173 I-0.0695 J-0.0397
N1470 M05
N1480 G04 P1
N1490 G00 Z0.8000
N1500 X16.4479 Y39.6175
N1510 Z0.6900
N1520 o<touchoff> call [0.1900]  [0.5]  [0.1750] 
N1530 F3.937
N1540 G01 Z0.1750
N1550 X16.5618 Y39.6690 F48
N1560 G03 X17.0254 Y39.3700 I0.4637 J0.2100 F48.0
N1570 G01 X43.0454 F48
N1580 G03 X43.5544 Y39.8790 I-0.0000 J0.5090 F48.0
N1590 G01 Y39.8990 F48
N1600 G03 X43.0454 Y40.4080 I-0.5090 J-0.0000 F48.0
N1610 G01 X17.0254 F48
N1620 G03 X16.5164 Y39.8990 I0.0000 J-0.5090 F48.0
N1630 G01 Y39.8790 F48
N1640 G03 X16.5618 Y39.6690 I0.5090 J0.0000 F48.0
N1650 G02 X16.5219 Y39.5631 I-0.0729 J-0.0330
N1660 M05
N1670 G04 P1
N1680 G00 Z0.8000
N1690 X16.4685 Y38.3761
N1700 Z0.6900
N1710 o<touchoff> call [0.1900]  [0.5]  [0.1750] 
N1720 F3.937
N1730 G01 Z0.1750
N1740 X16.5783 Y38.4358 F48
N1750 G03 X17.0254 Y38.1700 I0.4472 J0.2432 F48.0
N1760 G01 X43.0454 F48
N1770 G03 X43.5544 Y38.6790 I-0.0000 J0.5090 F48.0
N1780 G01 Y38.6990 F48
N1790 G03 X43.0454 Y39.2080 I-0.5090 J-0.0000 F48.0
N1800 G01 X17.0254 F48
N1810 G03 X16.5164 Y38.6990 I0.0000 J-0.5090 F48.0
N1820 G01 Y38.6790 F48
N1830 G03 X16.5783 Y38.4358 I0.5090 J0.0000 F48.0
N1840 (Part: Gantry_Supports)
N1850 G02 X16.5462 Y38.3273 I-0.0703 J-0.0382
N1860 (Operation: Inside Offset, 0, T2: Plasma, 0.04 in kerf)
N1870 M05
N1880 G04 P1
N1890 G00 Z0.8000
N1900 X14.3134 Y36.5040
N1910 Z0.6900
N1920 o<touchoff> call [0.1900]  [0.5]  [0.1750] 
N1930 F3.937
N1940 G01 Z0.1750
N1950 X14.3118 Y36.3790 F48
N1960 X13.3320 Y36.3913
N1970 G02 X13.2277 Y36.4877 I0.0013 J0.1060 F48.0
N1980 G01 X13.0458 Y38.4921 F48
N1990 G02 X13.1707 Y38.6059 I0.1056 J0.0096 F48.0
N2000 G01 X13.9906 Y38.4540 F48
N2010 G02 X14.0755 Y38.3689 I-0.0193 J-0.1042 F48.0
N2020 G01 X14.4174 Y36.5041 F48
N2030 G02 X14.3118 Y36.3790 I-0.1043 J-0.0191 F48.0
N2040 G01 F48
N2050 G02 X14.2328 Y36.4600 I0.0010 J0.0800 F48.0
N2060 M05
N2070 G04 P1
N2080 G00 Z0.8000
N2090 X13.6876 Y40.0161
N2100 Z0.6900
N2110 o<touchoff> call [0.1900]  [0.5]  [0.1750] 
N2120 F3.937
N2130 G01 Z0.1750
N2140 X13.6159 Y39.9137 F48
N2150 G02 X13.6159 Y39.9137 I0.0780 J0.1114 F48.0
N2160 X13.5963 Y40.0251 I0.0459 J0.0655
N2170 M05
N2180 G04 P1
N2190 G00 Z0.8000
N2200 X14.1350 Y40.6550
N2210 Z0.6900
N2220 o<touchoff> call [0.1900]  [0.5]  [0.1750] 
N2230 F3.937
N2240 G01 Z0.1750
N2250 X14.0633 Y40.5526 F48
N2260 G02 X14.0633 Y40.5526 I0.0780 J0.1114 F48.0
N2270 X14.0437 Y40.6640 I0.0459 J0.0655
N2280 M05
N2290 G04 P1
N2300 G00 Z0.8000
N2310 X12.6527 Y40.7965
N2320 Z0.6900
N2330 o<touchoff> call [0.1900]  [0.5]  [0.1750] 
N2340 F3.937
N2350 G01 Z0.1750
N2360 X12.5810 Y40.6941 F48
N2370 X12.1905 Y40.9675
N2380 G02 X12.3781 Y41.2354 I0.0938 J0.1339 F48.0
N2390 G01 X12.7686 Y40.9619 F48
N2400 G02 X12.5810 Y40.6941 I-0.0938 J-0.1339 F48.0
N2410 X12.5614 Y40.8055 I0.0459 J0.0655
N2420 M05
N2430 G04 P1
N2440 G00 Z0.8000
N2450 X12.2782 Y40.5741
N2460 Z0.6900
N2470 o<touchoff> call [0.1900]  [0.5]  [0.1750] 
N2480 F3.937
N2490 G01 Z0.1750
N2500 X12.3701 Y40.4894 F48
N2510 G02 X12.3132 Y40.4832 I-0.0320 J0.0295 F48.0
N2520 G01 X11.3357 Y41.1676 F48
N2530 G02 X11.3856 Y41.2389 I0.0250 J0.0356 F48.0
N2540 G01 X12.3631 Y40.5545 F48
N2550 G02 X12.3701 Y40.4894 I-0.0250 J-0.0356 F48.0
N2560 X12.2736 Y40.5484 I-0.0188 J0.0778
N2570 M05
N2580 G04 P1
N2590 G00 Z0.8000
N2600 X12.6676 Y41.6489
N2610 Z0.6900
N2620 o<touchoff> call [0.1900]  [0.5]  [0.1750] 
N2630 F3.937
N2640 G01 Z0.1750
N2650 X12.7393 Y41.7513 F48
N2660 X13.1298 Y41.4778
N2670 G02 X12.9423 Y41.2100 I-0.0938 J-0.1339 F48.0
N2680 G01 X12.5517 Y41.4834 F48
N2690 G02 X12.7393 Y41.7513 I0.0938 J0.1339 F48.0
N2700 X12.7589 Y41.6399 I-0.0459 J-0.0655
N2710 M05
N2720 G04 P1
N2730 G00 Z0.8000
N2740 X10.4097 Y42.3670
N2750 Z0.6900
N2760 o<touchoff> call [0.1900]  [0.5]  [0.1750] 
N2770 F3.937
N2780 G01 Z0.1750
N2790 X10.3380 Y42.2646 F48
N2800 X9.9475 Y42.5381
N2810 G02 X10.1351 Y42.8060 I0.0938 J0.1339 F48.0
N2820 G01 X10.5256 Y42.5325 F48
N2830 G02 X10.3380 Y42.2646 I-0.0938 J-0.1339 F48.0
N2840 X10.3184 Y42.3761 I0.0459 J0.0655
N2850 M05
N2860 G04 P1
N2870 G00 Z0.8000
N2880 X9.8644 Y42.2376
N2890 Z0.6900
N2900 o<touchoff> call [0.1900]  [0.5]  [0.1750] 
N2910 F3.937
N2920 G01 Z0.1750
N2930 X9.7725 Y42.3224 F48
N2940 G02 X9.8295 Y42.3285 I0.0320 J-0.0295 F48.0
N2950 G01 X10.8007 Y41.6485 F48
N2960 G02 X10.7508 Y41.5772 I-0.0250 J-0.0356 F48.0
N2970 G01 X9.7796 Y42.2573 F48
N2980 G02 X9.7725 Y42.3224 I0.0250 J0.0356 F48.0
N2990 X9.8691 Y42.2634 I0.0188 J-0.0778
N3000 M05
N3010 G04 P1
N3020 G00 Z0.8000
N3030 X10.4246 Y43.2195
N3040 Z0.6900
N3050 o<touchoff> call [0.1900]  [0.5]  [0.1750] 
N3060 F3.937
N3070 G01 Z0.1750
N3080 X10.4963 Y43.3219 F48
N3090 X10.8868 Y43.0484
N3100 G02 X10.6993 Y42.7805 I-0.0938 J-0.1339 F48.0
N3110 G01 X10.3087 Y43.0540 F48
N3120 G02 X10.4963 Y43.3219 I0.0938 J0.1339 F48.0
N3130 X10.5159 Y43.2104 I-0.0459 J-0.0655
N3140 M05
N3150 G04 P1
N3160 G00 Z0.8000
N3170 X12.5976 Y32.5048
N3180 Z0.6900
N3190 o<touchoff> call [0.1900]  [0.5]  [0.1750] 
N3200 F3.937
N3210 G01 Z0.1750
N3220 X12.5259 Y32.4024 F48
N3230 G02 X12.5259 Y32.4024 I0.0680 J0.0971 F48.0
N3240 X12.5063 Y32.5138 I0.0459 J0.0655
N3250 M05
N3260 G04 P1
N3270 G00 Z0.8000
N3280 X13.5427 Y31.6752
N3290 Z0.6900
N3300 o<touchoff> call [0.1900]  [0.5]  [0.1750] 
N3310 F3.937
N3320 G01 Z0.1750
N3330 X13.4710 Y31.5728 F48
N3340 G02 X13.4710 Y31.5728 I0.1468 J0.2097 F48.0
N3350 X13.4513 Y31.6842 I0.0459 J0.0655
N3360 M05
N3370 G04 P1
N3380 G00 Z0.8000
N3390 X14.6455 Y31.0709
N3400 Z0.6900
N3410 o<touchoff> call [0.1900]  [0.5]  [0.1750] 
N3420 F3.937
N3430 G01 Z0.1750
N3440 X14.5738 Y30.9685 F48
N3450 G02 X14.5738 Y30.9685 I0.0680 J0.0971 F48.0
N3460 X14.5541 Y31.0799 I0.0459 J0.0655
N3470 M05
N3480 G04 P1
N3490 G00 Z0.8000
N3500 X14.9995 Y32.6359
N3510 Z0.6900
N3520 o<touchoff> call [0.1900]  [0.5]  [0.1750] 
N3530 F3.937
N3540 G01 Z0.1750
N3550 X15.1225 Y32.6584 F48
N3560 G02 X14.9574 Y32.5525 I-0.1043 J-0.0191 F48.0
N3570 G01 X13.2673 Y33.7359 F48
N3580 G02 X13.2321 Y33.8678 I0.0608 J0.0868 F48.0
N3590 G01 X13.4112 Y34.2492 F48
N3600 G03 X13.4242 Y34.3234 I-0.1304 J0.0612 F48.0
N3610 G01 X13.3028 Y35.6604 F48
N3620 G02 X13.4097 Y35.7759 I0.1056 J0.0096 F48.0
N3630 G01 X14.4663 Y35.7627 F48
N3640 G02 X14.5693 Y35.6758 I-0.0013 J-0.1060 F48.0
N3650 G01 X15.1225 Y32.6584 F48
N3660 G02 X15.0413 Y32.5797 I-0.0800 J0.0012 F48.0
N3670 (Operation: Outside Offset, Outside, T2: Plasma, 0.04 in kerf)
N3680 M05
N3690 G04 P1
N3700 G00 Z0.8000
N3710 X14.8818 Y38.6809
N3720 Z0.6900
N3730 o<touchoff> call [0.1900]  [0.5]  [0.1750] 
N3740 F3.937
N3750 G01 Z0.1750
N3760 X14.7794 Y38.7526 F48
N3770 X15.6654 Y40.0180
N3780 G03 X15.6300 Y40.2185 I-0.1180 J0.0826 F48.0
N3790 G01 X14.1965 Y41.2223 F48
N3800 G03 X13.9960 Y41.1869 I-0.0826 J-0.1180 F48.0
N3810 G01 X13.7132 Y40.7831 F48
N3820 G03 X13.7485 Y40.5825 I0.1180 J-0.0826 F48.0
N3830 G01 X14.1707 Y40.2869 F48
N3840 G02 X14.1967 Y40.1393 I-0.0608 J-0.0868 F48.0
N3850 G01 X14.1940 Y40.1354 F48
N3860 G02 X14.0464 Y40.1093 I-0.0868 J0.0608 F48.0
N3870 G01 X13.6242 Y40.4050 F48
N3880 G03 X13.4237 Y40.3696 I-0.0826 J-0.1180 F48.0
N3890 G01 X13.2084 Y40.0621 F48
N3900 G02 X13.0607 Y40.0361 I-0.0868 J0.0608 F48.0
N3910 G01 X12.8314 Y40.1966 F48
N3920 G02 X12.8054 Y40.3443 I0.0608 J0.0868 F48.0
N3930 G01 X13.4507 Y41.2658 F48
N3940 G03 X13.3846 Y41.6405 I-0.2204 J0.1543 F48.0
N3950 G01 X10.5688 Y43.6121 F48
N3960 G03 X10.1942 Y43.5460 I-0.1543 J-0.2204 F48.0
N3970 G01 X9.0470 Y41.9077 F48
N3980 G03 X9.1131 Y41.5331 I0.2204 J-0.1543 F48.0
N3990 G01 X12.4654 Y39.1858 F48
N4000 G02 X12.4914 Y39.0382 I-0.0608 J-0.0868 F48.0
N4010 G01 X12.4207 Y38.9373 F48
N4020 G03 X12.3290 Y38.5927 I0.4251 J-0.2977 F48.0
N4030 G01 X12.7254 Y34.2260 F48
N4040 G02 X12.6404 Y33.9066 I-0.4790 J-0.0435 F48.0
N4050 G01 X12.1692 Y33.2337 F48
N4060 G03 X12.4194 Y31.8145 I0.8347 J-0.5845 F48.0
N4070 G01 X14.0577 Y30.6673 F48
N4080 G03 X15.4769 Y30.9176 I0.5845 J0.8347 F48.0
N4090 G01 X15.8826 Y31.4970 F48
N4100 G03 X15.9680 Y31.8883 I-0.4251 J0.2977 F48.0
N4110 G01 X14.7414 Y38.5785 F48
N4120 G02 X14.7794 Y38.7526 I0.2272 J0.0417 F48.0
N4130 (Part: legs)
N4140 X14.8908 Y38.7723 I0.0655 J-0.0459
N4150 (Operation: Inside Offset, 0, T2: Plasma, 0.038 in kerf)
N4160 M05
N4170 G04 P1
N4180 G00 Z0.8000
N4190 X41.6451 Y18.8533
N4200 Z0.6900
N4210 o<touchoff> call [0.1900]  [0.5]  [0.1750] 
N4220 F3.937
N4230 G01 Z0.1750
N4240 Y18.7283 F48
N4250 G02 X41.6451 Y18.7283 I0.0000 J0.2560 F48.0
N4260 X41.5651 Y18.8083 I0.0000 J0.0800
N4270 M05
N4280 G04 P1
N4290 G00 Z0.8000
N4300 X34.7384 Y18.8533
N4310 Z0.6900
N4320 o<touchoff> call [0.1900]  [0.5]  [0.1750] 
N4330 F3.937
N4340 G01 Z0.1750
N4350 Y18.7283 F48
N4360 G02 X34.7384 Y18.7283 I0.0000 J0.2560 F48.0
N4370 X34.6584 Y18.8083 I0.0000 J0.0800
N4380 M05
N4390 G04 P1
N4400 G00 Z0.8000
N4410 X35.2186 Y14.2349
N4420 Z0.6900
N4430 o<touchoff> call [0.1900]  [0.5]  [0.1750] 
N4440 F3.937
N4450 G01 Z0.1750
N4460 X35.2476 Y14.2639 F48
N4470 Y14.2019
N4480 X34.5656
N4490 Y14.2639
N4500 X35.2476
N4510 G02 X35.2214 Y14.2377 I-0.0262 J0.0000 F48.0
N4520 M05
N4530 G04 P1
N4540 G00 Z0.8000
N4550 X35.2600 Y13.8761
N4560 Z0.6900
N4570 o<touchoff> call [0.1900]  [0.5]  [0.1750] 
N4580 F3.937
N4590 G01 Z0.1750
N4600 X35.3850 F48
N4610 Y13.3993
N4620 G02 X35.0580 Y13.3993 I-0.1635 J0.0000 F48.0
N4630 G01 Y13.8761 F48
N4640 G02 X35.3850 Y13.8761 I0.1635 J0.0000 F48.0
N4650 X35.3050 Y13.7961 I-0.0800 J0.0000
N4660 M05
N4670 G04 P1
N4680 G00 Z0.8000
N4690 X35.5894 Y14.0741
N4700 Z0.6900
N4710 o<touchoff> call [0.1900]  [0.5]  [0.1750] 
N4720 F3.937
N4730 G01 Z0.1750
N4740 X35.6132 Y14.1194 F48
N4750 G02 X35.6226 Y14.0579 I-0.1966 J-0.0615 F48.0
N4760 G01 Y13.1981 F48
N4770 G02 X35.4166 Y12.9921 I-0.2060 J0.0000 F48.0
N4780 G01 X35.1466 F48
N4790 G03 X35.1026 Y12.9481 I0.0000 J-0.0440 F48.0
N4800 G01 Y11.5880 F48
N4810 G03 X35.1466 Y11.5440 I0.0440 J0.0000 F48.0
N4820 G01 X35.4166 F48
N4830 G02 X35.6226 Y11.3380 I0.0000 J-0.2060 F48.0
N4840 G01 Y10.4529 F48
N4850 G02 X35.4166 Y10.2469 I-0.2060 J0.0000 F48.0
N4860 G01 X34.3966 F48
N4870 G02 X34.1906 Y10.4529 I0.0000 J0.2060 F48.0
N4880 G01 Y14.0579 F48
N4890 G02 X34.3776 Y14.2630 I0.2060 J0.0000 F48.0
N4900 G01 Y14.2006 F48
N4910 G03 X34.2526 Y14.0579 I0.0190 J-0.1427 F48.0
N4920 G01 Y10.4529 F48
N4930 G03 X34.3966 Y10.3089 I0.1440 J0.0000 F48.0
N4940 G01 X35.4166 F48
N4950 G03 X35.5606 Y10.4529 I0.0000 J0.1440 F48.0
N4960 G01 Y11.3380 F48
N4970 G03 X35.4166 Y11.4820 I-0.1440 J0.0000 F48.0
N4980 G01 X35.1466 F48
N4990 G02 X35.0406 Y11.5880 I0.0000 J0.1060 F48.0
N5000 G01 Y12.9481 F48
N5010 G02 X35.1466 Y13.0541 I0.1060 J0.0000 F48.0
N5020 G01 X35.4166 F48
N5030 G03 X35.5606 Y13.1981 I0.0000 J0.1440 F48.0
N5040 G01 Y14.0579 F48
N5050 G03 X35.4356 Y14.2006 I-0.1440 J0.0000 F48.0
N5060 G01 Y14.2630 F48
N5070 G02 X35.6132 Y14.1194 I-0.0190 J-0.2051 F48.0
N5080 X35.5917 Y14.0784 I-0.0313 J-0.0098
N5090 M05
N5100 G04 P1
N5110 G00 Z0.8000
N5120 X34.5532 Y13.3993
N5130 Z0.6900
N5140 o<touchoff> call [0.1900]  [0.5]  [0.1750] 
N5150 F3.937
N5160 G01 Z0.1750
N5170 X34.4282 F48
N5180 Y13.8761
N5190 G02 X34.7552 Y13.8761 I0.1635 J0.0000 F48.0
N5200 G01 Y13.3993 F48
N5210 G02 X34.4282 Y13.3993 I-0.1635 J0.0000 F48.0
N5220 X34.5082 Y13.4793 I0.0800 J0.0000
N5230 M05
N5240 G04 P1
N5250 G00 Z0.8000
N5260 X35.2600 Y11.1379
N5270 Z0.6900
N5280 o<touchoff> call [0.1900]  [0.5]  [0.1750] 
N5290 F3.937
N5300 G01 Z0.1750
N5310 X35.3850 F48
N5320 Y10.6611
N5330 G02 X35.0580 Y10.6611 I-0.1635 J0.0000 F48.0
N5340 G01 Y11.1379 F48
N5350 G02 X35.3850 Y11.1379 I0.1635 J0.0000 F48.0
N5360 X35.3050 Y11.0579 I-0.0800 J0.0000
N5370 M05
N5380 G04 P1
N5390 G00 Z0.8000
N5400 X34.5532 Y10.6611
N5410 Z0.6900
N5420 o<touchoff> call [0.1900]  [0.5]  [0.1750] 
N5430 F3.937
N5440 G01 Z0.1750
N5450 X34.4282 F48
N5460 Y11.1379
N5470 G02 X34.7552 Y11.1379 I0.1635 J0.0000 F48.0
N5480 G01 Y10.6611 F48
N5490 G02 X34.4282 Y10.6611 I-0.1635 J0.0000 F48.0
N5500 X34.5082 Y10.7411 I0.0800 J0.0000
N5510 M05
N5520 G04 P1
N5530 G00 Z0.8000
N5540 X34.7384 Y31.3533
N5550 Z0.6900
N5560 o<touchoff> call [0.1900]  [0.5]  [0.1750] 
N5570 F3.937
N5580 G01 Z0.1750
N5590 Y31.2283 F48
N5600 G02 X34.7384 Y31.2283 I0.0000 J0.2560 F48.0
N5610 X34.6584 Y31.3083 I0.0000 J0.0800
N5620 M05
N5630 G04 P1
N5640 G00 Z0.8000
N5650 X39.1701 Y36.2383
N5660 Z0.6900
N5670 o<touchoff> call [0.1900]  [0.5]  [0.1750] 
N5680 F3.937
N5690 G01 Z0.1750
N5700 Y36.1133 F48
N5710 G02 X39.1701 Y36.1133 I0.0000 J0.1360 F48.0
N5720 X39.0901 Y36.1933 I0.0000 J0.0800
N5730 M05
N5740 G04 P1
N5750 G00 Z0.8000
N5760 X39.9201 Y36.6283
N5770 Z0.6900
N5780 o<touchoff> call [0.1900]  [0.5]  [0.1750] 
N5790 F3.937
N5800 G01 Z0.1750
N5810 Y36.5033 F48
N5820 G02 X39.9201 Y36.5033 I0.0000 J0.1360 F48.0
N5830 X39.8401 Y36.5833 I0.0000 J0.0800
N5840 M05
N5850 G04 P1
N5860 G00 Z0.8000
N5870 X39.9201 Y35.8483
N5880 Z0.6900
N5890 o<touchoff> call [0.1900]  [0.5]  [0.1750] 
N5900 F3.937
N5910 G01 Z0.1750
N5920 Y35.7233 F48
N5930 G02 X39.9201 Y35.7233 I0.0000 J0.1360 F48.0
N5940 X39.8401 Y35.8033 I0.0000 J0.0800
N5950 M05
N5960 G04 P1
N5970 G00 Z0.8000
N5980 X41.5826 Y36.4983
N5990 Z0.6900
N6000 o<touchoff> call [0.1900]  [0.5]  [0.1750] 
N6010 F3.937
N6020 G01 Z0.1750
N6030 Y36.3733 F48
N6040 G02 X41.5826 Y36.3733 I0.0000 J0.1735 F48.0
N6050 X41.5026 Y36.4533 I0.0000 J0.0800
N6060 M05
N6070 G04 P1
N6080 G00 Z0.8000
N6090 X41.5826 Y34.9235
N6100 Z0.6900
N6110 o<touchoff> call [0.1900]  [0.5]  [0.1750] 
N6120 F3.937
N6130 G01 Z0.1750
N6140 Y34.7985 F48
N6150 G02 X41.5826 Y34.7985 I0.0000 J0.1735 F48.0
N6160 X41.5026 Y34.8785 I0.0000 J0.0800
N6170 M05
N6180 G04 P1
N6190 G00 Z0.8000
N6200 X41.6451 Y31.3533
N6210 Z0.6900
N6220 o<touchoff> call [0.1900]  [0.5]  [0.1750] 
N6230 F3.937
N6240 G01 Z0.1750
N6250 Y31.2283 F48
N6260 G02 X41.6451 Y31.2283 I0.0000 J0.2560 F48.0
N6270 X41.5651 Y31.3083 I0.0000 J0.0800
N6280 (Operation: Outside Offset, Outside, T2: Plasma, 0.038 in kerf)
N6290 M05
N6300 G04 P1
N6310 G00 Z0.8000
N6320 X43.6531 Y36.7178
N6330 Z0.6900
N6340 o<touchoff> call [0.1900]  [0.5]  [0.1750] 
N6350 F3.937
N6360 G01 Z0.1750
N6370 X43.5282 Y36.7231 F48
N6380 G03 X43.2594 Y37.0033 I-0.2688 J0.0112 F48.0
N6390 G01 X39.9457 F48
N6400 G03 X39.3128 Y36.7829 I0.0000 J-1.0190 F48.0
N6410 G01 X38.9055 Y36.4601 F48
N6420 G03 X38.9055 Y36.0384 I0.1671 J-0.2108 F48.0
N6430 G01 X39.3128 Y35.7157 F48
N6440 G03 X39.9457 Y35.4953 I0.6329 J0.7986 F48.0
N6450 G01 X40.5011 F48
N6460 Y0.9843
N6470 G03 X40.5201 Y0.9653 I0.0190 J0.0000 F48.0
N6480 G01 X41.7803 F48
N6490 G03 X42.0490 Y1.2231 I0.0000 J0.2690 F48.0
N6500 G01 X43.5282 Y36.7231 F48
N6510 G02 X43.6115 Y36.7997 I0.0799 J-0.0033 F48.0
N6520 M05
N6530 G04 P1
N6540 G00 Z0.8000
N6550 X32.7304 Y36.7178
N6560 Z0.6900
N6570 o<touchoff> call [0.1900]  [0.5]  [0.1750] 
N6580 F3.937
N6590 G01 Z0.1750
N6600 X32.8552 Y36.7231 F48
N6610 X34.3344 Y1.2231
N6620 G03 X34.6032 Y0.9653 I0.2688 J0.0112 F48.0
N6630 G01 X35.8634 F48
N6640 G03 X35.8824 Y0.9843 I0.0000 J0.0190 F48.0
N6650 G01 Y36.9843 F48
N6660 G03 X35.8634 Y37.0033 I-0.0190 J0.0000 F48.0
N6670 G01 X33.1240 F48
N6680 G03 X32.8552 Y36.7231 I0.0000 J-0.2690 F48.0
N6690 (Part: legs Duplicate 1)
N6700 G02 X32.7786 Y36.6398 I-0.0799 J-0.0033
N6710 (Operation: Inside Offset, 0, T2: Plasma, 0.038 in kerf)
N6720 M05
N6730 G04 P1
N6740 G00 Z0.8000
N6750 X30.9982 Y19.1153
N6760 Z0.6900
N6770 o<touchoff> call [0.1900]  [0.5]  [0.1750] 
N6780 F3.937
N6790 G01 Z0.1750
N6800 Y19.2403 F48
N6810 G02 X30.9982 Y19.2403 I0.0000 J-0.2560 F48.0
N6820 X31.0782 Y19.1603 I0.0000 J-0.0800
N6830 M05
N6840 G04 P1
N6850 G00 Z0.8000
N6860 X37.9049 Y19.1153
N6870 Z0.6900
N6880 o<touchoff> call [0.1900]  [0.5]  [0.1750] 
N6890 F3.937
N6900 G01 Z0.1750
N6910 Y19.2403 F48
N6920 G02 X37.9049 Y19.2403 I0.0000 J-0.2560 F48.0
N6930 X37.9849 Y19.1603 I0.0000 J-0.0800
N6940 M05
N6950 G04 P1
N6960 G00 Z0.8000
N6970 X37.4247 Y23.7336
N6980 Z0.6900
N6990 o<touchoff> call [0.1900]  [0.5]  [0.1750] 
N7000 F3.937
N7010 G01 Z0.1750
N7020 X37.3957 Y23.7046 F48
N7030 Y23.7666
N7040 X38.0777
N7050 Y23.7046
N7060 X37.3957
N7070 G02 X37.4219 Y23.7308 I0.0262 J0.0000 F48.0
N7080 M05
N7090 G04 P1
N7100 G00 Z0.8000
N7110 X37.3833 Y24.0924
N7120 Z0.6900
N7130 o<touchoff> call [0.1900]  [0.5]  [0.1750] 
N7140 F3.937
N7150 G01 Z0.1750
N7160 X37.2583 F48
N7170 Y24.5692
N7180 G02 X37.5853 Y24.5692 I0.1635 J0.0000 F48.0
N7190 G01 Y24.0924 F48
N7200 G02 X37.2583 Y24.0924 I-0.1635 J0.0000 F48.0
N7210 X37.3383 Y24.1724 I0.0800 J0.0000
N7220 M05
N7230 G04 P1
N7240 G00 Z0.8000
N7250 X37.0539 Y23.8944
N7260 Z0.6900
N7270 o<touchoff> call [0.1900]  [0.5]  [0.1750] 
N7280 F3.937
N7290 G01 Z0.1750
N7300 X37.0301 Y23.8491 F48
N7310 G02 X37.0207 Y23.9106 I0.1966 J0.0615 F48.0
N7320 G01 Y24.7704 F48
N7330 G02 X37.2267 Y24.9764 I0.2060 J0.0000 F48.0
N7340 G01 X37.4967 F48
N7350 G03 X37.5407 Y25.0204 I0.0000 J0.0440 F48.0
N7360 G01 Y26.3805 F48
N7370 G03 X37.4967 Y26.4245 I-0.0440 J0.0000 F48.0
N7380 G01 X37.2267 F48
N7390 G02 X37.0207 Y26.6305 I-0.0000 J0.2060 F48.0
N7400 G01 Y27.5156 F48
N7410 G02 X37.2267 Y27.7216 I0.2060 J0.0000 F48.0
N7420 G01 X38.2467 F48
N7430 G02 X38.4527 Y27.5156 I0.0000 J-0.2060 F48.0
N7440 G01 Y23.9106 F48
N7450 G02 X38.2657 Y23.7055 I-0.2060 J-0.0000 F48.0
N7460 G01 Y23.7679 F48
N7470 G03 X38.3907 Y23.9106 I-0.0190 J0.1427 F48.0
N7480 G01 Y27.5156 F48
N7490 G03 X38.2467 Y27.6596 I-0.1440 J-0.0000 F48.0
N7500 G01 X37.2267 F48
N7510 G03 X37.0827 Y27.5156 I0.0000 J-0.1440 F48.0
N7520 G01 Y26.6305 F48
N7530 G03 X37.2267 Y26.4865 I0.1440 J0.0000 F48.0
N7540 G01 X37.4967 F48
N7550 G02 X37.6027 Y26.3805 I0.0000 J-0.1060 F48.0
N7560 G01 Y25.0204 F48
N7570 G02 X37.4967 Y24.9144 I-0.1060 J-0.0000 F48.0
N7580 G01 X37.2267 F48
N7590 G03 X37.0827 Y24.7704 I0.0000 J-0.1440 F48.0
N7600 G01 Y23.9106 F48
N7610 G03 X37.2077 Y23.7679 I0.1440 J0.0000 F48.0
N7620 G01 Y23.7055 F48
N7630 G02 X37.0301 Y23.8491 I0.0190 J0.2051 F48.0
N7640 X37.0516 Y23.8901 I0.0313 J0.0098
N7650 M05
N7660 G04 P1
N7670 G00 Z0.8000
N7680 X38.0901 Y24.5692
N7690 Z0.6900
N7700 o<touchoff> call [0.1900]  [0.5]  [0.1750] 
N7710 F3.937
N7720 G01 Z0.1750
N7730 X38.2151 F48
N7740 Y24.0924
N7750 G02 X37.8881 Y24.0924 I-0.1635 J-0.0000 F48.0
N7760 G01 Y24.5692 F48
N7770 G02 X38.2151 Y24.5692 I0.1635 J0.0000 F48.0
N7780 X38.1351 Y24.4892 I-0.0800 J-0.0000
N7790 M05
N7800 G04 P1
N7810 G00 Z0.8000
N7820 X37.3833 Y26.8306
N7830 Z0.6900
N7840 o<touchoff> call [0.1900]  [0.5]  [0.1750] 
N7850 F3.937
N7860 G01 Z0.1750
N7870 X37.2583 F48
N7880 Y27.3074
N7890 G02 X37.5853 Y27.3074 I0.1635 J0.0000 F48.0
N7900 G01 Y26.8306 F48
N7910 G02 X37.2583 Y26.8306 I-0.1635 J-0.0000 F48.0
N7920 X37.3383 Y26.9106 I0.0800 J0.0000
N7930 M05
N7940 G04 P1
N7950 G00 Z0.8000
N7960 X38.0901 Y27.3074
N7970 Z0.6900
N7980 o<touchoff> call [0.1900]  [0.5]  [0.1750] 
N7990 F3.937
N8000 G01 Z0.1750
N8010 X38.2151 F48
N8020 Y26.8306
N8030 G02 X37.8881 Y26.8306 I-0.1635 J-0.0000 F48.0
N8040 G01 Y27.3074 F48
N8050 G02 X38.2151 Y27.3074 I0.1635 J0.0000 F48.0
N8060 X38.1351 Y27.2274 I-0.0800 J-0.0000
N8070 M05
N8080 G04 P1
N8090 G00 Z0.8000
N8100 X37.9049 Y6.6153
N8110 Z0.6900
N8120 o<touchoff> call [0.1900]  [0.5]  [0.1750] 
N8130 F3.937
N8140 G01 Z0.1750
N8150 Y6.7403 F48
N8160 G02 X37.9049 Y6.7403 I0.0000 J-0.2560 F48.0
N8170 X37.9849 Y6.6603 I0.0000 J-0.0800
N8180 M05
N8190 G04 P1
N8200 G00 Z0.8000
N8210 X33.4732 Y1.7303
N8220 Z0.6900
N8230 o<touchoff> call [0.1900]  [0.5]  [0.1750] 
N8240 F3.937
N8250 G01 Z0.1750
N8260 Y1.8553 F48
N8270 G02 X33.4732 Y1.8553 I0.0000 J-0.1360 F48.0
N8280 X33.5532 Y1.7753 I0.0000 J-0.0800
N8290 M05
N8300 G04 P1
N8310 G00 Z0.8000
N8320 X32.7232 Y1.3403
N8330 Z0.6900
N8340 o<touchoff> call [0.1900]  [0.5]  [0.1750] 
N8350 F3.937
N8360 G01 Z0.1750
N8370 Y1.4653 F48
N8380 G02 X32.7232 Y1.4653 I0.0000 J-0.1360 F48.0
N8390 X32.8032 Y1.3853 I0.0000 J-0.0800
N8400 M05
N8410 G04 P1
N8420 G00 Z0.8000
N8430 X32.7232 Y2.1203
N8440 Z0.6900
N8450 o<touchoff> call [0.1900]  [0.5]  [0.1750] 
N8460 F3.937
N8470 G01 Z0.1750
N8480 Y2.2453 F48
N8490 G02 X32.7232 Y2.2453 I0.0000 J-0.1360 F48.0
N8500 X32.8032 Y2.1653 I0.0000 J-0.0800
N8510 M05
N8520 G04 P1
N8530 G00 Z0.8000
N8540 X31.0607 Y1.4703
N8550 Z0.6900
N8560 o<touchoff> call [0.1900]  [0.5]  [0.1750] 
N8570 F3.937
N8580 G01 Z0.1750
N8590 Y1.5953 F48
N8600 G02 X31.0607 Y1.5953 I0.0000 J-0.1735 F48.0
N8610 X31.1407 Y1.5153 I0.0000 J-0.0800
N8620 M05
N8630 G04 P1
N8640 G00 Z0.8000
N8650 X31.0607 Y3.0451
N8660 Z0.6900
N8670 o<touchoff> call [0.1900]  [0.5]  [0.1750] 
N8680 F3.937
N8690 G01 Z0.1750
N8700 Y3.1701 F48
N8710 G02 X31.0607 Y3.1701 I0.0000 J-0.1735 F48.0
N8720 X31.1407 Y3.0901 I0.0000 J-0.0800
N8730 M05
N8740 G04 P1
N8750 G00 Z0.8000
N8760 X30.9982 Y6.6153
N8770 Z0.6900
N8780 o<touchoff> call [0.1900]  [0.5]  [0.1750] 
N8790 F3.937
N8800 G01 Z0.1750
N8810 Y6.7403 F48
N8820 G02 X30.9982 Y6.7403 I0.0000 J-0.2560 F48.0
N8830 X31.0782 Y6.6603 I0.0000 J-0.0800
N8840 (Operation: Outside Offset, Outside, T2: Plasma, 0.038 in kerf)
N8850 M05
N8860 G04 P1
N8870 G00 Z0.8000
N8880 X28.9902 Y1.2507
N8890 Z0.6900
N8900 o<touchoff> call [0.1900]  [0.5]  [0.1750] 
N8910 F3.937
N8920 G01 Z0.1750
N8930 X29.1151 Y1.2455 F48
N8940 G03 X29.3839 Y0.9653 I0.2688 J-0.0112 F48.0
N8950 G01 X32.6976 F48
N8960 G03 X33.3305 Y1.1857 I-0.0000 J1.0190 F48.0
N8970 G01 X33.7378 Y1.5084 F48
N8980 G03 X33.7378 Y1.9301 I-0.1671 J0.2108 F48.0
N8990 G01 X33.3305 Y2.2529 F48
N9000 G03 X32.6976 Y2.4733 I-0.6329 J-0.7986 F48.0
N9010 G01 X32.1422 F48
N9020 Y36.9843
N9030 G03 X32.1232 Y37.0033 I-0.0190 J0.0000 F48.0
N9040 G01 X30.8630 F48
N9050 G03 X30.5943 Y36.7455 I0.0000 J-0.2690 F48.0
N9060 G01 X29.1151 Y1.2455 F48
N9070 G02 X29.0318 Y1.1689 I-0.0799 J0.0033 F48.0
N9080 M05
N9090 G04 P1
N9100 G00 Z0.8000
N9110 X39.9129 Y1.2507
N9120 Z0.6900
N9130 o<touchoff> call [0.1900]  [0.5]  [0.1750] 
N9140 F3.937
N9150 G01 Z0.1750
N9160 X39.7881 Y1.2455 F48
N9170 X38.3089 Y36.7455
N9180 G03 X38.0401 Y37.0033 I-0.2688 J-0.0112 F48.0
N9190 G01 X36.7799 F48
N9200 G03 X36.7609 Y36.9843 I0.0000 J-0.0190 F48.0
N9210 G01 Y0.9843 F48
N9220 G03 X36.7799 Y0.9653 I0.0190 J0.0000 F48.0
N9230 G01 X39.5193 F48
N9240 G03 X39.7881 Y1.2455 I-0.0000 J0.2690 F48.0
N9250 (Part: legs Duplicate 3)
N9260 G02 X39.8647 Y1.3287 I0.0799 J0.0033
N9270 (Operation: Inside Offset, 0, T2: Plasma, 0.038 in kerf)
N9280 M05
N9290 G04 P1
N9300 G00 Z0.8000
N9310 X17.2187 Y18.9184
N9320 Z0.6900
N9330 o<touchoff> call [0.1900]  [0.5]  [0.1750] 
N9340 F3.937
N9350 G01 Z0.1750
N9360 Y19.0434 F48
N9370 G02 X17.2187 Y19.0434 I0.0000 J-0.2560 F48.0
N9380 X17.2987 Y18.9634 I0.0000 J-0.0800
N9390 M05
N9400 G04 P1
N9410 G00 Z0.8000
N9420 X24.1254 Y18.9184
N9430 Z0.6900
N9440 o<touchoff> call [0.1900]  [0.5]  [0.1750] 
N9450 F3.937
N9460 G01 Z0.1750
N9470 Y19.0434 F48
N9480 G02 X24.1254 Y19.0434 I0.0000 J-0.2560 F48.0
N9490 X24.2054 Y18.9634 I0.0000 J-0.0800
N9500 M05
N9510 G04 P1
N9520 G00 Z0.8000
N9530 X23.6452 Y23.5367
N9540 Z0.6900
N9550 o<touchoff> call [0.1900]  [0.5]  [0.1750] 
N9560 F3.937
N9570 G01 Z0.1750
N9580 X23.6162 Y23.5078 F48
N9590 Y23.5698
N9600 X24.2982
N9610 Y23.5078
N9620 X23.6162
N9630 G02 X23.6424 Y23.5340 I0.0262 J0.0000 F48.0
N9640 M05
N9650 G04 P1
N9660 G00 Z0.8000
N9670 X23.6038 Y23.8956
N9680 Z0.6900
N9690 o<touchoff> call [0.1900]  [0.5]  [0.1750] 
N9700 F3.937
N9710 G01 Z0.1750
N9720 X23.4788 F48
N9730 Y24.3723
N9740 G02 X23.8058 Y24.3723 I0.1635 J0.0000 F48.0
N9750 G01 Y23.8956 F48
N9760 G02 X23.4788 Y23.8956 I-0.1635 J0.0000 F48.0
N9770 X23.5588 Y23.9756 I0.0800 J0.0000
N9780 M05
N9790 G04 P1
N9800 G00 Z0.8000
N9810 X23.2743 Y23.6976
N9820 Z0.6900
N9830 o<touchoff> call [0.1900]  [0.5]  [0.1750] 
N9840 F3.937
N9850 G01 Z0.1750
N9860 X23.2506 Y23.6522 F48
N9870 G02 X23.2412 Y23.7138 I0.1966 J0.0615 F48.0
N9880 G01 Y24.5736 F48
N9890 G02 X23.4472 Y24.7796 I0.2060 J0.0000 F48.0
N9900 G01 X23.7172 F48
N9910 G03 X23.7612 Y24.8236 I0.0000 J0.0440 F48.0
N9920 G01 Y26.1836 F48
N9930 G03 X23.7172 Y26.2276 I-0.0440 J0.0000 F48.0
N9940 G01 X23.4472 F48
N9950 G02 X23.2412 Y26.4336 I-0.0000 J0.2060 F48.0
N9960 G01 Y27.3188 F48
N9970 G02 X23.4472 Y27.5248 I0.2060 J0.0000 F48.0
N9980 G01 X24.4672 F48
N9990 G02 X24.6732 Y27.3188 I0.0000 J-0.2060 F48.0
N10000 G01 Y23.7138 F48
N10010 G02 X24.4862 Y23.5086 I-0.2060 J-0.0000 F48.0
N10020 G01 Y23.5710 F48
N10030 G03 X24.6112 Y23.7138 I-0.0190 J0.1427 F48.0
N10040 G01 Y27.3188 F48
N10050 G03 X24.4672 Y27.4628 I-0.1440 J-0.0000 F48.0
N10060 G01 X23.4472 F48
N10070 G03 X23.3032 Y27.3188 I0.0000 J-0.1440 F48.0
N10080 G01 Y26.4336 F48
N10090 G03 X23.4472 Y26.2896 I0.1440 J0.0000 F48.0
N10100 G01 X23.7172 F48
N10110 G02 X23.8232 Y26.1836 I0.0000 J-0.1060 F48.0
N10120 G01 Y24.8236 F48
N10130 G02 X23.7172 Y24.7176 I-0.1060 J-0.0000 F48.0
N10140 G01 X23.4472 F48
N10150 G03 X23.3032 Y24.5736 I0.0000 J-0.1440 F48.0
N10160 G01 Y23.7138 F48
N10170 G03 X23.4282 Y23.5710 I0.1440 J0.0000 F48.0
N10180 G01 Y23.5086 F48
N10190 G02 X23.2506 Y23.6522 I0.0190 J0.2051 F48.0
N10200 X23.2721 Y23.6933 I0.0313 J0.0098
N10210 M05
N10220 G04 P1
N10230 G00 Z0.8000
N10240 X24.3106 Y24.3723
N10250 Z0.6900
N10260 o<touchoff> call [0.1900]  [0.5]  [0.1750] 
N10270 F3.937
N10280 G01 Z0.1750
N10290 X24.4356 F48
N10300 Y23.8956
N10310 G02 X24.1086 Y23.8956 I-0.1635 J-0.0000 F48.0
N10320 G01 Y24.3723 F48
N10330 G02 X24.4356 Y24.3723 I0.1635 J0.0000 F48.0
N10340 X24.3556 Y24.2923 I-0.0800 J-0.0000
N10350 M05
N10360 G04 P1
N10370 G00 Z0.8000
N10380 X23.6038 Y26.6338
N10390 Z0.6900
N10400 o<touchoff> call [0.1900]  [0.5]  [0.1750] 
N10410 F3.937
N10420 G01 Z0.1750
N10430 X23.4788 F48
N10440 Y27.1105
N10450 G02 X23.8058 Y27.1105 I0.1635 J0.0000 F48.0
N10460 G01 Y26.6338 F48
N10470 G02 X23.4788 Y26.6338 I-0.1635 J-0.0000 F48.0
N10480 X23.5588 Y26.7138 I0.0800 J0.0000
N10490 M05
N10500 G04 P1
N10510 G00 Z0.8000
N10520 X24.3106 Y27.1105
N10530 Z0.6900
N10540 o<touchoff> call [0.1900]  [0.5]  [0.1750] 
N10550 F3.937
N10560 G01 Z0.1750
N10570 X24.4356 F48
N10580 Y26.6338
N10590 G02 X24.1086 Y26.6338 I-0.1635 J-0.0000 F48.0
N10600 G01 Y27.1105 F48
N10610 G02 X24.4356 Y27.1105 I0.1635 J0.0000 F48.0
N10620 X24.3556 Y27.0305 I-0.0800 J-0.0000
N10630 M05
N10640 G04 P1
N10650 G00 Z0.8000
N10660 X24.1254 Y6.4184
N10670 Z0.6900
N10680 o<touchoff> call [0.1900]  [0.5]  [0.1750] 
N10690 F3.937
N10700 G01 Z0.1750
N10710 Y6.5434 F48
N10720 G02 X24.1254 Y6.5434 I0.0000 J-0.2560 F48.0
N10730 X24.2054 Y6.4634 I0.0000 J-0.0800
N10740 M05
N10750 G04 P1
N10760 G00 Z0.8000
N10770 X19.6937 Y1.5334
N10780 Z0.6900
N10790 o<touchoff> call [0.1900]  [0.5]  [0.1750] 
N10800 F3.937
N10810 G01 Z0.1750
N10820 Y1.6584 F48
N10830 G02 X19.6937 Y1.6584 I0.0000 J-0.1360 F48.0
N10840 X19.7737 Y1.5784 I0.0000 J-0.0800
N10850 M05
N10860 G04 P1
N10870 G00 Z0.8000
N10880 X18.9437 Y1.1434
N10890 Z0.6900
N10900 o<touchoff> call [0.1900]  [0.5]  [0.1750] 
N10910 F3.937
N10920 G01 Z0.1750
N10930 Y1.2684 F48
N10940 G02 X18.9437 Y1.2684 I0.0000 J-0.1360 F48.0
N10950 X19.0237 Y1.1884 I0.0000 J-0.0800
N10960 M05
N10970 G04 P1
N10980 G00 Z0.8000
N10990 X18.9437 Y1.9234
N11000 Z0.6900
N11010 o<touchoff> call [0.1900]  [0.5]  [0.1750] 
N11020 F3.937
N11030 G01 Z0.1750
N11040 Y2.0484 F48
N11050 G02 X18.9437 Y2.0484 I0.0000 J-0.1360 F48.0
N11060 X19.0237 Y1.9684 I0.0000 J-0.0800
N11070 M05
N11080 G04 P1
N11090 G00 Z0.8000
N11100 X17.2812 Y1.2734
N11110 Z0.6900
N11120 o<touchoff> call [0.1900]  [0.5]  [0.1750] 
N11130 F3.937
N11140 G01 Z0.1750
N11150 Y1.3984 F48
N11160 G02 X17.2812 Y1.3984 I0.0000 J-0.1735 F48.0
N11170 X17.3612 Y1.3184 I0.0000 J-0.0800
N11180 M05
N11190 G04 P1
N11200 G00 Z0.8000
N11210 X17.2812 Y2.8482
N11220 Z0.6900
N11230 o<touchoff> call [0.1900]  [0.5]  [0.1750] 
N11240 F3.937
N11250 G01 Z0.1750
N11260 Y2.9732 F48
N11270 G02 X17.2812 Y2.9732 I0.0000 J-0.1735 F48.0
N11280 X17.3612 Y2.8932 I0.0000 J-0.0800
N11290 M05
N11300 G04 P1
N11310 G00 Z0.8000
N11320 X17.2187 Y6.4184
N11330 Z0.6900
N11340 o<touchoff> call [0.1900]  [0.5]  [0.1750] 
N11350 F3.937
N11360 G01 Z0.1750
N11370 Y6.5434 F48
N11380 G02 X17.2187 Y6.5434 I0.0000 J-0.2560 F48.0
N11390 X17.2987 Y6.4634 I0.0000 J-0.0800
N11400 (Operation: Outside Offset, Outside, T2: Plasma, 0.038 in kerf)
N11410 M05
N11420 G04 P1
N11430 G00 Z0.8000
N11440 X15.2107 Y1.0538
N11450 Z0.6900
N11460 o<touchoff> call [0.1900]  [0.5]  [0.1750] 
N11470 F3.937
N11480 G01 Z0.1750
N11490 X15.3356 Y1.0486 F48
N11500 G03 X15.6043 Y0.7684 I0.2688 J-0.0112 F48.0
N11510 G01 X18.9181 F48
N11520 G03 X19.5510 Y0.9888 I-0.0000 J1.0190 F48.0
N11530 G01 X19.9583 Y1.3116 F48
N11540 G03 X19.9583 Y1.7332 I-0.1671 J0.2108 F48.0
N11550 G01 X19.5510 Y2.0560 F48
N11560 G03 X18.9181 Y2.2764 I-0.6329 J-0.7986 F48.0
N11570 G01 X18.3627 F48
N11580 Y36.7874
N11590 G03 X18.3437 Y36.8064 I-0.0190 J0.0000 F48.0
N11600 G01 X17.0835 F48
N11610 G03 X16.8147 Y36.5486 I0.0000 J-0.2690 F48.0
N11620 G01 X15.3356 Y1.0486 F48
N11630 G02 X15.2523 Y0.9720 I-0.0799 J0.0033 F48.0
N11640 M05
N11650 G04 P1
N11660 G00 Z0.8000
N11670 X26.1334 Y1.0538
N11680 Z0.6900
N11690 o<touchoff> call [0.1900]  [0.5]  [0.1750] 
N11700 F3.937
N11710 G01 Z0.1750
N11720 X26.0085 Y1.0486 F48
N11730 X24.5294 Y36.5486
N11740 G03 X24.2606 Y36.8064 I-0.2688 J-0.0112 F48.0
N11750 G01 X23.0004 F48
N11760 G03 X22.9814 Y36.7874 I0.0000 J-0.0190 F48.0
N11770 G01 Y0.7874 F48
N11780 G03 X23.0004 Y0.7684 I0.0190 J0.0000 F48.0
N11790 G01 X25.7398 F48
N11800 G03 X26.0085 Y1.0486 I-0.0000 J0.2690 F48.0
N11810 (Part: Gantry_Supports Duplicate 2)
N11820 G02 X26.0851 Y1.1319 I0.0799 J0.0033
N11830 (Operation: Inside Offset, 0, T2: Plasma, 0.04 in kerf)
N11840 M05
N11850 G04 P1
N11860 G00 Z0.8000
N11870 X9.0304 Y34.9790
N11880 Z0.6900
N11890 o<touchoff> call [0.1900]  [0.5]  [0.1750] 
N11900 F3.937
N11910 G01 Z0.1750
N11920 X9.0319 Y35.1040 F48
N11930 X10.0118 Y35.0917
N11940 G02 X10.1160 Y34.9953 I-0.0013 J-0.1060 F48.0
N11950 G01 X10.2980 Y32.9909 F48
N11960 G02 X10.1731 Y32.8771 I-0.1056 J-0.0096 F48.0
N11970 G01 X9.3532 Y33.0290 F48
N11980 G02 X9.2682 Y33.1141 I0.0193 J0.1042 F48.0
N11990 G01 X8.9263 Y34.9789 F48
N12000 G02 X9.0319 Y35.1040 I0.1043 J0.0191 F48.0
N12010 G01 F48
N12020 G02 X9.1109 Y35.0230 I-0.0010 J-0.0800 F48.0
N12030 M05
N12040 G04 P1
N12050 G00 Z0.8000
N12060 X9.6561 Y31.4670
N12070 Z0.6900
N12080 o<touchoff> call [0.1900]  [0.5]  [0.1750] 
N12090 F3.937
N12100 G01 Z0.1750
N12110 X9.7278 Y31.5694 F48
N12120 G02 X9.7278 Y31.5694 I-0.0780 J-0.1114 F48.0
N12130 X9.7475 Y31.4579 I-0.0459 J-0.0655
N12140 M05
N12150 G04 P1
N12160 G00 Z0.8000
N12170 X9.2088 Y30.8280
N12180 Z0.6900
N12190 o<touchoff> call [0.1900]  [0.5]  [0.1750] 
N12200 F3.937
N12210 G01 Z0.1750
N12220 X9.2805 Y30.9304 F48
N12230 G02 X9.2805 Y30.9304 I-0.0780 J-0.1114 F48.0
N12240 X9.3001 Y30.8190 I-0.0459 J-0.0655
N12250 M05
N12260 G04 P1
N12270 G00 Z0.8000
N12280 X10.6910 Y30.6866
N12290 Z0.6900
N12300 o<touchoff> call [0.1900]  [0.5]  [0.1750] 
N12310 F3.937
N12320 G01 Z0.1750
N12330 X10.7627 Y30.7889 F48
N12340 X11.1533 Y30.5155
N12350 G02 X10.9657 Y30.2476 I-0.0938 J-0.1339 F48.0
N12360 G01 X10.5752 Y30.5211 F48
N12370 G02 X10.7627 Y30.7889 I0.0938 J0.1339 F48.0
N12380 X10.7824 Y30.6775 I-0.0459 J-0.0655
N12390 M05
N12400 G04 P1
N12410 G00 Z0.8000
N12420 X11.0656 Y30.9089
N12430 Z0.6900
N12440 o<touchoff> call [0.1900]  [0.5]  [0.1750] 
N12450 F3.937
N12460 G01 Z0.1750
N12470 X10.9737 Y30.9937 F48
N12480 G02 X11.0306 Y30.9998 I0.0320 J-0.0295 F48.0
N12490 G01 X12.0081 Y30.3154 F48
N12500 G02 X11.9582 Y30.2441 I-0.0250 J-0.0356 F48.0
N12510 G01 X10.9807 Y30.9285 F48
N12520 G02 X10.9737 Y30.9937 I0.0250 J0.0356 F48.0
N12530 X11.0702 Y30.9347 I0.0188 J-0.0778
N12540 M05
N12550 G04 P1
N12560 G00 Z0.8000
N12570 X10.6762 Y29.8341
N12580 Z0.6900
N12590 o<touchoff> call [0.1900]  [0.5]  [0.1750] 
N12600 F3.937
N12610 G01 Z0.1750
N12620 X10.6045 Y29.7317 F48
N12630 X10.2139 Y30.0052
N12640 G02 X10.4015 Y30.2730 I0.0938 J0.1339 F48.0
N12650 G01 X10.7920 Y29.9996 F48
N12660 G02 X10.6045 Y29.7317 I-0.0938 J-0.1339 F48.0
N12670 X10.5848 Y29.8431 I0.0459 J0.0655
N12680 M05
N12690 G04 P1
N12700 G00 Z0.8000
N12710 X12.9340 Y29.1160
N12720 Z0.6900
N12730 o<touchoff> call [0.1900]  [0.5]  [0.1750] 
N12740 F3.937
N12750 G01 Z0.1750
N12760 X13.0057 Y29.2184 F48
N12770 X13.3963 Y28.9449
N12780 G02 X13.2087 Y28.6771 I-0.0938 J-0.1339 F48.0
N12790 G01 X12.8182 Y28.9505 F48
N12800 G02 X13.0057 Y29.2184 I0.0938 J0.1339 F48.0
N12810 X13.0254 Y29.1070 I-0.0459 J-0.0655
N12820 M05
N12830 G04 P1
N12840 G00 Z0.8000
N12850 X13.4793 Y29.2454
N12860 Z0.6900
N12870 o<touchoff> call [0.1900]  [0.5]  [0.1750] 
N12880 F3.937
N12890 G01 Z0.1750
N12900 X13.5712 Y29.1606 F48
N12910 G02 X13.5143 Y29.1545 I-0.0320 J0.0295 F48.0
N12920 G01 X12.5431 Y29.8345 F48
N12930 G02 X12.5930 Y29.9058 I0.0250 J0.0356 F48.0
N12940 G01 X13.5642 Y29.2258 F48
N12950 G02 X13.5712 Y29.1606 I-0.0250 J-0.0356 F48.0
N12960 X13.4747 Y29.2196 I-0.0188 J0.0778
N12970 M05
N12980 G04 P1
N12990 G00 Z0.8000
N13000 X12.9192 Y28.2636
N13010 Z0.6900
N13020 o<touchoff> call [0.1900]  [0.5]  [0.1750] 
N13030 F3.937
N13040 G01 Z0.1750
N13050 X12.8475 Y28.1612 F48
N13060 X12.4569 Y28.4346
N13070 G02 X12.6445 Y28.7025 I0.0938 J0.1339 F48.0
N13080 G01 X13.0350 Y28.4290 F48
N13090 G02 X12.8475 Y28.1612 I-0.0938 J-0.1339 F48.0
N13100 X12.8278 Y28.2726 I0.0459 J0.0655
N13110 M05
N13120 G04 P1
N13130 G00 Z0.8000
N13140 X10.7462 Y38.9782
N13150 Z0.6900
N13160 o<touchoff> call [0.1900]  [0.5]  [0.1750] 
N13170 F3.937
N13180 G01 Z0.1750
N13190 X10.8179 Y39.0806 F48
N13200 G02 X10.8179 Y39.0806 I-0.0680 J-0.0971 F48.0
N13210 X10.8375 Y38.9692 I-0.0459 J-0.0655
N13220 M05
N13230 G04 P1
N13240 G00 Z0.8000
N13250 X9.8011 Y39.8078
N13260 Z0.6900
N13270 o<touchoff> call [0.1900]  [0.5]  [0.1750] 
N13280 F3.937
N13290 G01 Z0.1750
N13300 X9.8728 Y39.9102 F48
N13310 G02 X9.8728 Y39.9102 I-0.1468 J-0.2097 F48.0
N13320 X9.8924 Y39.7988 I-0.0459 J-0.0655
N13330 M05
N13340 G04 P1
N13350 G00 Z0.8000
N13360 X8.6983 Y40.4121
N13370 Z0.6900
N13380 o<touchoff> call [0.1900]  [0.5]  [0.1750] 
N13390 F3.937
N13400 G01 Z0.1750
N13410 X8.7700 Y40.5145 F48
N13420 G02 X8.7700 Y40.5145 I-0.0680 J-0.0971 F48.0
N13430 X8.7896 Y40.4031 I-0.0459 J-0.0655
N13440 M05
N13450 G04 P1
N13460 G00 Z0.8000
N13470 X8.3442 Y38.8471
N13480 Z0.6900
N13490 o<touchoff> call [0.1900]  [0.5]  [0.1750] 
N13500 F3.937
N13510 G01 Z0.1750
N13520 X8.2213 Y38.8246 F48
N13530 G02 X8.3864 Y38.9305 I0.1043 J0.0191 F48.0
N13540 G01 X10.0765 Y37.7471 F48
N13550 G02 X10.1116 Y37.6152 I-0.0608 J-0.0868 F48.0
N13560 G01 X9.9326 Y37.2338 F48
N13570 G03 X9.9196 Y37.1596 I0.1304 J-0.0612 F48.0
N13580 G01 X10.0409 Y35.8227 F48
N13590 G02 X9.9340 Y35.7071 I-0.1056 J-0.0096 F48.0
N13600 G01 X8.8774 Y35.7203 F48
N13610 G02 X8.7745 Y35.8072 I0.0013 J0.1060 F48.0
N13620 G01 X8.2213 Y38.8246 F48
N13630 G02 X8.3025 Y38.9034 I0.0800 J-0.0012 F48.0
N13640 (Operation: Outside Offset, Outside, T2: Plasma, 0.04 in kerf)
N13650 M05
N13660 G04 P1
N13670 G00 Z0.8000
N13680 X8.4620 Y32.8021
N13690 Z0.6900
N13700 o<touchoff> call [0.1900]  [0.5]  [0.1750] 
N13710 F3.937
N13720 G01 Z0.1750
N13730 X8.5644 Y32.7304 F48
N13740 X7.6784 Y31.4650
N13750 G03 X7.7137 Y31.2645 I0.1180 J-0.0826 F48.0
N13760 G01 X9.1472 Y30.2607 F48
N13770 G03 X9.3478 Y30.2961 I0.0826 J0.1180 F48.0
N13780 G01 X9.6306 Y30.7000 F48
N13790 G03 X9.5952 Y30.9005 I-0.1180 J0.0826 F48.0
N13800 G01 X9.1731 Y31.1961 F48
N13810 G02 X9.1470 Y31.3438 I0.0608 J0.0868 F48.0
N13820 G01 X9.1497 Y31.3476 F48
N13830 G02 X9.2974 Y31.3737 I0.0868 J-0.0608 F48.0
N13840 G01 X9.7195 Y31.0781 F48
N13850 G03 X9.9201 Y31.1134 I0.0826 J0.1180 F48.0
N13860 G01 X10.1354 Y31.4209 F48
N13870 G02 X10.2830 Y31.4470 I0.0868 J-0.0608 F48.0
N13880 G01 X10.5124 Y31.2864 F48
N13890 G02 X10.5384 Y31.1388 I-0.0608 J-0.0868 F48.0
N13900 G01 X9.8931 Y30.2172 F48
N13910 G03 X9.9592 Y29.8426 I0.2204 J-0.1543 F48.0
N13920 G01 X12.7749 Y27.8709 F48
N13930 G03 X13.1496 Y27.9370 I0.1543 J0.2204 F48.0
N13940 G01 X14.2967 Y29.5753 F48
N13950 G03 X14.2307 Y29.9500 I-0.2204 J0.1543 F48.0
N13960 G01 X10.8784 Y32.2972 F48
N13970 G02 X10.8524 Y32.4449 I0.0608 J0.0868 F48.0
N13980 G01 X10.9230 Y32.5458 F48
N13990 G03 X11.0148 Y32.8904 I-0.4251 J0.2977 F48.0
N14000 G01 X10.6184 Y37.2570 F48
N14010 G02 X10.7034 Y37.5764 I0.4790 J0.0435 F48.0
N14020 G01 X11.1746 Y38.2494 F48
N14030 G03 X10.9244 Y39.6685 I-0.8347 J0.5845 F48.0
N14040 G01 X9.2860 Y40.8157 F48
N14050 G03 X7.8669 Y40.5655 I-0.5845 J-0.8347 F48.0
N14060 G01 X7.4611 Y39.9860 F48
N14070 G03 X7.3758 Y39.5947 I0.4251 J-0.2977 F48.0
N14080 G01 X8.6024 Y32.9045 F48
N14090 G02 X8.5644 Y32.7304 I-0.2272 J-0.0417 F48.0
N14100 (Part: legs Duplicate 2)
N14110 X8.4529 Y32.7107 I-0.0655 J0.0459
N14120 (Operation: Inside Offset, 0, T2: Plasma, 0.038 in kerf)
N14130 M05
N14140 G04 P1
N14150 G00 Z0.8000
N14160 X27.8656 Y18.6564
N14170 Z0.6900
N14180 o<touchoff> call [0.1900]  [0.5]  [0.1750] 
N14190 F3.937
N14200 G01 Z0.1750
N14210 Y18.5314 F48
N14220 G02 X27.8656 Y18.5314 I0.0000 J0.2560 F48.0
N14230 X27.7856 Y18.6114 I0.0000 J0.0800
N14240 M05
N14250 G04 P1
N14260 G00 Z0.8000
N14270 X20.9589 Y18.6564
N14280 Z0.6900
N14290 o<touchoff> call [0.1900]  [0.5]  [0.1750] 
N14300 F3.937
N14310 G01 Z0.1750
N14320 Y18.5314 F48
N14330 G02 X20.9589 Y18.5314 I0.0000 J0.2560 F48.0
N14340 X20.8789 Y18.6114 I0.0000 J0.0800
N14350 M05
N14360 G04 P1
N14370 G00 Z0.8000
N14380 X21.4391 Y14.0381
N14390 Z0.6900
N14400 o<touchoff> call [0.1900]  [0.5]  [0.1750] 
N14410 F3.937
N14420 G01 Z0.1750
N14430 X21.4681 Y14.0671 F48
N14440 Y14.0051
N14450 X20.7861
N14460 Y14.0671
N14470 X21.4681
N14480 G02 X21.4418 Y14.0408 I-0.0262 J0.0000 F48.0
N14490 M05
N14500 G04 P1
N14510 G00 Z0.8000
N14520 X21.4805 Y13.6792
N14530 Z0.6900
N14540 o<touchoff> call [0.1900]  [0.5]  [0.1750] 
N14550 F3.937
N14560 G01 Z0.1750
N14570 X21.6055 F48
N14580 Y13.2025
N14590 G02 X21.2785 Y13.2025 I-0.1635 J0.0000 F48.0
N14600 G01 Y13.6792 F48
N14610 G02 X21.6055 Y13.6792 I0.1635 J0.0000 F48.0
N14620 X21.5255 Y13.5992 I-0.0800 J0.0000
N14630 M05
N14640 G04 P1
N14650 G00 Z0.8000
N14660 X21.8099 Y13.8772
N14670 Z0.6900
N14680 o<touchoff> call [0.1900]  [0.5]  [0.1750] 
N14690 F3.937
N14700 G01 Z0.1750
N14710 X21.8336 Y13.9226 F48
N14720 G02 X21.8431 Y13.8611 I-0.1966 J-0.0615 F48.0
N14730 G01 Y13.0013 F48
N14740 G02 X21.6371 Y12.7953 I-0.2060 J0.0000 F48.0
N14750 G01 X21.3671 F48
N14760 G03 X21.3231 Y12.7513 I0.0000 J-0.0440 F48.0
N14770 G01 Y11.3912 F48
N14780 G03 X21.3671 Y11.3472 I0.0440 J0.0000 F48.0
N14790 G01 X21.6371 F48
N14800 G02 X21.8431 Y11.1412 I0.0000 J-0.2060 F48.0
N14810 G01 Y10.2561 F48
N14820 G02 X21.6371 Y10.0501 I-0.2060 J0.0000 F48.0
N14830 G01 X20.6171 F48
N14840 G02 X20.4111 Y10.2561 I0.0000 J0.2060 F48.0
N14850 G01 Y13.8611 F48
N14860 G02 X20.5981 Y14.0662 I0.2060 J0.0000 F48.0
N14870 G01 Y14.0038 F48
N14880 G03 X20.4731 Y13.8611 I0.0190 J-0.1427 F48.0
N14890 G01 Y10.2561 F48
N14900 G03 X20.6171 Y10.1121 I0.1440 J0.0000 F48.0
N14910 G01 X21.6371 F48
N14920 G03 X21.7811 Y10.2561 I0.0000 J0.1440 F48.0
N14930 G01 Y11.1412 F48
N14940 G03 X21.6371 Y11.2852 I-0.1440 J0.0000 F48.0
N14950 G01 X21.3671 F48
N14960 G02 X21.2611 Y11.3912 I0.0000 J0.1060 F48.0
N14970 G01 Y12.7513 F48
N14980 G02 X21.3671 Y12.8573 I0.1060 J0.0000 F48.0
N14990 G01 X21.6371 F48
N15000 G03 X21.7811 Y13.0013 I0.0000 J0.1440 F48.0
N15010 G01 Y13.8611 F48
N15020 G03 X21.6561 Y14.0038 I-0.1440 J0.0000 F48.0
N15030 G01 Y14.0662 F48
N15040 G02 X21.8336 Y13.9226 I-0.0190 J-0.2051 F48.0
N15050 X21.8122 Y13.8815 I-0.0313 J-0.0098
N15060 M05
N15070 G04 P1
N15080 G00 Z0.8000
N15090 X20.7737 Y13.2025
N15100 Z0.6900
N15110 o<touchoff> call [0.1900]  [0.5]  [0.1750] 
N15120 F3.937
N15130 G01 Z0.1750
N15140 X20.6487 F48
N15150 Y13.6792
N15160 G02 X20.9757 Y13.6792 I0.1635 J0.0000 F48.0
N15170 G01 Y13.2025 F48
N15180 G02 X20.6487 Y13.2025 I-0.1635 J0.0000 F48.0
N15190 X20.7287 Y13.2825 I0.0800 J0.0000
N15200 M05
N15210 G04 P1
N15220 G00 Z0.8000
N15230 X21.4805 Y10.9411
N15240 Z0.6900
N15250 o<touchoff> call [0.1900]  [0.5]  [0.1750] 
N15260 F3.937
N15270 G01 Z0.1750
N15280 X21.6055 F48
N15290 Y10.4643
N15300 G02 X21.2785 Y10.4643 I-0.1635 J0.0000 F48.0
N15310 G01 Y10.9411 F48
N15320 G02 X21.6055 Y10.9411 I0.1635 J0.0000 F48.0
N15330 X21.5255 Y10.8611 I-0.0800 J0.0000
N15340 M05
N15350 G04 P1
N15360 G00 Z0.8000
N15370 X20.7737 Y10.4643
N15380 Z0.6900
N15390 o<touchoff> call [0.1900]  [0.5]  [0.1750] 
N15400 F3.937
N15410 G01 Z0.1750
N15420 X20.6487 F48
N15430 Y10.9411
N15440 G02 X20.9757 Y10.9411 I0.1635 J0.0000 F48.0
N15450 G01 Y10.4643 F48
N15460 G02 X20.6487 Y10.4643 I-0.1635 J0.0000 F48.0
N15470 X20.7287 Y10.5443 I0.0800 J0.0000
N15480 M05
N15490 G04 P1
N15500 G00 Z0.8000
N15510 X20.9589 Y31.1564
N15520 Z0.6900
N15530 o<touchoff> call [0.1900]  [0.5]  [0.1750] 
N15540 F3.937
N15550 G01 Z0.1750
N15560 Y31.0314 F48
N15570 G02 X20.9589 Y31.0314 I0.0000 J0.2560 F48.0
N15580 X20.8789 Y31.1114 I0.0000 J0.0800
N15590 M05
N15600 G04 P1
N15610 G00 Z0.8000
N15620 X25.3906 Y36.0414
N15630 Z0.6900
N15640 o<touchoff> call [0.1900]  [0.5]  [0.1750] 
N15650 F3.937
N15660 G01 Z0.1750
N15670 Y35.9164 F48
N15680 G02 X25.3906 Y35.9164 I0.0000 J0.1360 F48.0
N15690 X25.3106 Y35.9964 I0.0000 J0.0800
N15700 M05
N15710 G04 P1
N15720 G00 Z0.8000
N15730 X26.1406 Y36.4314
N15740 Z0.6900
N15750 o<touchoff> call [0.1900]  [0.5]  [0.1750] 
N15760 F3.937
N15770 G01 Z0.1750
N15780 Y36.3064 F48
N15790 G02 X26.1406 Y36.3064 I0.0000 J0.1360 F48.0
N15800 X26.0606 Y36.3864 I0.0000 J0.0800
N15810 M05
N15820 G04 P1
N15830 G00 Z0.8000
N15840 X26.1406 Y35.6514
N15850 Z0.6900
N15860 o<touchoff> call [0.1900]  [0.5]  [0.1750] 
N15870 F3.937
N15880 G01 Z0.1750
N15890 Y35.5264 F48
N15900 G02 X26.1406 Y35.5264 I0.0000 J0.1360 F48.0
N15910 X26.0606 Y35.6064 I0.0000 J0.0800
N15920 M05
N15930 G04 P1
N15940 G00 Z0.8000
N15950 X27.8031 Y36.3014
N15960 Z0.6900
N15970 o<touchoff> call [0.1900]  [0.5]  [0.1750] 
N15980 F3.937
N15990 G01 Z0.1750
N16000 Y36.1764 F48
N16010 G02 X27.8031 Y36.1764 I0.0000 J0.1735 F48.0
N16020 X27.7231 Y36.2564 I0.0000 J0.0800
N16030 M05
N16040 G04 P1
N16050 G00 Z0.8000
N16060 X27.8031 Y34.7266
N16070 Z0.6900
N16080 o<touchoff> call [0.1900]  [0.5]  [0.1750] 
N16090 F3.937
N16100 G01 Z0.1750
N16110 Y34.6016 F48
N16120 G02 X27.8031 Y34.6016 I0.0000 J0.1735 F48.0
N16130 X27.7231 Y34.6816 I0.0000 J0.0800
N16140 M05
N16150 G04 P1
N16160 G00 Z0.8000
N16170 X27.8656 Y31.1564
N16180 Z0.6900
N16190 o<touchoff> call [0.1900]  [0.5]  [0.1750] 
N16200 F3.937
N16210 G01 Z0.1750
N16220 Y31.0314 F48
N16230 G02 X27.8656 Y31.0314 I0.0000 J0.2560 F48.0
N16240 X27.7856 Y31.1114 I0.0000 J0.0800
N16250 (Operation: Outside Offset, Outside, T2: Plasma, 0.038 in kerf)
N16260 M05
N16270 G04 P1
N16280 G00 Z0.8000
N16290 X29.8736 Y36.5210
N16300 Z0.6900
N16310 o<touchoff> call [0.1900]  [0.5]  [0.1750] 
N16320 F3.937
N16330 G01 Z0.1750
N16340 X29.7487 Y36.5262 F48
N16350 G03 X29.4799 Y36.8064 I-0.2688 J0.0112 F48.0
N16360 G01 X26.1662 F48
N16370 G03 X25.5332 Y36.5860 I0.0000 J-1.0190 F48.0
N16380 G01 X25.1260 Y36.2632 F48
N16390 G03 X25.1260 Y35.8416 I0.1671 J-0.2108 F48.0
N16400 G01 X25.5332 Y35.5188 F48
N16410 G03 X26.1662 Y35.2984 I0.6329 J0.7986 F48.0
N16420 G01 X26.7216 F48
N16430 Y0.7874
N16440 G03 X26.7406 Y0.7684 I0.0190 J0.0000 F48.0
N16450 G01 X28.0008 F48
N16460 G03 X28.2695 Y1.0262 I0.0000 J0.2690 F48.0
N16470 G01 X29.7487 Y36.5262 F48
N16480 G02 X29.8319 Y36.6028 I0.0799 J-0.0033 F48.0
N16490 M05
N16500 G04 P1
N16510 G00 Z0.8000
N16520 X18.9508 Y36.5210
N16530 Z0.6900
N16540 o<touchoff> call [0.1900]  [0.5]  [0.1750] 
N16550 F3.937
N16560 G01 Z0.1750
N16570 X19.0757 Y36.5262 F48
N16580 X20.5549 Y1.0262
N16590 G03 X20.8237 Y0.7684 I0.2688 J0.0112 F48.0
N16600 G01 X22.0839 F48
N16610 G03 X22.1029 Y0.7874 I0.0000 J0.0190 F48.0
N16620 G01 Y36.7874 F48
N16630 G03 X22.0839 Y36.8064 I-0.0190 J0.0000 F48.0
N16640 G01 X19.3445 F48
N16650 G03 X19.0757 Y36.5262 I0.0000 J-0.2690 F48.0
N16660 (Part: trucks)
N16670 G02 X18.9991 Y36.4429 I-0.0799 J-0.0033
N16680 (Operation: Inside Offset, 0, T2: Plasma, 0.038 in kerf)
N16690 M05
N16700 G04 P1
N16710 G00 Z0.8000
N16720 X11.1367 Y4.4315
N16730 Z0.6900
N16740 o<touchoff> call [0.1900]  [0.5]  [0.1750] 
N16750 F3.937
N16760 G01 Z0.1750
N16770 Y4.3065 F48
N16780 G03 X11.1367 Y4.6335 I0.0000 J0.1635 F48.0
N16790 G01 X10.6599 F48
N16800 G03 X10.6599 Y4.3065 I0.0000 J-0.1635 F48.0
N16810 G01 X11.1367 F48
N16820 G03 X11.2167 Y4.3865 I0.0000 J0.0800 F48.0
N16830 M05
N16840 G04 P1
N16850 G00 Z0.8000
N16860 X10.6599 Y5.1383
N16870 Z0.6900
N16880 o<touchoff> call [0.1900]  [0.5]  [0.1750] 
N16890 F3.937
N16900 G01 Z0.1750
N16910 Y5.2633 F48
N16920 G03 X10.6599 Y4.9363 I0.0000 J-0.1635 F48.0
N16930 G01 X11.1367 F48
N16940 G03 X11.1367 Y5.2633 I0.0000 J0.1635 F48.0
N16950 G01 X10.6599 F48
N16960 G03 X10.5799 Y5.1833 I0.0000 J-0.0800 F48.0
N16970 M05
N16980 G04 P1
N16990 G00 Z0.8000
N17000 X10.2658 Y5.9852
N17010 Z0.6900
N17020 o<touchoff> call [0.1900]  [0.5]  [0.1750] 
N17030 F3.937
N17040 G01 Z0.1750
N17050 Y5.8602 F48
N17060 G03 X10.2658 Y5.8602 I0.0000 J0.1810 F48.0
N17070 X10.3458 Y5.9402 I0.0000 J0.0800
N17080 M05
N17090 G04 P1
N17100 G00 Z0.8000
N17110 X11.0699 Y6.6772
N17120 Z0.6900
N17130 o<touchoff> call [0.1900]  [0.5]  [0.1750] 
N17140 F3.937
N17150 G01 Z0.1750
N17160 X11.1074 Y6.5579 F48
N17170 G03 X11.1817 Y6.7002 I-0.0341 J0.1083 F48.0
N17180 G02 X11.1817 Y7.3821 I1.0842 J0.3409
N17190 G03 X10.9651 Y7.4502 I-0.1083 J0.0340
N17200 X10.9651 Y6.6321 I1.3007 J-0.4090
N17210 X11.1074 Y6.5579 I0.1083 J0.0340
N17220 X11.1392 Y6.6665 I-0.0384 J0.0702
N17230 M05
N17240 G04 P1
N17250 G00 Z0.8000
N17260 X14.2212 Y4.1404
N17270 Z0.6900
N17280 o<touchoff> call [0.1900]  [0.5]  [0.1750] 
N17290 F3.937
N17300 G01 Z0.1750
N17310 X14.2690 Y4.2559 F48
N17320 X14.2259
N17330 G02 X14.0831 Y4.1309 I-0.1427 J0.0190 F48.0
N17340 G01 X10.4781 F48
N17350 G02 X10.3341 Y4.2749 I0.0000 J0.1440 F48.0
N17360 G01 Y5.2949 F48
N17370 G02 X10.4781 Y5.4389 I0.1440 J0.0000 F48.0
N17380 G01 X11.3379 F48
N17390 G02 X11.4819 Y5.2949 I0.0000 J-0.1440 F48.0
N17400 G01 Y5.0249 F48
N17410 G03 X11.5879 Y4.9189 I0.1060 J0.0000 F48.0
N17420 G01 X12.9480 F48
N17430 G03 X13.0540 Y5.0249 I0.0000 J0.1060 F48.0
N17440 G01 Y5.2949 F48
N17450 G02 X13.1980 Y5.4389 I0.1440 J0.0000 F48.0
N17460 G01 X14.0831 F48
N17470 G02 X14.2259 Y5.3139 I0.0000 J-0.1440 F48.0
N17480 G01 X14.3133 F48
N17490 G03 X14.0831 Y5.5259 I-0.2302 J-0.0190 F48.0
N17500 G01 X13.1980 F48
N17510 G03 X12.9670 Y5.2949 I0.0000 J-0.2310 F48.0
N17520 G01 Y5.0249 F48
N17530 G02 X12.9480 Y5.0059 I-0.0190 J0.0000 F48.0
N17540 G01 X11.5879 F48
N17550 G02 X11.5689 Y5.0249 I0.0000 J0.0190 F48.0
N17560 G01 Y5.2949 F48
N17570 G03 X11.3379 Y5.5259 I-0.2310 J0.0000 F48.0
N17580 G01 X10.4781 F48
N17590 G03 X10.2471 Y5.2949 I0.0000 J-0.2310 F48.0
N17600 G01 Y4.2749 F48
N17610 G03 X10.4781 Y4.0439 I0.2310 J0.0000 F48.0
N17620 G01 X14.0831 F48
N17630 G03 X14.3133 Y4.2559 I0.0000 J0.2310 F48.0
N17640 G01 X14.2690 F48
N17650 G03 X14.2257 Y4.1514 I0.0306 J-0.0739 F48.0
N17660 M05
N17670 G04 P1
N17680 G00 Z0.8000
N17690 X12.2658 Y6.7902
N17700 Z0.6900
N17710 o<touchoff> call [0.1900]  [0.5]  [0.1750] 
N17720 F3.937
N17730 G01 Z0.1750
N17740 Y6.6652 F48
N17750 G03 X12.2658 Y6.6652 I0.0000 J0.3760 F48.0
N17760 X12.3458 Y6.7452 I0.0000 J0.0800
N17770 M05
N17780 G04 P1
N17790 G00 Z0.8000
N17800 X13.4684 Y7.4109
N17810 Z0.6900
N17820 o<touchoff> call [0.1900]  [0.5]  [0.1750] 
N17830 F3.937
N17840 G01 Z0.1750
N17850 X13.3576 Y7.4687 F48
N17860 G03 X13.3500 Y7.3821 I0.1006 J-0.0525 F48.0
N17870 G02 X13.3500 Y6.7002 I-1.0842 J-0.3409
N17880 G03 X13.5665 Y6.6321 I0.1083 J-0.0340
N17890 X13.5665 Y7.4502 I-1.3007 J0.4090
N17900 X13.3576 Y7.4687 I-0.1083 J-0.0340
N17910 X13.3915 Y7.3607 I0.0709 J-0.0370
N17920 M05
N17930 G04 P1
N17940 G00 Z0.8000
N17950 X14.2658 Y5.9852
N17960 Z0.6900
N17970 o<touchoff> call [0.1900]  [0.5]  [0.1750] 
N17980 F3.937
N17990 G01 Z0.1750
N18000 Y5.8602 F48
N18010 G03 X14.2658 Y5.8602 I0.0000 J0.1810 F48.0
N18020 X14.3458 Y5.9402 I0.0000 J0.0800
N18030 M05
N18040 G04 P1
N18050 G00 Z0.8000
N18060 X13.3981 Y5.1383
N18070 Z0.6900
N18080 o<touchoff> call [0.1900]  [0.5]  [0.1750] 
N18090 F3.937
N18100 G01 Z0.1750
N18110 Y5.2633 F48
N18120 G03 X13.3981 Y4.9363 I0.0000 J-0.1635 F48.0
N18130 G01 X13.8749 F48
N18140 G03 X13.8749 Y5.2633 I0.0000 J0.1635 F48.0
N18150 G01 X13.3981 F48
N18160 G03 X13.3181 Y5.1833 I0.0000 J-0.0800 F48.0
N18170 M05
N18180 G04 P1
N18190 G00 Z0.8000
N18200 X13.8749 Y4.4315
N18210 Z0.6900
N18220 o<touchoff> call [0.1900]  [0.5]  [0.1750] 
N18230 F3.937
N18240 G01 Z0.1750
N18250 Y4.3065 F48
N18260 G03 X13.8749 Y4.6335 I0.0000 J0.1635 F48.0
N18270 G01 X13.3981 F48
N18280 G03 X13.3981 Y4.3065 I0.0000 J-0.1635 F48.0
N18290 G01 X13.8749 F48
N18300 G03 X13.9549 Y4.3865 I0.0000 J0.0800 F48.0
N18310 M05
N18320 G04 P1
N18330 G00 Z0.8000
N18340 X14.2760 Y4.5665
N18350 Z0.6900
N18360 o<touchoff> call [0.1900]  [0.5]  [0.1750] 
N18370 F3.937
N18380 G01 Z0.1750
N18390 X14.2516 Y4.4439 F48
N18400 X14.3141
N18410 Y5.1259
N18420 X14.2271
N18430 Y4.4439
N18440 X14.2516
N18450 G03 X14.2737 Y4.5549 I-0.0444 J0.0665 F48.0
N18460 M05
N18470 G04 P1
N18480 G00 Z0.8000
N18490 X14.2658 Y3.4222
N18500 Z0.6900
N18510 o<touchoff> call [0.1900]  [0.5]  [0.1750] 
N18520 F3.937
N18530 G01 Z0.1750
N18540 Y3.5472 F48
N18550 G03 X14.0848 Y3.3662 I0.0000 J-0.1810 F48.0
N18560 G01 Y3.1162 F48
N18570 G03 X14.4468 Y3.1162 I0.1810 J0.0000 F48.0
N18580 G01 Y3.3662 F48
N18590 G03 X14.2658 Y3.5472 I-0.1810 J0.0000 F48.0
N18600 X14.1858 Y3.4672 I0.0000 J-0.0800
N18610 M05
N18620 G04 P1
N18630 G00 Z0.8000
N18640 X13.1908 Y3.0677
N18650 Z0.6900
N18660 o<touchoff> call [0.1900]  [0.5]  [0.1750] 
N18670 F3.937
N18680 G01 Z0.1750
N18690 Y2.9427 F48
N18700 G03 X13.3018 Y3.0537 I0.0000 J0.1110 F48.0
N18710 G01 Y3.4287 F48
N18720 G03 X13.0798 Y3.4287 I-0.1110 J0.0000 F48.0
N18730 G01 Y3.0537 F48
N18740 G03 X13.1908 Y2.9427 I0.1110 J0.0000 F48.0
N18750 X13.2537 Y3.0368 I-0.0156 J0.0785
N18760 M05
N18770 G04 P1
N18780 G00 Z0.8000
N18790 X13.1908 Y1.5647
N18800 Z0.6900
N18810 o<touchoff> call [0.1900]  [0.5]  [0.1750] 
N18820 F3.937
N18830 G01 Z0.1750
N18840 Y1.6897 F48
N18850 G03 X13.0798 Y1.5787 I0.0000 J-0.1110 F48.0
N18860 G01 Y1.2037 F48
N18870 G03 X13.3018 Y1.2037 I0.1110 J0.0000 F48.0
N18880 G01 Y1.5787 F48
N18890 G03 X13.1908 Y1.6897 I-0.1110 J0.0000 F48.0
N18900 X13.1280 Y1.5956 I0.0156 J-0.0785
N18910 M05
N18920 G04 P1
N18930 G00 Z0.8000
N18940 X12.2658 Y1.4777
N18950 Z0.6900
N18960 o<touchoff> call [0.1900]  [0.5]  [0.1750] 
N18970 F3.937
N18980 G01 Z0.1750
N18990 Y1.3527 F48
N19000 G03 X13.0418 Y2.1287 I0.0000 J0.7760 F48.0
N19010 G01 Y2.5037 F48
N19020 G03 X11.4898 Y2.5037 I-0.7760 J0.0000 F48.0
N19030 G01 Y2.1287 F48
N19040 G03 X12.2658 Y1.3527 I0.7760 J0.0000 F48.0
N19050 X12.3458 Y1.4327 I0.0000 J0.0800
N19060 M05
N19070 G04 P1
N19080 G00 Z0.8000
N19090 X11.3408 Y1.5647
N19100 Z0.6900
N19110 o<touchoff> call [0.1900]  [0.5]  [0.1750] 
N19120 F3.937
N19130 G01 Z0.1750
N19140 Y1.6897 F48
N19150 G03 X11.2298 Y1.5787 I0.0000 J-0.1110 F48.0
N19160 G01 Y1.2037 F48
N19170 G03 X11.4518 Y1.2037 I0.1110 J0.0000 F48.0
N19180 G01 Y1.5787 F48
N19190 G03 X11.3408 Y1.6897 I-0.1110 J0.0000 F48.0
N19200 X11.2780 Y1.5956 I0.0156 J-0.0785
N19210 M05
N19220 G04 P1
N19230 G00 Z0.8000
N19240 X11.3408 Y3.0677
N19250 Z0.6900
N19260 o<touchoff> call [0.1900]  [0.5]  [0.1750] 
N19270 F3.937
N19280 G01 Z0.1750
N19290 Y2.9427 F48
N19300 G03 X11.4518 Y3.0537 I0.0000 J0.1110 F48.0
N19310 G01 Y3.4287 F48
N19320 G03 X11.2298 Y3.4287 I-0.1110 J0.0000 F48.0
N19330 G01 Y3.0537 F48
N19340 G03 X11.3408 Y2.9427 I0.1110 J0.0000 F48.0
N19350 X11.4037 Y3.0368 I-0.0156 J0.0785
N19360 M05
N19370 G04 P1
N19380 G00 Z0.8000
N19390 X10.2658 Y3.4222
N19400 Z0.6900
N19410 o<touchoff> call [0.1900]  [0.5]  [0.1750] 
N19420 F3.937
N19430 G01 Z0.1750
N19440 Y3.5472 F48
N19450 G03 X10.0848 Y3.3662 I0.0000 J-0.1810 F48.0
N19460 G01 Y3.1162 F48
N19470 G03 X10.4468 Y3.1162 I0.1810 J0.0000 F48.0
N19480 G01 Y3.3662 F48
N19490 G03 X10.2658 Y3.5472 I-0.1810 J0.0000 F48.0
N19500 X10.1858 Y3.4672 I0.0000 J-0.0800
N19510 (Operation: Outside Offset, Outside, T2: Plasma, 0.038 in kerf)
N19520 M05
N19530 G04 P1
N19540 G00 Z0.8000
N19550 X9.3048 Y7.4203
N19560 Z0.6900
N19570 o<touchoff> call [0.1900]  [0.5]  [0.1750] 
N19580 F3.937
N19590 G01 Z0.1750
N19600 X9.4298 F48
N19610 G02 X9.9488 Y7.9393 I0.5190 J0.0000 F48.0
N19620 G01 X14.5828 F48
N19630 G02 X15.1018 Y7.4203 I0.0000 J-0.5190 F48.0
N19640 G01 Y3.4705 F48
N19650 G02 X14.9887 Y3.1471 I-0.5190 J0.0000 F48.0
N19660 G01 X14.4755 Y2.5029 F48
N19670 G03 X14.3707 Y2.2032 I0.3762 J-0.2997 F48.0
N19680 G01 Y1.8406 F48
N19690 G02 X13.1017 Y0.5716 I-1.2690 J0.0000 F48.0
N19700 G01 X11.4299 F48
N19710 G02 X10.1609 Y1.8406 I0.0000 J1.2690 F48.0
N19720 G01 Y2.2032 F48
N19730 G03 X10.0561 Y2.5029 I-0.4810 J0.0000 F48.0
N19740 G01 X9.5429 Y3.1471 F48
N19750 G02 X9.4298 Y3.4705 I0.4059 J0.3234 F48.0
N19760 G01 Y7.4203 F48
N19770 (Part: trucks Duplicate 1)
N19780 G03 X9.3498 Y7.5003 I-0.0800 J0.0000 F48.0
N19790 (Operation: Inside Offset, 0, T2: Plasma, 0.038 in kerf)
N19800 M05
N19810 G04 P1
N19820 G00 Z0.8000
N19830 X11.3335 Y12.3055
N19840 Z0.6900
N19850 o<touchoff> call [0.1900]  [0.5]  [0.1750] 
N19860 F3.937
N19870 G01 Z0.1750
N19880 Y12.1805 F48
N19890 G03 X11.3335 Y12.5075 I0.0000 J0.1635 F48.0
N19900 G01 X10.8568 F48
N19910 G03 X10.8568 Y12.1805 I0.0000 J-0.1635 F48.0
N19920 G01 X11.3335 F48
N19930 G03 X11.4135 Y12.2605 I0.0000 J0.0800 F48.0
N19940 M05
N19950 G04 P1
N19960 G00 Z0.8000
N19970 X10.8568 Y13.0123
N19980 Z0.6900
N19990 o<touchoff> call [0.1900]  [0.5]  [0.1750] 
N20000 F3.937
N20010 G01 Z0.1750
N20020 Y13.1373 F48
N20030 G03 X10.8568 Y12.8103 I0.0000 J-0.1635 F48.0
N20040 G01 X11.3335 F48
N20050 G03 X11.3335 Y13.1373 I0.0000 J0.1635 F48.0
N20060 G01 X10.8568 F48
N20070 G03 X10.7768 Y13.0573 I0.0000 J-0.0800 F48.0
N20080 M05
N20090 G04 P1
N20100 G00 Z0.8000
N20110 X10.4627 Y13.8592
N20120 Z0.6900
N20130 o<touchoff> call [0.1900]  [0.5]  [0.1750] 
N20140 F3.937
N20150 G01 Z0.1750
N20160 Y13.7342 F48
N20170 G03 X10.4627 Y13.7342 I0.0000 J0.1810 F48.0
N20180 X10.5427 Y13.8142 I0.0000 J0.0800
N20190 M05
N20200 G04 P1
N20210 G00 Z0.8000
N20220 X11.2668 Y14.5512
N20230 Z0.6900
N20240 o<touchoff> call [0.1900]  [0.5]  [0.1750] 
N20250 F3.937
N20260 G01 Z0.1750
N20270 X11.3043 Y14.4319 F48
N20280 G03 X11.3785 Y14.5742 I-0.0341 J0.1083 F48.0
N20290 G02 X11.3785 Y15.2561 I1.0842 J0.3409
N20300 G03 X11.1620 Y15.3242 I-0.1083 J0.0340
N20310 X11.1620 Y14.5061 I1.3007 J-0.4090
N20320 X11.3043 Y14.4319 I0.1083 J0.0340
N20330 X11.3360 Y14.5405 I-0.0384 J0.0702
N20340 M05
N20350 G04 P1
N20360 G00 Z0.8000
N20370 X14.4181 Y12.0145
N20380 Z0.6900
N20390 o<touchoff> call [0.1900]  [0.5]  [0.1750] 
N20400 F3.937
N20410 G01 Z0.1750
N20420 X14.4659 Y12.1299 F48
N20430 X14.4227
N20440 G02 X14.2800 Y12.0049 I-0.1427 J0.0190 F48.0
N20450 G01 X10.6750 F48
N20460 G02 X10.5310 Y12.1489 I0.0000 J0.1440 F48.0
N20470 G01 Y13.1689 F48
N20480 G02 X10.6750 Y13.3129 I0.1440 J0.0000 F48.0
N20490 G01 X11.5348 F48
N20500 G02 X11.6788 Y13.1689 I0.0000 J-0.1440 F48.0
N20510 G01 Y12.8989 F48
N20520 G03 X11.7848 Y12.7929 I0.1060 J0.0000 F48.0
N20530 G01 X13.1449 F48
N20540 G03 X13.2509 Y12.8989 I0.0000 J0.1060 F48.0
N20550 G01 Y13.1689 F48
N20560 G02 X13.3949 Y13.3129 I0.1440 J0.0000 F48.0
N20570 G01 X14.2800 F48
N20580 G02 X14.4227 Y13.1879 I0.0000 J-0.1440 F48.0
N20590 G01 X14.5102 F48
N20600 G03 X14.2800 Y13.3999 I-0.2302 J-0.0190 F48.0
N20610 G01 X13.3949 F48
N20620 G03 X13.1639 Y13.1689 I0.0000 J-0.2310 F48.0
N20630 G01 Y12.8989 F48
N20640 G02 X13.1449 Y12.8799 I-0.0190 J0.0000 F48.0
N20650 G01 X11.7848 F48
N20660 G02 X11.7658 Y12.8989 I0.0000 J0.0190 F48.0
N20670 G01 Y13.1689 F48
N20680 G03 X11.5348 Y13.3999 I-0.2310 J0.0000 F48.0
N20690 G01 X10.6750 F48
N20700 G03 X10.4440 Y13.1689 I0.0000 J-0.2310 F48.0
N20710 G01 Y12.1489 F48
N20720 G03 X10.6750 Y11.9179 I0.2310 J0.0000 F48.0
N20730 G01 X14.2800 F48
N20740 G03 X14.5102 Y12.1299 I0.0000 J0.2310 F48.0
N20750 G01 X14.4659 F48
N20760 G03 X14.4226 Y12.0254 I0.0306 J-0.0739 F48.0
N20770 M05
N20780 G04 P1
N20790 G00 Z0.8000
N20800 X12.4627 Y14.6642
N20810 Z0.6900
N20820 o<touchoff> call [0.1900]  [0.5]  [0.1750] 
N20830 F3.937
N20840 G01 Z0.1750
N20850 Y14.5392 F48
N20860 G03 X12.4627 Y14.5392 I0.0000 J0.3760 F48.0
N20870 X12.5427 Y14.6192 I0.0000 J0.0800
N20880 M05
N20890 G04 P1
N20900 G00 Z0.8000
N20910 X13.6653 Y15.2849
N20920 Z0.6900
N20930 o<touchoff> call [0.1900]  [0.5]  [0.1750] 
N20940 F3.937
N20950 G01 Z0.1750
N20960 X13.5545 Y15.3427 F48
N20970 G03 X13.5468 Y15.2561 I0.1006 J-0.0525 F48.0
N20980 G02 X13.5468 Y14.5742 I-1.0842 J-0.3409
N20990 G03 X13.7634 Y14.5061 I0.1083 J-0.0340
N21000 X13.7634 Y15.3242 I-1.3007 J0.4090
N21010 X13.5545 Y15.3427 I-0.1083 J-0.0340
N21020 X13.5884 Y15.2348 I0.0709 J-0.0370
N21030 M05
N21040 G04 P1
N21050 G00 Z0.8000
N21060 X14.4627 Y13.8592
N21070 Z0.6900
N21080 o<touchoff> call [0.1900]  [0.5]  [0.1750] 
N21090 F3.937
N21100 G01 Z0.1750
N21110 Y13.7342 F48
N21120 G03 X14.4627 Y13.7342 I0.0000 J0.1810 F48.0
N21130 X14.5427 Y13.8142 I0.0000 J0.0800
N21140 M05
N21150 G04 P1
N21160 G00 Z0.8000
N21170 X13.5950 Y13.0123
N21180 Z0.6900
N21190 o<touchoff> call [0.1900]  [0.5]  [0.1750] 
N21200 F3.937
N21210 G01 Z0.1750
N21220 Y13.1373 F48
N21230 G03 X13.5950 Y12.8103 I0.0000 J-0.1635 F48.0
N21240 G01 X14.0717 F48
N21250 G03 X14.0717 Y13.1373 I0.0000 J0.1635 F48.0
N21260 G01 X13.5950 F48
N21270 G03 X13.5150 Y13.0573 I0.0000 J-0.0800 F48.0
N21280 M05
N21290 G04 P1
N21300 G00 Z0.8000
N21310 X14.0717 Y12.3055
N21320 Z0.6900
N21330 o<touchoff> call [0.1900]  [0.5]  [0.1750] 
N21340 F3.937
N21350 G01 Z0.1750
N21360 Y12.1805 F48
N21370 G03 X14.0717 Y12.5075 I0.0000 J0.1635 F48.0
N21380 G01 X13.5950 F48
N21390 G03 X13.5950 Y12.1805 I0.0000 J-0.1635 F48.0
N21400 G01 X14.0717 F48
N21410 G03 X14.1517 Y12.2605 I0.0000 J0.0800 F48.0
N21420 M05
N21430 G04 P1
N21440 G00 Z0.8000
N21450 X14.4729 Y12.4405
N21460 Z0.6900
N21470 o<touchoff> call [0.1900]  [0.5]  [0.1750] 
N21480 F3.937
N21490 G01 Z0.1750
N21500 X14.4485 Y12.3179 F48
N21510 X14.5110
N21520 Y12.9999
N21530 X14.4240
N21540 Y12.3179
N21550 X14.4485
N21560 G03 X14.4706 Y12.4289 I-0.0444 J0.0665 F48.0
N21570 M05
N21580 G04 P1
N21590 G00 Z0.8000
N21600 X14.4627 Y11.2962
N21610 Z0.6900
N21620 o<touchoff> call [0.1900]  [0.5]  [0.1750] 
N21630 F3.937
N21640 G01 Z0.1750
N21650 Y11.4212 F48
N21660 G03 X14.2817 Y11.2402 I0.0000 J-0.1810 F48.0
N21670 G01 Y10.9902 F48
N21680 G03 X14.6437 Y10.9902 I0.1810 J0.0000 F48.0
N21690 G01 Y11.2402 F48
N21700 G03 X14.4627 Y11.4212 I-0.1810 J0.0000 F48.0
N21710 X14.3827 Y11.3412 I0.0000 J-0.0800
N21720 M05
N21730 G04 P1
N21740 G00 Z0.8000
N21750 X13.3877 Y10.9417
N21760 Z0.6900
N21770 o<touchoff> call [0.1900]  [0.5]  [0.1750] 
N21780 F3.937
N21790 G01 Z0.1750
N21800 Y10.8167 F48
N21810 G03 X13.4987 Y10.9277 I0.0000 J0.1110 F48.0
N21820 G01 Y11.3027 F48
N21830 G03 X13.2767 Y11.3027 I-0.1110 J0.0000 F48.0
N21840 G01 Y10.9277 F48
N21850 G03 X13.3877 Y10.8167 I0.1110 J0.0000 F48.0
N21860 X13.4505 Y10.9108 I-0.0156 J0.0785
N21870 M05
N21880 G04 P1
N21890 G00 Z0.8000
N21900 X13.3877 Y9.4387
N21910 Z0.6900
N21920 o<touchoff> call [0.1900]  [0.5]  [0.1750] 
N21930 F3.937
N21940 G01 Z0.1750
N21950 Y9.5637 F48
N21960 G03 X13.2767 Y9.4527 I0.0000 J-0.1110 F48.0
N21970 G01 Y9.0777 F48
N21980 G03 X13.4987 Y9.0777 I0.1110 J0.0000 F48.0
N21990 G01 Y9.4527 F48
N22000 G03 X13.3877 Y9.5637 I-0.1110 J0.0000 F48.0
N22010 X13.3248 Y9.4696 I0.0156 J-0.0785
N22020 M05
N22030 G04 P1
N22040 G00 Z0.8000
N22050 X12.4627 Y9.3517
N22060 Z0.6900
N22070 o<touchoff> call [0.1900]  [0.5]  [0.1750] 
N22080 F3.937
N22090 G01 Z0.1750
N22100 Y9.2267 F48
N22110 G03 X13.2387 Y10.0027 I0.0000 J0.7760 F48.0
N22120 G01 Y10.3777 F48
N22130 G03 X11.6867 Y10.3777 I-0.7760 J0.0000 F48.0
N22140 G01 Y10.0027 F48
N22150 G03 X12.4627 Y9.2267 I0.7760 J0.0000 F48.0
N22160 X12.5427 Y9.3067 I0.0000 J0.0800
N22170 M05
N22180 G04 P1
N22190 G00 Z0.8000
N22200 X11.5377 Y9.4387
N22210 Z0.6900
N22220 o<touchoff> call [0.1900]  [0.5]  [0.1750] 
N22230 F3.937
N22240 G01 Z0.1750
N22250 Y9.5637 F48
N22260 G03 X11.4267 Y9.4527 I0.0000 J-0.1110 F48.0
N22270 G01 Y9.0777 F48
N22280 G03 X11.6487 Y9.0777 I0.1110 J0.0000 F48.0
N22290 G01 Y9.4527 F48
N22300 G03 X11.5377 Y9.5637 I-0.1110 J0.0000 F48.0
N22310 X11.4748 Y9.4696 I0.0156 J-0.0785
N22320 M05
N22330 G04 P1
N22340 G00 Z0.8000
N22350 X11.5377 Y10.9417
N22360 Z0.6900
N22370 o<touchoff> call [0.1900]  [0.5]  [0.1750] 
N22380 F3.937
N22390 G01 Z0.1750
N22400 Y10.8167 F48
N22410 G03 X11.6487 Y10.9277 I0.0000 J0.1110 F48.0
N22420 G01 Y11.3027 F48
N22430 G03 X11.4267 Y11.3027 I-0.1110 J0.0000 F48.0
N22440 G01 Y10.9277 F48
N22450 G03 X11.5377 Y10.8167 I0.1110 J0.0000 F48.0
N22460 X11.6005 Y10.9108 I-0.0156 J0.0785
N22470 M05
N22480 G04 P1
N22490 G00 Z0.8000
N22500 X10.4627 Y11.2962
N22510 Z0.6900
N22520 o<touchoff> call [0.1900]  [0.5]  [0.1750] 
N22530 F3.937
N22540 G01 Z0.1750
N22550 Y11.4212 F48
N22560 G03 X10.2817 Y11.2402 I0.0000 J-0.1810 F48.0
N22570 G01 Y10.9902 F48
N22580 G03 X10.6437 Y10.9902 I0.1810 J0.0000 F48.0
N22590 G01 Y11.2402 F48
N22600 G03 X10.4627 Y11.4212 I-0.1810 J0.0000 F48.0
N22610 X10.3827 Y11.3412 I0.0000 J-0.0800
N22620 (Operation: Outside Offset, Outside, T2: Plasma, 0.038 in kerf)
N22630 M05
N22640 G04 P1
N22650 G00 Z0.8000
N22660 X9.5017 Y15.2943
N22670 Z0.6900
N22680 o<touchoff> call [0.1900]  [0.5]  [0.1750] 
N22690 F3.937
N22700 G01 Z0.1750
N22710 X9.6267 F48
N22720 G02 X10.1457 Y15.8133 I0.5190 J0.0000 F48.0
N22730 G01 X14.7797 F48
N22740 G02 X15.2987 Y15.2943 I0.0000 J-0.5190 F48.0
N22750 G01 Y11.3445 F48
N22760 G02 X15.1856 Y11.0211 I-0.5190 J0.0000 F48.0
N22770 G01 X14.6724 Y10.3769 F48
N22780 G03 X14.5676 Y10.0772 I0.3762 J-0.2997 F48.0
N22790 G01 Y9.7146 F48
N22800 G02 X13.2986 Y8.4456 I-1.2690 J0.0000 F48.0
N22810 G01 X11.6268 F48
N22820 G02 X10.3578 Y9.7146 I0.0000 J1.2690 F48.0
N22830 G01 Y10.0772 F48
N22840 G03 X10.2530 Y10.3769 I-0.4810 J0.0000 F48.0
N22850 G01 X9.7398 Y11.0211 F48
N22860 G02 X9.6267 Y11.3445 I0.4059 J0.3234 F48.0
N22870 G01 Y15.2943 F48
N22880 (Part: trucks Duplicate 2)
N22890 G03 X9.5467 Y15.3743 I-0.0800 J0.0000 F48.0
N22900 (Operation: Inside Offset, 0, T2: Plasma, 0.038 in kerf)
N22910 M05
N22920 G04 P1
N22930 G00 Z0.8000
N22940 X11.7273 Y20.1796
N22950 Z0.6900
N22960 o<touchoff> call [0.1900]  [0.5]  [0.1750] 
N22970 F3.937
N22980 G01 Z0.1750
N22990 Y20.0546 F48
N23000 G03 X11.7273 Y20.3816 I0.0000 J0.1635 F48.0
N23010 G01 X11.2505 F48
N23020 G03 X11.2505 Y20.0546 I0.0000 J-0.1635 F48.0
N23030 G01 X11.7273 F48
N23040 G03 X11.8073 Y20.1346 I0.0000 J0.0800 F48.0
N23050 M05
N23060 G04 P1
N23070 G00 Z0.8000
N23080 X11.2505 Y20.8864
N23090 Z0.6900
N23100 o<touchoff> call [0.1900]  [0.5]  [0.1750] 
N23110 F3.937
N23120 G01 Z0.1750
N23130 Y21.0114 F48
N23140 G03 X11.2505 Y20.6844 I0.0000 J-0.1635 F48.0
N23150 G01 X11.7273 F48
N23160 G03 X11.7273 Y21.0114 I0.0000 J0.1635 F48.0
N23170 G01 X11.2505 F48
N23180 G03 X11.1705 Y20.9314 I0.0000 J-0.0800 F48.0
N23190 M05
N23200 G04 P1
N23210 G00 Z0.8000
N23220 X10.8564 Y21.7332
N23230 Z0.6900
N23240 o<touchoff> call [0.1900]  [0.5]  [0.1750] 
N23250 F3.937
N23260 G01 Z0.1750
N23270 Y21.6082 F48
N23280 G03 X10.8564 Y21.6082 I0.0000 J0.1810 F48.0
N23290 X10.9364 Y21.6882 I0.0000 J0.0800
N23300 M05
N23310 G04 P1
N23320 G00 Z0.8000
N23330 X11.6605 Y22.4252
N23340 Z0.6900
N23350 o<touchoff> call [0.1900]  [0.5]  [0.1750] 
N23360 F3.937
N23370 G01 Z0.1750
N23380 X11.6980 Y22.3059 F48
N23390 G03 X11.7722 Y22.4483 I-0.0341 J0.1083 F48.0
N23400 G02 X11.7722 Y23.1302 I1.0842 J0.3409
N23410 G03 X11.5557 Y23.1983 I-0.1083 J0.0340
N23420 X11.5557 Y22.3802 I1.3007 J-0.4090
N23430 X11.6980 Y22.3059 I0.1083 J0.0340
N23440 X11.7297 Y22.4145 I-0.0384 J0.0702
N23450 M05
N23460 G04 P1
N23470 G00 Z0.8000
N23480 X14.8118 Y19.8885
N23490 Z0.6900
N23500 o<touchoff> call [0.1900]  [0.5]  [0.1750] 
N23510 F3.937
N23520 G01 Z0.1750
N23530 X14.8596 Y20.0040 F48
N23540 X14.8164
N23550 G02 X14.6737 Y19.8790 I-0.1427 J0.0190 F48.0
N23560 G01 X11.0687 F48
N23570 G02 X10.9247 Y20.0230 I0.0000 J0.1440 F48.0
N23580 G01 Y21.0430 F48
N23590 G02 X11.0687 Y21.1870 I0.1440 J0.0000 F48.0
N23600 G01 X11.9285 F48
N23610 G02 X12.0725 Y21.0430 I0.0000 J-0.1440 F48.0
N23620 G01 Y20.7730 F48
N23630 G03 X12.1785 Y20.6670 I0.1060 J0.0000 F48.0
N23640 G01 X13.5386 F48
N23650 G03 X13.6446 Y20.7730 I0.0000 J0.1060 F48.0
N23660 G01 Y21.0430 F48
N23670 G02 X13.7886 Y21.1870 I0.1440 J0.0000 F48.0
N23680 G01 X14.6737 F48
N23690 G02 X14.8164 Y21.0620 I0.0000 J-0.1440 F48.0
N23700 G01 X14.9039 F48
N23710 G03 X14.6737 Y21.2740 I-0.2302 J-0.0190 F48.0
N23720 G01 X13.7886 F48
N23730 G03 X13.5576 Y21.0430 I0.0000 J-0.2310 F48.0
N23740 G01 Y20.7730 F48
N23750 G02 X13.5386 Y20.7540 I-0.0190 J0.0000 F48.0
N23760 G01 X12.1785 F48
N23770 G02 X12.1595 Y20.7730 I0.0000 J0.0190 F48.0
N23780 G01 Y21.0430 F48
N23790 G03 X11.9285 Y21.2740 I-0.2310 J0.0000 F48.0
N23800 G01 X11.0687 F48
N23810 G03 X10.8377 Y21.0430 I0.0000 J-0.2310 F48.0
N23820 G01 Y20.0230 F48
N23830 G03 X11.0687 Y19.7920 I0.2310 J0.0000 F48.0
N23840 G01 X14.6737 F48
N23850 G03 X14.9039 Y20.0040 I0.0000 J0.2310 F48.0
N23860 G01 X14.8596 F48
N23870 G03 X14.8163 Y19.8994 I0.0306 J-0.0739 F48.0
N23880 M05
N23890 G04 P1
N23900 G00 Z0.8000
N23910 X12.8564 Y22.5382
N23920 Z0.6900
N23930 o<touchoff> call [0.1900]  [0.5]  [0.1750] 
N23940 F3.937
N23950 G01 Z0.1750
N23960 Y22.4132 F48
N23970 G03 X12.8564 Y22.4132 I0.0000 J0.3760 F48.0
N23980 X12.9364 Y22.4932 I0.0000 J0.0800
N23990 M05
N24000 G04 P1
N24010 G00 Z0.8000
N24020 X14.0590 Y23.1589
N24030 Z0.6900
N24040 o<touchoff> call [0.1900]  [0.5]  [0.1750] 
N24050 F3.937
N24060 G01 Z0.1750
N24070 X13.9482 Y23.2167 F48
N24080 G03 X13.9405 Y23.1302 I0.1006 J-0.0525 F48.0
N24090 G02 X13.9405 Y22.4483 I-1.0842 J-0.3409
N24100 G03 X14.1571 Y22.3802 I0.1083 J-0.0340
N24110 X14.1571 Y23.1983 I-1.3007 J0.4090
N24120 X13.9482 Y23.2167 I-0.1083 J-0.0340
N24130 X13.9821 Y23.1088 I0.0709 J-0.0370
N24140 M05
N24150 G04 P1
N24160 G00 Z0.8000
N24170 X14.8564 Y21.7332
N24180 Z0.6900
N24190 o<touchoff> call [0.1900]  [0.5]  [0.1750] 
N24200 F3.937
N24210 G01 Z0.1750
N24220 Y21.6082 F48
N24230 G03 X14.8564 Y21.6082 I0.0000 J0.1810 F48.0
N24240 X14.9364 Y21.6882 I0.0000 J0.0800
N24250 M05
N24260 G04 P1
N24270 G00 Z0.8000
N24280 X13.9887 Y20.8864
N24290 Z0.6900
N24300 o<touchoff> call [0.1900]  [0.5]  [0.1750] 
N24310 F3.937
N24320 G01 Z0.1750
N24330 Y21.0114 F48
N24340 G03 X13.9887 Y20.6844 I0.0000 J-0.1635 F48.0
N24350 G01 X14.4654 F48
N24360 G03 X14.4654 Y21.0114 I0.0000 J0.1635 F48.0
N24370 G01 X13.9887 F48
N24380 G03 X13.9087 Y20.9314 I0.0000 J-0.0800 F48.0
N24390 M05
N24400 G04 P1
N24410 G00 Z0.8000
N24420 X14.4654 Y20.1796
N24430 Z0.6900
N24440 o<touchoff> call [0.1900]  [0.5]  [0.1750] 
N24450 F3.937
N24460 G01 Z0.1750
N24470 Y20.0546 F48
N24480 G03 X14.4654 Y20.3816 I0.0000 J0.1635 F48.0
N24490 G01 X13.9887 F48
N24500 G03 X13.9887 Y20.0546 I0.0000 J-0.1635 F48.0
N24510 G01 X14.4654 F48
N24520 G03 X14.5454 Y20.1346 I0.0000 J0.0800 F48.0
N24530 M05
N24540 G04 P1
N24550 G00 Z0.8000
N24560 X14.8666 Y20.3146
N24570 Z0.6900
N24580 o<touchoff> call [0.1900]  [0.5]  [0.1750] 
N24590 F3.937
N24600 G01 Z0.1750
N24610 X14.8422 Y20.1920 F48
N24620 X14.9047
N24630 Y20.8740
N24640 X14.8177
N24650 Y20.1920
N24660 X14.8422
N24670 G03 X14.8643 Y20.3029 I-0.0444 J0.0665 F48.0
N24680 M05
N24690 G04 P1
N24700 G00 Z0.8000
N24710 X14.8564 Y19.1702
N24720 Z0.6900
N24730 o<touchoff> call [0.1900]  [0.5]  [0.1750] 
N24740 F3.937
N24750 G01 Z0.1750
N24760 Y19.2952 F48
N24770 G03 X14.6754 Y19.1142 I0.0000 J-0.1810 F48.0
N24780 G01 Y18.8642 F48
N24790 G03 X15.0374 Y18.8642 I0.1810 J0.0000 F48.0
N24800 G01 Y19.1142 F48
N24810 G03 X14.8564 Y19.2952 I-0.1810 J0.0000 F48.0
N24820 X14.7764 Y19.2152 I0.0000 J-0.0800
N24830 M05
N24840 G04 P1
N24850 G00 Z0.8000
N24860 X13.7814 Y18.8157
N24870 Z0.6900
N24880 o<touchoff> call [0.1900]  [0.5]  [0.1750] 
N24890 F3.937
N24900 G01 Z0.1750
N24910 Y18.6907 F48
N24920 G03 X13.8924 Y18.8017 I0.0000 J0.1110 F48.0
N24930 G01 Y19.1767 F48
N24940 G03 X13.6704 Y19.1767 I-0.1110 J0.0000 F48.0
N24950 G01 Y18.8017 F48
N24960 G03 X13.7814 Y18.6907 I0.1110 J0.0000 F48.0
N24970 X13.8442 Y18.7848 I-0.0156 J0.0785
N24980 M05
N24990 G04 P1
N25000 G00 Z0.8000
N25010 X13.7814 Y17.3127
N25020 Z0.6900
N25030 o<touchoff> call [0.1900]  [0.5]  [0.1750] 
N25040 F3.937
N25050 G01 Z0.1750
N25060 Y17.4377 F48
N25070 G03 X13.6704 Y17.3267 I0.0000 J-0.1110 F48.0
N25080 G01 Y16.9517 F48
N25090 G03 X13.8924 Y16.9517 I0.1110 J0.0000 F48.0
N25100 G01 Y17.3267 F48
N25110 G03 X13.7814 Y17.4377 I-0.1110 J0.0000 F48.0
N25120 X13.7185 Y17.3436 I0.0156 J-0.0785
N25130 M05
N25140 G04 P1
N25150 G00 Z0.8000
N25160 X12.8564 Y17.2257
N25170 Z0.6900
N25180 o<touchoff> call [0.1900]  [0.5]  [0.1750] 
N25190 F3.937
N25200 G01 Z0.1750
N25210 Y17.1007 F48
N25220 G03 X13.6324 Y17.8767 I0.0000 J0.7760 F48.0
N25230 G01 Y18.2517 F48
N25240 G03 X12.0804 Y18.2517 I-0.7760 J0.0000 F48.0
N25250 G01 Y17.8767 F48
N25260 G03 X12.8564 Y17.1007 I0.7760 J0.0000 F48.0
N25270 X12.9364 Y17.1807 I0.0000 J0.0800
N25280 M05
N25290 G04 P1
N25300 G00 Z0.8000
N25310 X11.9314 Y17.3127
N25320 Z0.6900
N25330 o<touchoff> call [0.1900]  [0.5]  [0.1750] 
N25340 F3.937
N25350 G01 Z0.1750
N25360 Y17.4377 F48
N25370 G03 X11.8204 Y17.3267 I0.0000 J-0.1110 F48.0
N25380 G01 Y16.9517 F48
N25390 G03 X12.0424 Y16.9517 I0.1110 J0.0000 F48.0
N25400 G01 Y17.3267 F48
N25410 G03 X11.9314 Y17.4377 I-0.1110 J0.0000 F48.0
N25420 X11.8685 Y17.3436 I0.0156 J-0.0785
N25430 M05
N25440 G04 P1
N25450 G00 Z0.8000
N25460 X11.9314 Y18.8157
N25470 Z0.6900
N25480 o<touchoff> call [0.1900]  [0.5]  [0.1750] 
N25490 F3.937
N25500 G01 Z0.1750
N25510 Y18.6907 F48
N25520 G03 X12.0424 Y18.8017 I0.0000 J0.1110 F48.0
N25530 G01 Y19.1767 F48
N25540 G03 X11.8204 Y19.1767 I-0.1110 J0.0000 F48.0
N25550 G01 Y18.8017 F48
N25560 G03 X11.9314 Y18.6907 I0.1110 J0.0000 F48.0
N25570 X11.9942 Y18.7848 I-0.0156 J0.0785
N25580 M05
N25590 G04 P1
N25600 G00 Z0.8000
N25610 X10.8564 Y19.1702
N25620 Z0.6900
N25630 o<touchoff> call [0.1900]  [0.5]  [0.1750] 
N25640 F3.937
N25650 G01 Z0.1750
N25660 Y19.2952 F48
N25670 G03 X10.6754 Y19.1142 I0.0000 J-0.1810 F48.0
N25680 G01 Y18.8642 F48
N25690 G03 X11.0374 Y18.8642 I0.1810 J0.0000 F48.0
N25700 G01 Y19.1142 F48
N25710 G03 X10.8564 Y19.2952 I-0.1810 J0.0000 F48.0
N25720 X10.7764 Y19.2152 I0.0000 J-0.0800
N25730 (Operation: Outside Offset, Outside, T2: Plasma, 0.038 in kerf)
N25740 M05
N25750 G04 P1
N25760 G00 Z0.8000
N25770 X9.8954 Y23.1683
N25780 Z0.6900
N25790 o<touchoff> call [0.1900]  [0.5]  [0.1750] 
N25800 F3.937
N25810 G01 Z0.1750
N25820 X10.0204 F48
N25830 G02 X10.5394 Y23.6873 I0.5190 J0.0000 F48.0
N25840 G01 X15.1734 F48
N25850 G02 X15.6924 Y23.1683 I0.0000 J-0.5190 F48.0
N25860 G01 Y19.2185 F48
N25870 G02 X15.5793 Y18.8951 I-0.5190 J0.0000 F48.0
N25880 G01 X15.0661 Y18.2509 F48
N25890 G03 X14.9613 Y17.9512 I0.3762 J-0.2997 F48.0
N25900 G01 Y17.5886 F48
N25910 G02 X13.6923 Y16.3196 I-1.2690 J0.0000 F48.0
N25920 G01 X12.0205 F48
N25930 G02 X10.7515 Y17.5886 I0.0000 J1.2690 F48.0
N25940 G01 Y17.9512 F48
N25950 G03 X10.6467 Y18.2509 I-0.4810 J0.0000 F48.0
N25960 G01 X10.1335 Y18.8951 F48
N25970 G02 X10.0204 Y19.2185 I0.4059 J0.3234 F48.0
N25980 G01 Y23.1683 F48
N25990 G03 X9.9404 Y23.2483 I-0.0800 J0.0000 F48.0
N26000 M05
N26010 G04 P1
N26020 G00 Z0.8000
N26030 M05 M30
