N0010 (Filename: Sheet_3.ngc)
N0020 (Post processor: Xmotion.scpost)
N0030 (Date: 27/09/2018)
N0040 G20 (Units: Inches)
N0050 G40 G90
N0060 G64 P0.001 
N0070 F1 S1
N0080 (Part: Drag_Chain_Supports)
N0090 (Operation: Inside Offset, 0, T2: Plasma, 0.036 in kerf)
N0100 G00 Z1.3000
N0110 X5.8698 Y25.9843
N0120 Z0.6900
N0130 o<touchoff> call [0.1900]  [0.5]  [0.1750] 
N0140 F3.937
N0150 G01 Z0.1750
N0160 X5.7448 F70
N0170 Y29.4843
N0180 G02 X5.9988 Y29.4843 I0.1270 J0.0000 F70.0
N0190 G01 Y25.9843 F70
N0200 G02 X5.7448 Y25.9843 I-0.1270 J0.0000 F70.0
N0210 X5.8248 Y26.0643 I0.0800 J0.0000
N0220 M05
N0230 G04 P1
N0240 G00 Z1.3000
N0250 X4.9636 Y25.9843
N0260 Z0.6900
N0270 o<touchoff> call [0.1900]  [0.5]  [0.1750] 
N0280 F3.937
N0290 G01 Z0.1750
N0300 X4.8386 F70
N0310 Y29.4843
N0320 G02 X5.0926 Y29.4843 I0.1270 J0.0000 F70.0
N0330 G01 Y25.9843 F70
N0340 G02 X4.8386 Y25.9843 I-0.1270 J0.0000 F70.0
N0350 X4.9186 Y26.0643 I0.0800 J0.0000
N0360 M05
N0370 G04 P1
N0380 G00 Z1.3000
N0390 X2.2176 Y29.4843
N0400 Z0.6900
N0410 o<touchoff> call [0.1900]  [0.5]  [0.1750] 
N0420 F3.937
N0430 G01 Z0.1750
N0440 X2.3426 F70
N0450 Y25.9843
N0460 G02 X2.0886 Y25.9843 I-0.1270 J0.0000 F70.0
N0470 G01 Y29.4843 F70
N0480 G02 X2.3426 Y29.4843 I0.1270 J0.0000 F70.0
N0490 X2.2626 Y29.4043 I-0.0800 J0.0000
N0500 M05
N0510 G04 P1
N0520 G00 Z1.3000
N0530 X1.3114 Y29.4843
N0540 Z0.6900
N0550 o<touchoff> call [0.1900]  [0.5]  [0.1750] 
N0560 F3.937
N0570 G01 Z0.1750
N0580 X1.4364 F70
N0590 Y25.9843
N0600 G02 X1.1824 Y25.9843 I-0.1270 J0.0000 F70.0
N0610 G01 Y29.4843 F70
N0620 G02 X1.4364 Y29.4843 I0.1270 J0.0000 F70.0
N0630 X1.3564 Y29.4043 I-0.0800 J0.0000
N0640 M05
N0650 G04 P1
N0660 G00 Z1.3000
N0670 X8.2057 Y28.8421
N0680 Z0.6900
N0690 o<touchoff> call [0.1900]  [0.5]  [0.1750] 
N0700 F3.937
N0710 G01 Z0.1750
N0720 Y28.7171 F70
N0730 G02 X8.2057 Y29.0461 I0.0000 J0.1645 F70.0
N0740 G01 X8.6824 F70
N0750 G02 X8.6824 Y28.7171 I0.0000 J-0.1645 F70.0
N0760 G01 X8.2057 F70
N0770 G02 X8.1257 Y28.7971 I0.0000 J0.0800 F70.0
N0780 M05
N0790 G04 P1
N0800 G00 Z1.3000
N0810 X8.6824 Y29.5509
N0820 Z0.6900
N0830 o<touchoff> call [0.1900]  [0.5]  [0.1750] 
N0840 F3.937
N0850 G01 Z0.1750
N0860 Y29.6759 F70
N0870 G02 X8.6824 Y29.3469 I-0.0000 J-0.1645 F70.0
N0880 G01 X8.2057 F70
N0890 G02 X8.2057 Y29.6759 I0.0000 J0.1645 F70.0
N0900 G01 X8.6824 F70
N0910 G02 X8.7624 Y29.5959 I-0.0000 J-0.0800 F70.0
N0920 M05
N0930 G04 P1
N0940 G00 Z1.3000
N0950 X10.9439 Y28.8421
N0960 Z0.6900
N0970 o<touchoff> call [0.1900]  [0.5]  [0.1750] 
N0980 F3.937
N0990 G01 Z0.1750
N1000 Y28.7171 F70
N1010 G02 X10.9439 Y29.0461 I0.0000 J0.1645 F70.0
N1020 G01 X11.4206 F70
N1030 G02 X11.4206 Y28.7171 I0.0000 J-0.1645 F70.0
N1040 G01 X10.9439 F70
N1050 G02 X10.8639 Y28.7971 I0.0000 J0.0800 F70.0
N1060 M05
N1070 G04 P1
N1080 G00 Z1.3000
N1090 X11.4206 Y29.5509
N1100 Z0.6900
N1110 o<touchoff> call [0.1900]  [0.5]  [0.1750] 
N1120 F3.937
N1130 G01 Z0.1750
N1140 Y29.6759 F70
N1150 G02 X11.4206 Y29.3469 I0.0000 J-0.1645 F70.0
N1160 G01 X10.9439 F70
N1170 G02 X10.9439 Y29.6759 I0.0000 J0.1645 F70.0
N1180 G01 X11.4206 F70
N1190 G02 X11.5006 Y29.5959 I0.0000 J-0.0800 F70.0
N1200 M05
N1210 G04 P1
N1220 G00 Z1.3000
N1230 X11.2007 Y5.0156
N1240 Z0.6900
N1250 o<touchoff> call [0.1900]  [0.5]  [0.1750] 
N1260 F3.937
N1270 G01 Z0.1750
N1280 X11.0757 F70
N1290 G02 X11.3297 Y5.0156 I0.1270 J0.0000 F70.0
N1300 G01 Y1.5156 F70
N1310 G02 X11.0757 Y1.5156 I-0.1270 J0.0000 F70.0
N1320 G01 Y5.0156 F70
N1330 G02 X11.1557 Y5.0956 I0.0800 J0.0000 F70.0
N1340 M05
N1350 G04 P1
N1360 G00 Z1.3000
N1370 X12.1069 Y5.0156
N1380 Z0.6900
N1390 o<touchoff> call [0.1900]  [0.5]  [0.1750] 
N1400 F3.937
N1410 G01 Z0.1750
N1420 X11.9819 F70
N1430 G02 X12.2359 Y5.0156 I0.1270 J0.0000 F70.0
N1440 G01 Y1.5156 F70
N1450 G02 X11.9819 Y1.5156 I-0.1270 J0.0000 F70.0
N1460 G01 Y5.0156 F70
N1470 G02 X12.0619 Y5.0956 I0.0800 J0.0000 F70.0
N1480 M05
N1490 G04 P1
N1500 G00 Z1.3000
N1510 X8.4547 Y1.5156
N1520 Z0.6900
N1530 o<touchoff> call [0.1900]  [0.5]  [0.1750] 
N1540 F3.937
N1550 G01 Z0.1750
N1560 X8.5797 F70
N1570 G02 X8.3257 Y1.5156 I-0.1270 J0.0000 F70.0
N1580 G01 Y5.0156 F70
N1590 G02 X8.5797 Y5.0156 I0.1270 J0.0000 F70.0
N1600 G01 Y1.5156 F70
N1610 G02 X8.4997 Y1.4356 I-0.0800 J0.0000 F70.0
N1620 M05
N1630 G04 P1
N1640 G00 Z1.3000
N1650 X7.5485 Y1.5156
N1660 Z0.6900
N1670 o<touchoff> call [0.1900]  [0.5]  [0.1750] 
N1680 F3.937
N1690 G01 Z0.1750
N1700 X7.6735 F70
N1710 G02 X7.4195 Y1.5156 I-0.1270 J0.0000 F70.0
N1720 G01 Y5.0156 F70
N1730 G02 X7.6735 Y5.0156 I0.1270 J0.0000 F70.0
N1740 G01 Y1.5156 F70
N1750 G02 X7.5935 Y1.4356 I-0.0800 J0.0000 F70.0
N1760 M05
N1770 G04 P1
N1780 G00 Z1.3000
N1790 X5.1834 Y1.4490
N1800 Z0.6900
N1810 o<touchoff> call [0.1900]  [0.5]  [0.1750] 
N1820 F3.937
N1830 G01 Z0.1750
N1840 Y1.3240 F70
N1850 X4.7067
N1860 G02 X4.7067 Y1.6530 I0.0000 J0.1645 F70.0
N1870 G01 X5.1834 F70
N1880 G02 X5.1834 Y1.3240 I0.0000 J-0.1645 F70.0
N1890 X5.1034 Y1.4040 I0.0000 J0.0800
N1900 M05
N1910 G04 P1
N1920 G00 Z1.3000
N1930 X4.7067 Y2.1578
N1940 Z0.6900
N1950 o<touchoff> call [0.1900]  [0.5]  [0.1750] 
N1960 F3.937
N1970 G01 Z0.1750
N1980 Y2.2828 F70
N1990 X5.1834
N2000 G02 X5.1834 Y1.9538 I-0.0000 J-0.1645 F70.0
N2010 G01 X4.7067 F70
N2020 G02 X4.7067 Y2.2828 I0.0000 J0.1645 F70.0
N2030 X4.7867 Y2.2028 I-0.0000 J-0.0800
N2040 M05
N2050 G04 P1
N2060 G00 Z1.3000
N2070 X2.4453 Y1.4490
N2080 Z0.6900
N2090 o<touchoff> call [0.1900]  [0.5]  [0.1750] 
N2100 F3.937
N2110 G01 Z0.1750
N2120 Y1.3240 F70
N2130 X1.9685
N2140 G02 X1.9685 Y1.6530 I0.0000 J0.1645 F70.0
N2150 G01 X2.4453 F70
N2160 G02 X2.4453 Y1.3240 I0.0000 J-0.1645 F70.0
N2170 X2.3653 Y1.4040 I0.0000 J0.0800
N2180 M05
N2190 G04 P1
N2200 G00 Z1.3000
N2210 X1.9685 Y2.1578
N2220 Z0.6900
N2230 o<touchoff> call [0.1900]  [0.5]  [0.1750] 
N2240 F3.937
N2250 G01 Z0.1750
N2260 Y2.2828 F70
N2270 X2.4453
N2280 G02 X2.4453 Y1.9538 I0.0000 J-0.1645 F70.0
N2290 G01 X1.9685 F70
N2300 G02 X1.9685 Y2.2828 I0.0000 J0.1645 F70.0
N2310 X2.0485 Y2.2028 I0.0000 J-0.0800
N2320 (Operation: Outside Offset, Outside, T2: Plasma, 0.036 in kerf)
N2330 M05
N2340 G04 P1
N2350 G00 Z1.3000
N2360 X3.8196 Y0.8413
N2370 Z0.6900
N2380 o<touchoff> call [0.1900]  [0.5]  [0.1750] 
N2390 F3.937
N2400 G01 Z0.1750
N2410 Y0.9663 F70
N2420 X5.2781
N2430 G03 X5.2961 Y0.9843 I0.0000 J0.0180 F70.0
N2440 G02 X5.3851 Y0.9843 I0.0445 J0.0000
N2450 G03 X5.4031 Y0.9663 I0.0180 J0.0000
N2460 G01 X6.3406 F70
N2470 G03 X6.3486 Y0.9682 I0.0000 J0.0180 F70.0
N2480 G01 X6.5986 Y1.0932 F70
N2490 G03 X6.6086 Y1.1093 I-0.0080 J0.0161 F70.0
N2500 G01 Y29.8593 F70
N2510 G03 X6.5986 Y29.8754 I-0.0180 J0.0000 F70.0
N2520 G01 X6.3486 Y30.0004 F70
N2530 G03 X6.3406 Y30.0023 I-0.0080 J-0.0161 F70.0
N2540 G01 X5.4031 F70
N2550 G03 X5.3851 Y29.9843 I0.0000 J-0.0180 F70.0
N2560 G02 X5.2961 Y29.9843 I-0.0445 J0.0000
N2570 G03 X5.2781 Y30.0023 I-0.0180 J0.0000
N2580 G01 X1.9031 F70
N2590 G03 X1.8851 Y29.9843 I0.0000 J-0.0180 F70.0
N2600 G02 X1.7961 Y29.9843 I-0.0445 J0.0000
N2610 G03 X1.7781 Y30.0023 I-0.0180 J0.0000
N2620 G01 X0.8406 F70
N2630 G03 X0.8325 Y30.0004 I0.0000 J-0.0180 F70.0
N2640 G01 X0.5825 Y29.8754 F70
N2650 G03 X0.5726 Y29.8593 I0.0080 J-0.0161 F70.0
N2660 G01 Y1.1093 F70
N2670 G03 X0.5825 Y1.0932 I0.0180 J0.0000 F70.0
N2680 G01 X0.8325 Y0.9682 F70
N2690 G03 X0.8406 Y0.9663 I0.0080 J0.0161 F70.0
N2700 G01 X1.7781 F70
N2710 G03 X1.7961 Y0.9843 I0.0000 J0.0180 F70.0
N2720 G02 X1.8851 Y0.9843 I0.0445 J0.0000
N2730 G03 X1.9031 Y0.9663 I0.0180 J0.0000
N2740 G01 X3.8196 F70
N2750 G02 X3.8996 Y0.8863 I0.0000 J-0.0800 F70.0
N2760 M05
N2770 G04 P1
N2780 G00 Z1.3000
N2790 X10.0406 Y0.8726
N2800 Z0.6900
N2810 o<touchoff> call [0.1900]  [0.5]  [0.1750] 
N2820 F3.937
N2830 G01 Z0.1750
N2840 Y0.9976 F70
N2850 X11.5152
N2860 G03 X11.5332 Y1.0156 I0.0000 J0.0180 F70.0
N2870 G01 Y5.2676 F70
N2880 G02 X11.6222 Y5.2676 I0.0445 J-0.0000 F70.0
N2890 G01 Y1.0156 F70
N2900 G03 X11.6402 Y0.9976 I0.0180 J0.0000 F70.0
N2910 G01 X12.5777 F70
N2920 G03 X12.5858 Y0.9995 I0.0000 J0.0180 F70.0
N2930 G01 X12.8358 Y1.1245 F70
N2940 G03 X12.8457 Y1.1406 I-0.0080 J0.0161 F70.0
N2950 G01 Y29.8906 F70
N2960 G03 X12.8358 Y29.9067 I-0.0180 J0.0000 F70.0
N2970 G01 X12.5858 Y30.0317 F70
N2980 G03 X12.5777 Y30.0336 I-0.0080 J-0.0161 F70.0
N2990 G01 X11.6402 F70
N3000 G03 X11.6222 Y30.0156 I0.0000 J-0.0180 F70.0
N3010 G02 X11.5332 Y30.0156 I-0.0445 J0.0000
N3020 G03 X11.5152 Y30.0336 I-0.0180 J0.0000
N3030 G01 X8.1402 F70
N3040 G03 X8.1222 Y30.0156 I0.0000 J-0.0180 F70.0
N3050 G02 X8.0332 Y30.0156 I-0.0445 J0.0000
N3060 G03 X8.0152 Y30.0336 I-0.0180 J0.0000
N3070 G01 X7.0777 F70
N3080 G03 X7.0697 Y30.0317 I0.0000 J-0.0180 F70.0
N3090 G01 X6.8197 Y29.9067 F70
N3100 G03 X6.8097 Y29.8906 I0.0080 J-0.0161 F70.0
N3110 G01 Y1.1406 F70
N3120 G03 X6.8197 Y1.1245 I0.0180 J0.0000 F70.0
N3130 G01 X7.0697 Y0.9995 F70
N3140 G03 X7.0777 Y0.9976 I0.0080 J0.0161 F70.0
N3150 G01 X8.0152 F70
N3160 G03 X8.0332 Y1.0156 I0.0000 J0.0180 F70.0
N3170 G01 Y5.2676 F70
N3180 G02 X8.1222 Y5.2676 I0.0445 J0.0000 F70.0
N3190 G01 Y1.0156 F70
N3200 G03 X8.1402 Y0.9976 I0.0180 J0.0000 F70.0
N3210 G01 X10.0406 F70
N3220 (Part: Drag_Chain_Supports Duplicate 1)
N3230 G02 X10.1206 Y0.9176 I0.0000 J-0.0800 F70.0
N3240 (Operation: Inside Offset, 0, T2: Plasma, 0.036 in kerf)
N3250 M05
N3260 G04 P1
N3270 G00 Z1.3000
N3280 X19.0587 Y25.9843
N3290 Z0.6900
N3300 o<touchoff> call [0.1900]  [0.5]  [0.1750] 
N3310 F3.937
N3320 G01 Z0.1750
N3330 X18.9337 F70
N3340 Y29.4843
N3350 G02 X19.1877 Y29.4843 I0.1270 J0.0000 F70.0
N3360 G01 Y25.9843 F70
N3370 G02 X18.9337 Y25.9843 I-0.1270 J0.0000 F70.0
N3380 X19.0137 Y26.0643 I0.0800 J0.0000
N3390 M05
N3400 G04 P1
N3410 G00 Z1.3000
N3420 X18.1525 Y25.9843
N3430 Z0.6900
N3440 o<touchoff> call [0.1900]  [0.5]  [0.1750] 
N3450 F3.937
N3460 G01 Z0.1750
N3470 X18.0275 F70
N3480 Y29.4843
N3490 G02 X18.2815 Y29.4843 I0.1270 J0.0000 F70.0
N3500 G01 Y25.9843 F70
N3510 G02 X18.0275 Y25.9843 I-0.1270 J0.0000 F70.0
N3520 X18.1075 Y26.0643 I0.0800 J0.0000
N3530 M05
N3540 G04 P1
N3550 G00 Z1.3000
N3560 X15.4065 Y29.4843
N3570 Z0.6900
N3580 o<touchoff> call [0.1900]  [0.5]  [0.1750] 
N3590 F3.937
N3600 G01 Z0.1750
N3610 X15.5315 F70
N3620 Y25.9843
N3630 G02 X15.2775 Y25.9843 I-0.1270 J0.0000 F70.0
N3640 G01 Y29.4843 F70
N3650 G02 X15.5315 Y29.4843 I0.1270 J0.0000 F70.0
N3660 X15.4515 Y29.4043 I-0.0800 J0.0000
N3670 M05
N3680 G04 P1
N3690 G00 Z1.3000
N3700 X14.5003 Y29.4843
N3710 Z0.6900
N3720 o<touchoff> call [0.1900]  [0.5]  [0.1750] 
N3730 F3.937
N3740 G01 Z0.1750
N3750 X14.6253 F70
N3760 Y25.9843
N3770 G02 X14.3713 Y25.9843 I-0.1270 J0.0000 F70.0
N3780 G01 Y29.4843 F70
N3790 G02 X14.6253 Y29.4843 I0.1270 J0.0000 F70.0
N3800 X14.5453 Y29.4043 I-0.0800 J0.0000
N3810 M05
N3820 G04 P1
N3830 G00 Z1.3000
N3840 X21.3947 Y28.8421
N3850 Z0.6900
N3860 o<touchoff> call [0.1900]  [0.5]  [0.1750] 
N3870 F3.937
N3880 G01 Z0.1750
N3890 Y28.7171 F70
N3900 G02 X21.3947 Y29.0461 I0.0000 J0.1645 F70.0
N3910 G01 X21.8714 F70
N3920 G02 X21.8714 Y28.7171 I0.0000 J-0.1645 F70.0
N3930 G01 X21.3947 F70
N3940 G02 X21.3147 Y28.7971 I0.0000 J0.0800 F70.0
N3950 M05
N3960 G04 P1
N3970 G00 Z1.3000
N3980 X21.8714 Y29.5509
N3990 Z0.6900
N4000 o<touchoff> call [0.1900]  [0.5]  [0.1750] 
N4010 F3.937
N4020 G01 Z0.1750
N4030 Y29.6759 F70
N4040 G02 X21.8714 Y29.3469 I0.0000 J-0.1645 F70.0
N4050 G01 X21.3947 F70
N4060 G02 X21.3947 Y29.6759 I0.0000 J0.1645 F70.0
N4070 G01 X21.8714 F70
N4080 G02 X21.9514 Y29.5959 I0.0000 J-0.0800 F70.0
N4090 M05
N4100 G04 P1
N4110 G00 Z1.3000
N4120 X24.1328 Y28.8421
N4130 Z0.6900
N4140 o<touchoff> call [0.1900]  [0.5]  [0.1750] 
N4150 F3.937
N4160 G01 Z0.1750
N4170 Y28.7171 F70
N4180 G02 X24.1328 Y29.0461 I0.0000 J0.1645 F70.0
N4190 G01 X24.6096 F70
N4200 G02 X24.6096 Y28.7171 I0.0000 J-0.1645 F70.0
N4210 G01 X24.1328 F70
N4220 G02 X24.0528 Y28.7971 I0.0000 J0.0800 F70.0
N4230 M05
N4240 G04 P1
N4250 G00 Z1.3000
N4260 X24.6096 Y29.5509
N4270 Z0.6900
N4280 o<touchoff> call [0.1900]  [0.5]  [0.1750] 
N4290 F3.937
N4300 G01 Z0.1750
N4310 Y29.6759 F70
N4320 G02 X24.6096 Y29.3469 I0.0000 J-0.1645 F70.0
N4330 G01 X24.1328 F70
N4340 G02 X24.1328 Y29.6759 I0.0000 J0.1645 F70.0
N4350 G01 X24.6096 F70
N4360 G02 X24.6896 Y29.5959 I0.0000 J-0.0800 F70.0
N4370 M05
N4380 G04 P1
N4390 G00 Z1.3000
N4400 X24.3897 Y5.0156
N4410 Z0.6900
N4420 o<touchoff> call [0.1900]  [0.5]  [0.1750] 
N4430 F3.937
N4440 G01 Z0.1750
N4450 X24.2647 F70
N4460 G02 X24.5187 Y5.0156 I0.1270 J0.0000 F70.0
N4470 G01 Y1.5156 F70
N4480 G02 X24.2647 Y1.5156 I-0.1270 J0.0000 F70.0
N4490 G01 Y5.0156 F70
N4500 G02 X24.3447 Y5.0956 I0.0800 J0.0000 F70.0
N4510 M05
N4520 G04 P1
N4530 G00 Z1.3000
N4540 X25.2959 Y5.0156
N4550 Z0.6900
N4560 o<touchoff> call [0.1900]  [0.5]  [0.1750] 
N4570 F3.937
N4580 G01 Z0.1750
N4590 X25.1709 F70
N4600 G02 X25.4249 Y5.0156 I0.1270 J0.0000 F70.0
N4610 G01 Y1.5156 F70
N4620 G02 X25.1709 Y1.5156 I-0.1270 J0.0000 F70.0
N4630 G01 Y5.0156 F70
N4640 G02 X25.2509 Y5.0956 I0.0800 J0.0000 F70.0
N4650 M05
N4660 G04 P1
N4670 G00 Z1.3000
N4680 X21.6437 Y1.5156
N4690 Z0.6900
N4700 o<touchoff> call [0.1900]  [0.5]  [0.1750] 
N4710 F3.937
N4720 G01 Z0.1750
N4730 X21.7687 F70
N4740 G02 X21.5147 Y1.5156 I-0.1270 J0.0000 F70.0
N4750 G01 Y5.0156 F70
N4760 G02 X21.7687 Y5.0156 I0.1270 J0.0000 F70.0
N4770 G01 Y1.5156 F70
N4780 G02 X21.6887 Y1.4356 I-0.0800 J0.0000 F70.0
N4790 M05
N4800 G04 P1
N4810 G00 Z1.3000
N4820 X20.7375 Y1.5156
N4830 Z0.6900
N4840 o<touchoff> call [0.1900]  [0.5]  [0.1750] 
N4850 F3.937
N4860 G01 Z0.1750
N4870 X20.8625 F70
N4880 G02 X20.6085 Y1.5156 I-0.1270 J0.0000 F70.0
N4890 G01 Y5.0156 F70
N4900 G02 X20.8625 Y5.0156 I0.1270 J0.0000 F70.0
N4910 G01 Y1.5156 F70
N4920 G02 X20.7825 Y1.4356 I-0.0800 J0.0000 F70.0
N4930 M05
N4940 G04 P1
N4950 G00 Z1.3000
N4960 X18.3724 Y1.4490
N4970 Z0.6900
N4980 o<touchoff> call [0.1900]  [0.5]  [0.1750] 
N4990 F3.937
N5000 G01 Z0.1750
N5010 Y1.3240 F70
N5020 X17.8957
N5030 G02 X17.8957 Y1.6530 I0.0000 J0.1645 F70.0
N5040 G01 X18.3724 F70
N5050 G02 X18.3724 Y1.3240 I0.0000 J-0.1645 F70.0
N5060 X18.2924 Y1.4040 I0.0000 J0.0800
N5070 M05
N5080 G04 P1
N5090 G00 Z1.3000
N5100 X17.8957 Y2.1578
N5110 Z0.6900
N5120 o<touchoff> call [0.1900]  [0.5]  [0.1750] 
N5130 F3.937
N5140 G01 Z0.1750
N5150 Y2.2828 F70
N5160 X18.3724
N5170 G02 X18.3724 Y1.9538 I0.0000 J-0.1645 F70.0
N5180 G01 X17.8957 F70
N5190 G02 X17.8957 Y2.2828 I0.0000 J0.1645 F70.0
N5200 X17.9757 Y2.2028 I0.0000 J-0.0800
N5210 M05
N5220 G04 P1
N5230 G00 Z1.3000
N5240 X15.6342 Y1.4490
N5250 Z0.6900
N5260 o<touchoff> call [0.1900]  [0.5]  [0.1750] 
N5270 F3.937
N5280 G01 Z0.1750
N5290 Y1.3240 F70
N5300 X15.1575
N5310 G02 X15.1575 Y1.6530 I0.0000 J0.1645 F70.0
N5320 G01 X15.6342 F70
N5330 G02 X15.6342 Y1.3240 I0.0000 J-0.1645 F70.0
N5340 X15.5542 Y1.4040 I0.0000 J0.0800
N5350 M05
N5360 G04 P1
N5370 G00 Z1.3000
N5380 X15.1575 Y2.1578
N5390 Z0.6900
N5400 o<touchoff> call [0.1900]  [0.5]  [0.1750] 
N5410 F3.937
N5420 G01 Z0.1750
N5430 Y2.2828 F70
N5440 X15.6342
N5450 G02 X15.6342 Y1.9538 I0.0000 J-0.1645 F70.0
N5460 G01 X15.1575 F70
N5470 G02 X15.1575 Y2.2828 I0.0000 J0.1645 F70.0
N5480 X15.2375 Y2.2028 I0.0000 J-0.0800
N5490 (Operation: Outside Offset, Outside, T2: Plasma, 0.036 in kerf)
N5500 M05
N5510 G04 P1
N5520 G00 Z1.3000
N5530 X17.0086 Y0.8413
N5540 Z0.6900
N5550 o<touchoff> call [0.1900]  [0.5]  [0.1750] 
N5560 F3.937
N5570 G01 Z0.1750
N5580 Y0.9663 F70
N5590 X18.4670
N5600 G03 X18.4850 Y0.9843 I0.0000 J0.0180 F70.0
N5610 G02 X18.5740 Y0.9843 I0.0445 J0.0000
N5620 G03 X18.5920 Y0.9663 I0.0180 J0.0000
N5630 G01 X19.5295 F70
N5640 G03 X19.5376 Y0.9682 I0.0000 J0.0180 F70.0
N5650 G01 X19.7876 Y1.0932 F70
N5660 G03 X19.7975 Y1.1093 I-0.0080 J0.0161 F70.0
N5670 G01 Y29.8593 F70
N5680 G03 X19.7876 Y29.8754 I-0.0180 J0.0000 F70.0
N5690 G01 X19.5376 Y30.0004 F70
N5700 G03 X19.5295 Y30.0023 I-0.0080 J-0.0161 F70.0
N5710 G01 X18.5920 F70
N5720 G03 X18.5740 Y29.9843 I0.0000 J-0.0180 F70.0
N5730 G02 X18.4850 Y29.9843 I-0.0445 J0.0000
N5740 G03 X18.4670 Y30.0023 I-0.0180 J0.0000
N5750 G01 X15.0920 F70
N5760 G03 X15.0740 Y29.9843 I0.0000 J-0.0180 F70.0
N5770 G02 X14.9850 Y29.9843 I-0.0445 J0.0000
N5780 G03 X14.9670 Y30.0023 I-0.0180 J0.0000
N5790 G01 X14.0295 F70
N5800 G03 X14.0215 Y30.0004 I0.0000 J-0.0180 F70.0
N5810 G01 X13.7715 Y29.8754 F70
N5820 G03 X13.7615 Y29.8593 I0.0080 J-0.0161 F70.0
N5830 G01 Y1.1093 F70
N5840 G03 X13.7715 Y1.0932 I0.0180 J0.0000 F70.0
N5850 G01 X14.0215 Y0.9682 F70
N5860 G03 X14.0295 Y0.9663 I0.0080 J0.0161 F70.0
N5870 G01 X14.9670 F70
N5880 G03 X14.9850 Y0.9843 I0.0000 J0.0180 F70.0
N5890 G02 X15.0740 Y0.9843 I0.0445 J0.0000
N5900 G03 X15.0920 Y0.9663 I0.0180 J0.0000
N5910 G01 X17.0086 F70
N5920 G02 X17.0886 Y0.8863 I0.0000 J-0.0800 F70.0
N5930 M05
N5940 G04 P1
N5950 G00 Z1.3000
N5960 X23.2296 Y0.8726
N5970 Z0.6900
N5980 o<touchoff> call [0.1900]  [0.5]  [0.1750] 
N5990 F3.937
N6000 G01 Z0.1750
N6010 Y0.9976 F70
N6020 X24.7042
N6030 G03 X24.7222 Y1.0156 I0.0000 J0.0180 F70.0
N6040 G01 Y5.2676 F70
N6050 G02 X24.8112 Y5.2676 I0.0445 J-0.0000 F70.0
N6060 G01 Y1.0156 F70
N6070 G03 X24.8292 Y0.9976 I0.0180 J0.0000 F70.0
N6080 G01 X25.7667 F70
N6090 G03 X25.7748 Y0.9995 I0.0000 J0.0180 F70.0
N6100 G01 X26.0248 Y1.1245 F70
N6110 G03 X26.0347 Y1.1406 I-0.0080 J0.0161 F70.0
N6120 G01 Y29.8906 F70
N6130 G03 X26.0248 Y29.9067 I-0.0180 J0.0000 F70.0
N6140 G01 X25.7748 Y30.0317 F70
N6150 G03 X25.7667 Y30.0336 I-0.0080 J-0.0161 F70.0
N6160 G01 X24.8292 F70
N6170 G03 X24.8112 Y30.0156 I0.0000 J-0.0180 F70.0
N6180 G02 X24.7222 Y30.0156 I-0.0445 J0.0000
N6190 G03 X24.7042 Y30.0336 I-0.0180 J0.0000
N6200 G01 X21.3292 F70
N6210 G03 X21.3112 Y30.0156 I0.0000 J-0.0180 F70.0
N6220 G02 X21.2222 Y30.0156 I-0.0445 J0.0000
N6230 G03 X21.2042 Y30.0336 I-0.0180 J0.0000
N6240 G01 X20.2667 F70
N6250 G03 X20.2587 Y30.0317 I0.0000 J-0.0180 F70.0
N6260 G01 X20.0087 Y29.9067 F70
N6270 G03 X19.9987 Y29.8906 I0.0080 J-0.0161 F70.0
N6280 G01 Y1.1406 F70
N6290 G03 X20.0087 Y1.1245 I0.0180 J0.0000 F70.0
N6300 G01 X20.2587 Y0.9995 F70
N6310 G03 X20.2667 Y0.9976 I0.0080 J0.0161 F70.0
N6320 G01 X21.2042 F70
N6330 G03 X21.2222 Y1.0156 I0.0000 J0.0180 F70.0
N6340 G01 Y5.2676 F70
N6350 G02 X21.3112 Y5.2676 I0.0445 J0.0000 F70.0
N6360 G01 Y1.0156 F70
N6370 G03 X21.3292 Y0.9976 I0.0180 J0.0000 F70.0
N6380 G01 X23.2296 F70
N6390 (Part: Drag_Chain_Supports Duplicate 2)
N6400 G02 X23.3096 Y0.9176 I0.0000 J-0.0800 F70.0
N6410 (Operation: Inside Offset, 0, T2: Plasma, 0.036 in kerf)
N6420 M05
N6430 G04 P1
N6440 G00 Z1.3000
N6450 X32.2477 Y25.9843
N6460 Z0.6900
N6470 o<touchoff> call [0.1900]  [0.5]  [0.1750] 
N6480 F3.937
N6490 G01 Z0.1750
N6500 X32.1227 F70
N6510 Y29.4843
N6520 G02 X32.3767 Y29.4843 I0.1270 J0.0000 F70.0
N6530 G01 Y25.9843 F70
N6540 G02 X32.1227 Y25.9843 I-0.1270 J0.0000 F70.0
N6550 X32.2027 Y26.0643 I0.0800 J0.0000
N6560 M05
N6570 G04 P1
N6580 G00 Z1.3000
N6590 X31.3415 Y25.9843
N6600 Z0.6900
N6610 o<touchoff> call [0.1900]  [0.5]  [0.1750] 
N6620 F3.937
N6630 G01 Z0.1750
N6640 X31.2165 F70
N6650 Y29.4843
N6660 G02 X31.4705 Y29.4843 I0.1270 J0.0000 F70.0
N6670 G01 Y25.9843 F70
N6680 G02 X31.2165 Y25.9843 I-0.1270 J0.0000 F70.0
N6690 X31.2965 Y26.0643 I0.0800 J0.0000
N6700 M05
N6710 G04 P1
N6720 G00 Z1.3000
N6730 X28.5955 Y29.4843
N6740 Z0.6900
N6750 o<touchoff> call [0.1900]  [0.5]  [0.1750] 
N6760 F3.937
N6770 G01 Z0.1750
N6780 X28.7205 F70
N6790 Y25.9843
N6800 G02 X28.4665 Y25.9843 I-0.1270 J0.0000 F70.0
N6810 G01 Y29.4843 F70
N6820 G02 X28.7205 Y29.4843 I0.1270 J0.0000 F70.0
N6830 X28.6405 Y29.4043 I-0.0800 J0.0000
N6840 M05
N6850 G04 P1
N6860 G00 Z1.3000
N6870 X27.6893 Y29.4843
N6880 Z0.6900
N6890 o<touchoff> call [0.1900]  [0.5]  [0.1750] 
N6900 F3.937
N6910 G01 Z0.1750
N6920 X27.8143 F70
N6930 Y25.9843
N6940 G02 X27.5603 Y25.9843 I-0.1270 J0.0000 F70.0
N6950 G01 Y29.4843 F70
N6960 G02 X27.8143 Y29.4843 I0.1270 J0.0000 F70.0
N6970 X27.7343 Y29.4043 I-0.0800 J0.0000
N6980 M05
N6990 G04 P1
N7000 G00 Z1.3000
N7010 X34.5836 Y28.8421
N7020 Z0.6900
N7030 o<touchoff> call [0.1900]  [0.5]  [0.1750] 
N7040 F3.937
N7050 G01 Z0.1750
N7060 Y28.7171 F70
N7070 G02 X34.5836 Y29.0461 I0.0000 J0.1645 F70.0
N7080 G01 X35.0604 F70
N7090 G02 X35.0604 Y28.7171 I0.0000 J-0.1645 F70.0
N7100 G01 X34.5836 F70
N7110 G02 X34.5036 Y28.7971 I0.0000 J0.0800 F70.0
N7120 M05
N7130 G04 P1
N7140 G00 Z1.3000
N7150 X35.0604 Y29.5509
N7160 Z0.6900
N7170 o<touchoff> call [0.1900]  [0.5]  [0.1750] 
N7180 F3.937
N7190 G01 Z0.1750
N7200 Y29.6759 F70
N7210 G02 X35.0604 Y29.3469 I0.0000 J-0.1645 F70.0
N7220 G01 X34.5836 F70
N7230 G02 X34.5836 Y29.6759 I0.0000 J0.1645 F70.0
N7240 G01 X35.0604 F70
N7250 G02 X35.1404 Y29.5959 I0.0000 J-0.0800 F70.0
N7260 M05
N7270 G04 P1
N7280 G00 Z1.3000
N7290 X37.3218 Y28.8421
N7300 Z0.6900
N7310 o<touchoff> call [0.1900]  [0.5]  [0.1750] 
N7320 F3.937
N7330 G01 Z0.1750
N7340 Y28.7171 F70
N7350 G02 X37.3218 Y29.0461 I0.0000 J0.1645 F70.0
N7360 G01 X37.7986 F70
N7370 G02 X37.7986 Y28.7171 I0.0000 J-0.1645 F70.0
N7380 G01 X37.3218 F70
N7390 G02 X37.2418 Y28.7971 I0.0000 J0.0800 F70.0
N7400 M05
N7410 G04 P1
N7420 G00 Z1.3000
N7430 X37.7986 Y29.5509
N7440 Z0.6900
N7450 o<touchoff> call [0.1900]  [0.5]  [0.1750] 
N7460 F3.937
N7470 G01 Z0.1750
N7480 Y29.6759 F70
N7490 G02 X37.7986 Y29.3469 I0.0000 J-0.1645 F70.0
N7500 G01 X37.3218 F70
N7510 G02 X37.3218 Y29.6759 I0.0000 J0.1645 F70.0
N7520 G01 X37.7986 F70
N7530 G02 X37.8786 Y29.5959 I0.0000 J-0.0800 F70.0
N7540 M05
N7550 G04 P1
N7560 G00 Z1.3000
N7570 X37.5787 Y5.0156
N7580 Z0.6900
N7590 o<touchoff> call [0.1900]  [0.5]  [0.1750] 
N7600 F3.937
N7610 G01 Z0.1750
N7620 X37.4537 F70
N7630 G02 X37.7077 Y5.0156 I0.1270 J0.0000 F70.0
N7640 G01 Y1.5156 F70
N7650 G02 X37.4537 Y1.5156 I-0.1270 J0.0000 F70.0
N7660 G01 Y5.0156 F70
N7670 G02 X37.5337 Y5.0956 I0.0800 J0.0000 F70.0
N7680 M05
N7690 G04 P1
N7700 G00 Z1.3000
N7710 X38.4849 Y5.0156
N7720 Z0.6900
N7730 o<touchoff> call [0.1900]  [0.5]  [0.1750] 
N7740 F3.937
N7750 G01 Z0.1750
N7760 X38.3599 F70
N7770 G02 X38.6139 Y5.0156 I0.1270 J0.0000 F70.0
N7780 G01 Y1.5156 F70
N7790 G02 X38.3599 Y1.5156 I-0.1270 J0.0000 F70.0
N7800 G01 Y5.0156 F70
N7810 G02 X38.4399 Y5.0956 I0.0800 J0.0000 F70.0
N7820 M05
N7830 G04 P1
N7840 G00 Z1.3000
N7850 X34.8327 Y1.5156
N7860 Z0.6900
N7870 o<touchoff> call [0.1900]  [0.5]  [0.1750] 
N7880 F3.937
N7890 G01 Z0.1750
N7900 X34.9577 F70
N7910 G02 X34.7037 Y1.5156 I-0.1270 J0.0000 F70.0
N7920 G01 Y5.0156 F70
N7930 G02 X34.9577 Y5.0156 I0.1270 J0.0000 F70.0
N7940 G01 Y1.5156 F70
N7950 G02 X34.8777 Y1.4356 I-0.0800 J0.0000 F70.0
N7960 M05
N7970 G04 P1
N7980 G00 Z1.3000
N7990 X33.9265 Y1.5156
N8000 Z0.6900
N8010 o<touchoff> call [0.1900]  [0.5]  [0.1750] 
N8020 F3.937
N8030 G01 Z0.1750
N8040 X34.0515 F70
N8050 G02 X33.7975 Y1.5156 I-0.1270 J0.0000 F70.0
N8060 G01 Y5.0156 F70
N8070 G02 X34.0515 Y5.0156 I0.1270 J0.0000 F70.0
N8080 G01 Y1.5156 F70
N8090 G02 X33.9715 Y1.4356 I-0.0800 J0.0000 F70.0
N8100 M05
N8110 G04 P1
N8120 G00 Z1.3000
N8130 X31.5614 Y1.4490
N8140 Z0.6900
N8150 o<touchoff> call [0.1900]  [0.5]  [0.1750] 
N8160 F3.937
N8170 G01 Z0.1750
N8180 Y1.3240 F70
N8190 X31.0846
N8200 G02 X31.0846 Y1.6530 I0.0000 J0.1645 F70.0
N8210 G01 X31.5614 F70
N8220 G02 X31.5614 Y1.3240 I0.0000 J-0.1645 F70.0
N8230 X31.4814 Y1.4040 I0.0000 J0.0800
N8240 M05
N8250 G04 P1
N8260 G00 Z1.3000
N8270 X31.0846 Y2.1578
N8280 Z0.6900
N8290 o<touchoff> call [0.1900]  [0.5]  [0.1750] 
N8300 F3.937
N8310 G01 Z0.1750
N8320 Y2.2828 F70
N8330 X31.5614
N8340 G02 X31.5614 Y1.9538 I0.0000 J-0.1645 F70.0
N8350 G01 X31.0846 F70
N8360 G02 X31.0846 Y2.2828 I0.0000 J0.1645 F70.0
N8370 X31.1646 Y2.2028 I0.0000 J-0.0800
N8380 M05
N8390 G04 P1
N8400 G00 Z1.3000
N8410 X28.8232 Y1.4490
N8420 Z0.6900
N8430 o<touchoff> call [0.1900]  [0.5]  [0.1750] 
N8440 F3.937
N8450 G01 Z0.1750
N8460 Y1.3240 F70
N8470 X28.3464
N8480 G02 X28.3464 Y1.6530 I0.0000 J0.1645 F70.0
N8490 G01 X28.8232 F70
N8500 G02 X28.8232 Y1.3240 I0.0000 J-0.1645 F70.0
N8510 X28.7432 Y1.4040 I0.0000 J0.0800
N8520 M05
N8530 G04 P1
N8540 G00 Z1.3000
N8550 X28.3464 Y2.1578
N8560 Z0.6900
N8570 o<touchoff> call [0.1900]  [0.5]  [0.1750] 
N8580 F3.937
N8590 G01 Z0.1750
N8600 Y2.2828 F70
N8610 X28.8232
N8620 G02 X28.8232 Y1.9538 I0.0000 J-0.1645 F70.0
N8630 G01 X28.3464 F70
N8640 G02 X28.3464 Y2.2828 I0.0000 J0.1645 F70.0
N8650 X28.4264 Y2.2028 I0.0000 J-0.0800
N8660 (Operation: Outside Offset, Outside, T2: Plasma, 0.036 in kerf)
N8670 M05
N8680 G04 P1
N8690 G00 Z1.3000
N8700 X30.1976 Y0.8413
N8710 Z0.6900
N8720 o<touchoff> call [0.1900]  [0.5]  [0.1750] 
N8730 F3.937
N8740 G01 Z0.1750
N8750 Y0.9663 F70
N8760 X31.6560
N8770 G03 X31.6740 Y0.9843 I0.0000 J0.0180 F70.0
N8780 G02 X31.7630 Y0.9843 I0.0445 J0.0000
N8790 G03 X31.7810 Y0.9663 I0.0180 J0.0000
N8800 G01 X32.7185 F70
N8810 G03 X32.7266 Y0.9682 I0.0000 J0.0180 F70.0
N8820 G01 X32.9766 Y1.0932 F70
N8830 G03 X32.9865 Y1.1093 I-0.0080 J0.0161 F70.0
N8840 G01 Y29.8593 F70
N8850 G03 X32.9766 Y29.8754 I-0.0180 J0.0000 F70.0
N8860 G01 X32.7266 Y30.0004 F70
N8870 G03 X32.7185 Y30.0023 I-0.0080 J-0.0161 F70.0
N8880 G01 X31.7810 F70
N8890 G03 X31.7630 Y29.9843 I0.0000 J-0.0180 F70.0
N8900 G02 X31.6740 Y29.9843 I-0.0445 J0.0000
N8910 G03 X31.6560 Y30.0023 I-0.0180 J0.0000
N8920 G01 X28.2810 F70
N8930 G03 X28.2630 Y29.9843 I0.0000 J-0.0180 F70.0
N8940 G02 X28.1740 Y29.9843 I-0.0445 J0.0000
N8950 G03 X28.1560 Y30.0023 I-0.0180 J0.0000
N8960 G01 X27.2185 F70
N8970 G03 X27.2105 Y30.0004 I0.0000 J-0.0180 F70.0
N8980 G01 X26.9605 Y29.8754 F70
N8990 G03 X26.9505 Y29.8593 I0.0080 J-0.0161 F70.0
N9000 G01 Y1.1093 F70
N9010 G03 X26.9605 Y1.0932 I0.0180 J0.0000 F70.0
N9020 G01 X27.2105 Y0.9682 F70
N9030 G03 X27.2185 Y0.9663 I0.0080 J0.0161 F70.0
N9040 G01 X28.1560 F70
N9050 G03 X28.1740 Y0.9843 I0.0000 J0.0180 F70.0
N9060 G02 X28.2630 Y0.9843 I0.0445 J0.0000
N9070 G03 X28.2810 Y0.9663 I0.0180 J0.0000
N9080 G01 X30.1976 F70
N9090 G02 X30.2776 Y0.8863 I0.0000 J-0.0800 F70.0
N9100 M05
N9110 G04 P1
N9120 G00 Z1.3000
N9130 X36.4186 Y0.8726
N9140 Z0.6900
N9150 o<touchoff> call [0.1900]  [0.5]  [0.1750] 
N9160 F3.937
N9170 G01 Z0.1750
N9180 Y0.9976 F70
N9190 X37.8932
N9200 G03 X37.9112 Y1.0156 I0.0000 J0.0180 F70.0
N9210 G01 Y5.2676 F70
N9220 G02 X38.0002 Y5.2676 I0.0445 J-0.0000 F70.0
N9230 G01 Y1.0156 F70
N9240 G03 X38.0182 Y0.9976 I0.0180 J0.0000 F70.0
N9250 G01 X38.9557 F70
N9260 G03 X38.9637 Y0.9995 I0.0000 J0.0180 F70.0
N9270 G01 X39.2137 Y1.1245 F70
N9280 G03 X39.2237 Y1.1406 I-0.0080 J0.0161 F70.0
N9290 G01 Y29.8906 F70
N9300 G03 X39.2137 Y29.9067 I-0.0180 J0.0000 F70.0
N9310 G01 X38.9637 Y30.0317 F70
N9320 G03 X38.9557 Y30.0336 I-0.0080 J-0.0161 F70.0
N9330 G01 X38.0182 F70
N9340 G03 X38.0002 Y30.0156 I0.0000 J-0.0180 F70.0
N9350 G02 X37.9112 Y30.0156 I-0.0445 J0.0000
N9360 G03 X37.8932 Y30.0336 I-0.0180 J0.0000
N9370 G01 X34.5182 F70
N9380 G03 X34.5002 Y30.0156 I0.0000 J-0.0180 F70.0
N9390 G02 X34.4112 Y30.0156 I-0.0445 J0.0000
N9400 G03 X34.3932 Y30.0336 I-0.0180 J0.0000
N9410 G01 X33.4557 F70
N9420 G03 X33.4476 Y30.0317 I0.0000 J-0.0180 F70.0
N9430 G01 X33.1976 Y29.9067 F70
N9440 G03 X33.1877 Y29.8906 I0.0080 J-0.0161 F70.0
N9450 G01 Y1.1406 F70
N9460 G03 X33.1976 Y1.1245 I0.0180 J0.0000 F70.0
N9470 G01 X33.4476 Y0.9995 F70
N9480 G03 X33.4557 Y0.9976 I0.0080 J0.0161 F70.0
N9490 G01 X34.3932 F70
N9500 G03 X34.4112 Y1.0156 I0.0000 J0.0180 F70.0
N9510 G01 Y5.2676 F70
N9520 G02 X34.5002 Y5.2676 I0.0445 J0.0000 F70.0
N9530 G01 Y1.0156 F70
N9540 G03 X34.5182 Y0.9976 I0.0180 J0.0000 F70.0
N9550 G01 X36.4186 F70
N9560 (Part: Drag_Chain_Supports Duplicate 3)
N9570 G02 X36.4986 Y0.9176 I0.0000 J-0.0800 F70.0
N9580 (Operation: Inside Offset, 0, T2: Plasma, 0.036 in kerf)
N9590 M05
N9600 G04 P1
N9610 G00 Z1.3000
N9620 X4.4925 Y36.3141
N9630 Z0.6900
N9640 o<touchoff> call [0.1900]  [0.5]  [0.1750] 
N9650 F3.937
N9660 G01 Z0.1750
N9670 Y36.1891 F70
N9680 X0.9925
N9690 G02 X0.9925 Y36.4431 I0.0000 J0.1270 F70.0
N9700 G01 X4.4925 F70
N9710 G02 X4.4925 Y36.1891 I-0.0000 J-0.1270 F70.0
N9720 X4.4125 Y36.2691 I0.0000 J0.0800
N9730 M05
N9740 G04 P1
N9750 G00 Z1.3000
N9760 X4.4925 Y35.4079
N9770 Z0.6900
N9780 o<touchoff> call [0.1900]  [0.5]  [0.1750] 
N9790 F3.937
N9800 G01 Z0.1750
N9810 Y35.2829 F70
N9820 X0.9925
N9830 G02 X0.9925 Y35.5369 I0.0000 J0.1270 F70.0
N9840 G01 X4.4925 F70
N9850 G02 X4.4925 Y35.2829 I0.0000 J-0.1270 F70.0
N9860 X4.4125 Y35.3629 I0.0000 J0.0800
N9870 M05
N9880 G04 P1
N9890 G00 Z1.3000
N9900 X0.9925 Y32.6619
N9910 Z0.6900
N9920 o<touchoff> call [0.1900]  [0.5]  [0.1750] 
N9930 F3.937
N9940 G01 Z0.1750
N9950 Y32.7869 F70
N9960 X4.4925
N9970 G02 X4.4925 Y32.5329 I-0.0000 J-0.1270 F70.0
N9980 G01 X0.9925 F70
N9990 G02 X0.9925 Y32.7869 I0.0000 J0.1270 F70.0
N10000 X1.0725 Y32.7069 I-0.0000 J-0.0800
N10010 M05
N10020 G04 P1
N10030 G00 Z1.3000
N10040 X0.9925 Y31.7557
N10050 Z0.6900
N10060 o<touchoff> call [0.1900]  [0.5]  [0.1750] 
N10070 F3.937
N10080 G01 Z0.1750
N10090 Y31.8807 F70
N10100 X4.4925
N10110 G02 X4.4925 Y31.6267 I0.0000 J-0.1270 F70.0
N10120 G01 X0.9925 F70
N10130 G02 X0.9925 Y31.8807 I0.0000 J0.1270 F70.0
N10140 X1.0725 Y31.8007 I0.0000 J-0.0800
N10150 M05
N10160 G04 P1
N10170 G00 Z1.3000
N10180 X1.6347 Y38.6500
N10190 Z0.6900
N10200 o<touchoff> call [0.1900]  [0.5]  [0.1750] 
N10210 F3.937
N10220 G01 Z0.1750
N10230 X1.7597 F70
N10240 G02 X1.4307 Y38.6500 I-0.1645 J0.0000 F70.0
N10250 G01 Y39.1268 F70
N10260 G02 X1.7597 Y39.1268 I0.1645 J0.0000 F70.0
N10270 G01 Y38.6500 F70
N10280 G02 X1.6797 Y38.5700 I-0.0800 J0.0000 F70.0
N10290 M05
N10300 G04 P1
N10310 G00 Z1.3000
N10320 X0.9259 Y39.1268
N10330 Z0.6900
N10340 o<touchoff> call [0.1900]  [0.5]  [0.1750] 
N10350 F3.937
N10360 G01 Z0.1750
N10370 X0.8009 F70
N10380 G02 X1.1299 Y39.1268 I0.1645 J0.0000 F70.0
N10390 G01 Y38.6500 F70
N10400 G02 X0.8009 Y38.6500 I-0.1645 J0.0000 F70.0
N10410 G01 Y39.1268 F70
N10420 G02 X0.8809 Y39.2068 I0.0800 J0.0000 F70.0
N10430 M05
N10440 G04 P1
N10450 G00 Z1.3000
N10460 X1.6347 Y41.3882
N10470 Z0.6900
N10480 o<touchoff> call [0.1900]  [0.5]  [0.1750] 
N10490 F3.937
N10500 G01 Z0.1750
N10510 X1.7597 F70
N10520 G02 X1.4307 Y41.3882 I-0.1645 J0.0000 F70.0
N10530 G01 Y41.8649 F70
N10540 G02 X1.7597 Y41.8649 I0.1645 J0.0000 F70.0
N10550 G01 Y41.3882 F70
N10560 G02 X1.6797 Y41.3082 I-0.0800 J0.0000 F70.0
N10570 M05
N10580 G04 P1
N10590 G00 Z1.3000
N10600 X0.9259 Y41.8649
N10610 Z0.6900
N10620 o<touchoff> call [0.1900]  [0.5]  [0.1750] 
N10630 F3.937
N10640 G01 Z0.1750
N10650 X0.8009 F70
N10660 G02 X1.1299 Y41.8649 I0.1645 J-0.0000 F70.0
N10670 G01 Y41.3882 F70
N10680 G02 X0.8009 Y41.3882 I-0.1645 J0.0000 F70.0
N10690 G01 Y41.8649 F70
N10700 G02 X0.8809 Y41.9449 I0.0800 J0.0000 F70.0
N10710 M05
N10720 G04 P1
N10730 G00 Z1.3000
N10740 X25.4612 Y41.6451
N10750 Z0.6900
N10760 o<touchoff> call [0.1900]  [0.5]  [0.1750] 
N10770 F3.937
N10780 G01 Z0.1750
N10790 Y41.5201 F70
N10800 G02 X25.4612 Y41.7741 I0.0000 J0.1270 F70.0
N10810 G01 X28.9612 F70
N10820 G02 X28.9612 Y41.5201 I0.0000 J-0.1270 F70.0
N10830 G01 X25.4612 F70
N10840 G02 X25.3812 Y41.6001 I0.0000 J0.0800 F70.0
N10850 M05
N10860 G04 P1
N10870 G00 Z1.3000
N10880 X25.4612 Y42.5513
N10890 Z0.6900
N10900 o<touchoff> call [0.1900]  [0.5]  [0.1750] 
N10910 F3.937
N10920 G01 Z0.1750
N10930 Y42.4263 F70
N10940 G02 X25.4612 Y42.6803 I0.0000 J0.1270 F70.0
N10950 G01 X28.9612 F70
N10960 G02 X28.9612 Y42.4263 I0.0000 J-0.1270 F70.0
N10970 G01 X25.4612 F70
N10980 G02 X25.3812 Y42.5063 I0.0000 J0.0800 F70.0
N10990 M05
N11000 G04 P1
N11010 G00 Z1.3000
N11020 X28.9612 Y38.8991
N11030 Z0.6900
N11040 o<touchoff> call [0.1900]  [0.5]  [0.1750] 
N11050 F3.937
N11060 G01 Z0.1750
N11070 Y39.0241 F70
N11080 G02 X28.9612 Y38.7701 I0.0000 J-0.1270 F70.0
N11090 G01 X25.4612 F70
N11100 G02 X25.4612 Y39.0241 I0.0000 J0.1270 F70.0
N11110 G01 X28.9612 F70
N11120 G02 X29.0412 Y38.9441 I0.0000 J-0.0800 F70.0
N11130 M05
N11140 G04 P1
N11150 G00 Z1.3000
N11160 X28.9612 Y37.9929
N11170 Z0.6900
N11180 o<touchoff> call [0.1900]  [0.5]  [0.1750] 
N11190 F3.937
N11200 G01 Z0.1750
N11210 Y38.1179 F70
N11220 G02 X28.9612 Y37.8639 I0.0000 J-0.1270 F70.0
N11230 G01 X25.4612 F70
N11240 G02 X25.4612 Y38.1179 I0.0000 J0.1270 F70.0
N11250 G01 X28.9612 F70
N11260 G02 X29.0412 Y38.0379 I0.0000 J-0.0800 F70.0
N11270 M05
N11280 G04 P1
N11290 G00 Z1.3000
N11300 X29.0278 Y35.6278
N11310 Z0.6900
N11320 o<touchoff> call [0.1900]  [0.5]  [0.1750] 
N11330 F3.937
N11340 G01 Z0.1750
N11350 X29.1528 F70
N11360 Y35.1510
N11370 G02 X28.8238 Y35.1510 I-0.1645 J0.0000 F70.0
N11380 G01 Y35.6278 F70
N11390 G02 X29.1528 Y35.6278 I0.1645 J0.0000 F70.0
N11400 X29.0728 Y35.5478 I-0.0800 J0.0000
N11410 M05
N11420 G04 P1
N11430 G00 Z1.3000
N11440 X28.3190 Y35.1510
N11450 Z0.6900
N11460 o<touchoff> call [0.1900]  [0.5]  [0.1750] 
N11470 F3.937
N11480 G01 Z0.1750
N11490 X28.1940 F70
N11500 Y35.6278
N11510 G02 X28.5230 Y35.6278 I0.1645 J0.0000 F70.0
N11520 G01 Y35.1510 F70
N11530 G02 X28.1940 Y35.1510 I-0.1645 J0.0000 F70.0
N11540 X28.2740 Y35.2310 I0.0800 J0.0000
N11550 M05
N11560 G04 P1
N11570 G00 Z1.3000
N11580 X29.0278 Y32.8896
N11590 Z0.6900
N11600 o<touchoff> call [0.1900]  [0.5]  [0.1750] 
N11610 F3.937
N11620 G01 Z0.1750
N11630 X29.1528 F70
N11640 Y32.4128
N11650 G02 X28.8238 Y32.4128 I-0.1645 J0.0000 F70.0
N11660 G01 Y32.8896 F70
N11670 G02 X29.1528 Y32.8896 I0.1645 J0.0000 F70.0
N11680 X29.0728 Y32.8096 I-0.0800 J0.0000
N11690 M05
N11700 G04 P1
N11710 G00 Z1.3000
N11720 X28.3190 Y32.4128
N11730 Z0.6900
N11740 o<touchoff> call [0.1900]  [0.5]  [0.1750] 
N11750 F3.937
N11760 G01 Z0.1750
N11770 X28.1940 F70
N11780 Y32.8896
N11790 G02 X28.5230 Y32.8896 I0.1645 J0.0000 F70.0
N11800 G01 Y32.4128 F70
N11810 G02 X28.1940 Y32.4128 I-0.1645 J0.0000 F70.0
N11820 X28.2740 Y32.4928 I0.0800 J0.0000
N11830 (Operation: Outside Offset, Outside, T2: Plasma, 0.036 in kerf)
N11840 M05
N11850 G04 P1
N11860 G00 Z1.3000
N11870 X29.6355 Y34.2639
N11880 Z0.6900
N11890 o<touchoff> call [0.1900]  [0.5]  [0.1750] 
N11900 F3.937
N11910 G01 Z0.1750
N11920 X29.5105 F70
N11930 Y35.7224
N11940 G03 X29.4925 Y35.7404 I-0.0180 J0.0000 F70.0
N11950 G02 X29.4925 Y35.8294 I0.0000 J0.0445
N11960 G03 X29.5105 Y35.8474 I0.0000 J0.0180
N11970 G01 Y36.7849 F70
N11980 G03 X29.5086 Y36.7929 I-0.0180 J0.0000 F70.0
N11990 G01 X29.3836 Y37.0429 F70
N12000 G03 X29.3675 Y37.0529 I-0.0161 J-0.0080 F70.0
N12010 G01 X0.6175 F70
N12020 G03 X0.6014 Y37.0429 I0.0000 J-0.0180 F70.0
N12030 G01 X0.4764 Y36.7929 F70
N12040 G03 X0.4745 Y36.7849 I0.0161 J-0.0080 F70.0
N12050 G01 Y35.8474 F70
N12060 G03 X0.4925 Y35.8294 I0.0180 J0.0000 F70.0
N12070 G02 X0.4925 Y35.7404 I0.0000 J-0.0445
N12080 G03 X0.4745 Y35.7224 I0.0000 J-0.0180
N12090 G01 Y32.3474 F70
N12100 G03 X0.4925 Y32.3294 I0.0180 J0.0000 F70.0
N12110 G02 X0.4925 Y32.2404 I0.0000 J-0.0445
N12120 G03 X0.4745 Y32.2224 I0.0000 J-0.0180
N12130 G01 Y31.2849 F70
N12140 G03 X0.4764 Y31.2768 I0.0180 J0.0000 F70.0
N12150 G01 X0.6014 Y31.0268 F70
N12160 G03 X0.6175 Y31.0169 I0.0161 J0.0080 F70.0
N12170 G01 X29.3675 F70
N12180 G03 X29.3836 Y31.0268 I0.0000 J0.0180 F70.0
N12190 G01 X29.5086 Y31.2768 F70
N12200 G03 X29.5105 Y31.2849 I-0.0161 J0.0080 F70.0
N12210 G01 Y32.2224 F70
N12220 G03 X29.4925 Y32.2404 I-0.0180 J0.0000 F70.0
N12230 G02 X29.4925 Y32.3294 I0.0000 J0.0445
N12240 G03 X29.5105 Y32.3474 I0.0000 J0.0180
N12250 G01 Y34.2639 F70
N12260 G02 X29.5905 Y34.3439 I0.0800 J-0.0000 F70.0
N12270 M05
N12280 G04 P1
N12290 G00 Z1.3000
N12300 X29.6042 Y40.4849
N12310 Z0.6900
N12320 o<touchoff> call [0.1900]  [0.5]  [0.1750] 
N12330 F3.937
N12340 G01 Z0.1750
N12350 X29.4792 F70
N12360 Y41.9596
N12370 G03 X29.4612 Y41.9776 I-0.0180 J0.0000 F70.0
N12380 G01 X25.2092 F70
N12390 G02 X25.2092 Y42.0666 I0.0000 J0.0445 F70.0
N12400 G01 X29.4612 F70
N12410 G03 X29.4792 Y42.0846 I0.0000 J0.0180 F70.0
N12420 G01 Y43.0221 F70
N12430 G03 X29.4773 Y43.0301 I-0.0180 J0.0000 F70.0
N12440 G01 X29.3523 Y43.2801 F70
N12450 G03 X29.3362 Y43.2901 I-0.0161 J-0.0080 F70.0
N12460 G01 X0.5862 F70
N12470 G03 X0.5701 Y43.2801 I0.0000 J-0.0180 F70.0
N12480 G01 X0.4451 Y43.0301 F70
N12490 G03 X0.4432 Y43.0221 I0.0161 J-0.0080 F70.0
N12500 G01 Y42.0846 F70
N12510 G03 X0.4612 Y42.0666 I0.0180 J0.0000 F70.0
N12520 G02 X0.4612 Y41.9776 I0.0000 J-0.0445
N12530 G03 X0.4432 Y41.9596 I0.0000 J-0.0180
N12540 G01 Y38.5846 F70
N12550 G03 X0.4612 Y38.5666 I0.0180 J0.0000 F70.0
N12560 G02 X0.4612 Y38.4776 I0.0000 J-0.0445
N12570 G03 X0.4432 Y38.4596 I0.0000 J-0.0180
N12580 G01 Y37.5221 F70
N12590 G03 X0.4451 Y37.5140 I0.0180 J0.0000 F70.0
N12600 G01 X0.5701 Y37.2640 F70
N12610 G03 X0.5862 Y37.2541 I0.0161 J0.0080 F70.0
N12620 G01 X29.3362 F70
N12630 G03 X29.3523 Y37.2640 I0.0000 J0.0180 F70.0
N12640 G01 X29.4773 Y37.5140 F70
N12650 G03 X29.4792 Y37.5221 I-0.0161 J0.0080 F70.0
N12660 G01 Y38.4596 F70
N12670 G03 X29.4612 Y38.4776 I-0.0180 J0.0000 F70.0
N12680 G01 X25.2092 F70
N12690 G02 X25.2092 Y38.5666 I0.0000 J0.0445 F70.0
N12700 G01 X29.4612 F70
N12710 G03 X29.4792 Y38.5846 I0.0000 J0.0180 F70.0
N12720 G01 Y40.4849 F70
N12730 G02 X29.5592 Y40.5649 I0.0800 J0.0000 F70.0
N12740 M05
N12750 G04 P1
N12760 G00 Z1.3000
N12770 M05 M30
